01_Cinematic LUTs_Shine.cube
LUT_3D_SIZE 16
0.069671 0.069671 0.069671
0.118579 0.069671 0.069671
0.175797 0.069671 0.069671
0.241322 0.069671 0.069671
0.307770 0.069671 0.069671
0.379453 0.069671 0.069671
0.454163 0.069671 0.069671
0.532108 0.069671 0.069671
0.614028 0.069671 0.069671
0.701144 0.069671 0.069671
0.792796 0.069671 0.069671
0.879792 0.069671 0.069671
0.953493 0.069671 0.069671
0.998833 0.069671 0.069671
1.008777 0.069671 0.069671
1.076774 0.069671 0.069671
0.069671 0.117373 0.069671
0.118579 0.116623 0.069671
0.175797 0.101603 0.069671
0.241322 0.097988 0.069671
0.307770 0.096138 0.069671
0.379453 0.095682 0.069671
0.454163 0.095675 0.069671
0.532108 0.095972 0.069671
0.614028 0.096525 0.069671
0.701144 0.097331 0.069671
0.792796 0.098313 0.069671
0.879792 0.098826 0.069671
0.953493 0.098467 0.069671
0.998833 0.096655 0.069671
1.008777 0.093449 0.069671
1.076774 0.093273 0.069671
0.069671 0.174491 0.069671
0.103979 0.174491 0.069671
0.176543 0.172923 0.069671
0.240667 0.162596 0.069671
0.307770 0.158167 0.069671
0.379453 0.156965 0.069671
0.454163 0.156952 0.069671
0.532108 0.157724 0.069671
0.614028 0.159171 0.069671
0.701144 0.161298 0.069671
0.792796 0.163842 0.069671
0.879792 0.165130 0.069671
0.953493 0.164218 0.069671
0.998833 0.159510 0.069671
1.008777 0.151014 0.069671
1.076774 0.150534 0.069671
0.069671 0.236180 0.069671
0.099330 0.236180 0.069671
0.166428 0.236180 0.069671
0.240624 0.235374 0.069671
0.307770 0.228435 0.069671
0.379453 0.226508 0.069671
0.454163 0.226481 0.069671
0.532108 0.227702 0.069671
0.614028 0.229985 0.069671
0.701144 0.233349 0.069671
0.792796 0.237370 0.069671
0.879792 0.239409 0.069671
0.953493 0.237981 0.069671
0.998833 0.230552 0.069671
1.008777 0.217079 0.069671
1.076774 0.216305 0.069671
0.069671 0.301884 0.069671
0.097565 0.301884 0.069671
0.161862 0.301884 0.069671
0.234258 0.301884 0.069671
0.307770 0.300885 0.069671
0.379453 0.298275 0.069671
0.454163 0.298266 0.069671
0.532108 0.299922 0.069671
0.614028 0.302997 0.069671
0.701144 0.307579 0.069671
0.792796 0.312991 0.069671
0.879792 0.315774 0.069671
0.953493 0.313843 0.069671
0.998833 0.303747 0.069671
1.008777 0.285476 0.069671
1.076774 0.284412 0.069671
0.069671 0.371109 0.069671
0.096930 0.371109 0.069671
0.160246 0.371109 0.069671
0.231695 0.371109 0.069671
0.305681 0.371620 0.069671
0.379453 0.370870 0.069671
0.454163 0.370824 0.069671
0.532108 0.372919 0.069671
0.614028 0.376845 0.069671
0.701144 0.382593 0.069671
0.792796 0.389397 0.069671
0.879792 0.392869 0.069671
0.953493 0.390451 0.069671
0.998833 0.377777 0.069671
1.008777 0.354726 0.069671
1.076774 0.353437 0.069671
0.069671 0.444062 0.069671
0.096919 0.444062 0.069671
0.160209 0.444062 0.069671
0.231633 0.444062 0.069671
0.305225 0.444062 0.069671
0.379593 0.444047 0.069671
0.454163 0.443828 0.069671
0.532108 0.446341 0.069671
0.614028 0.451026 0.069671
0.701144 0.457929 0.069671
0.792796 0.466180 0.069671
0.879792 0.470350 0.069671
0.953493 0.467427 0.069671
0.998833 0.452149 0.069671
1.008777 0.424413 0.069671
1.076774 0.422818 0.069671
0.069671 0.519451 0.069671
0.097144 0.519451 0.069671
0.160784 0.519451 0.069671
0.232580 0.519451 0.069671
0.306492 0.519451 0.069671
0.381222 0.519451 0.069671
0.456315 0.519451 0.069671
0.532108 0.519949 0.069671
0.614028 0.525394 0.069671
0.701144 0.533519 0.069671
0.792796 0.543116 0.069671
0.879792 0.548028 0.069671
0.953493 0.544594 0.069671
0.998833 0.526773 0.069671
1.008777 0.494301 0.069671
1.076774 0.492425 0.069671
0.069671 0.598634 0.069671
0.097646 0.598634 0.069671
0.162091 0.598634 0.069671
0.234616 0.598634 0.069671
0.309248 0.598634 0.069671
0.384719 0.598634 0.069671
0.460507 0.598634 0.069671
0.536503 0.598634 0.069671
0.614028 0.599988 0.069671
0.701144 0.609215 0.069671
0.792796 0.620223 0.069671
0.879792 0.625828 0.069671
0.953493 0.621901 0.069671
0.998833 0.601492 0.069671
1.008777 0.564361 0.069671
1.076774 0.562212 0.069671
0.069671 0.682760 0.069671
0.098437 0.682760 0.069671
0.164127 0.682760 0.069671
0.237823 0.682760 0.069671
0.313635 0.682760 0.069671
0.390199 0.682760 0.069671
0.467096 0.682760 0.069671
0.544199 0.682760 0.069671
0.621496 0.682760 0.069671
0.701144 0.685002 0.069671
0.792156 0.696835 0.069671
0.879792 0.703669 0.069671
0.953493 0.699359 0.069671
0.998833 0.676262 0.069671
1.008777 0.634503 0.069671
1.076774 0.632049 0.069671
0.069671 0.770417 0.069671
0.099329 0.770417 0.069671
0.166423 0.770417 0.069671
0.241445 0.770417 0.069671
0.318526 0.770417 0.069671
0.396359 0.770417 0.069671
0.474509 0.770417 0.069671
0.552907 0.770417 0.069671
0.631405 0.770417 0.069671
0.709936 0.770417 0.069671
0.792170 0.773952 0.069671
0.879821 0.781596 0.069671
0.953493 0.776699 0.069671
0.998833 0.751134 0.069671
1.008777 0.704662 0.069671
1.076774 0.701970 0.069671
0.069671 0.855456 0.069671
0.099870 0.855456 0.069671
0.167834 0.855456 0.069671
0.243639 0.855456 0.069671
0.321489 0.855456 0.069671
0.400084 0.855456 0.069671
0.479028 0.855456 0.069671
0.558150 0.855456 0.069671
0.637428 0.855456 0.069671
0.716756 0.855456 0.069671
0.796112 0.855456 0.069671
0.879537 0.859298 0.069671
0.953493 0.854225 0.069671
0.998833 0.826019 0.069671
1.008777 0.774872 0.069671
1.076774 0.771954 0.069671
0.069671 0.926018 0.069671
0.099442 0.926018 0.069671
0.166741 0.926018 0.069671
0.241928 0.926018 0.069671
0.319189 0.926018 0.069671
0.397151 0.926018 0.069671
0.475532 0.926018 0.069671
0.554074 0.926018 0.069671
0.632708 0.926018 0.069671
0.711511 0.926018 0.069671
0.790252 0.926018 0.069671
0.869100 0.926018 0.069671
0.953493 0.931545 0.069671
0.998833 0.900803 0.069671
1.008777 0.845000 0.069671
1.076774 0.841841 0.069671
0.069671 0.970521 0.069671
0.097596 0.970521 0.069671
0.161976 0.970521 0.069671
0.234430 0.970521 0.069671
0.309030 0.970521 0.069671
0.384413 0.970521 0.069671
0.460152 0.970521 0.069671
0.536086 0.970521 0.069671
0.612173 0.970521 0.069671
0.688334 0.970521 0.069671
0.764486 0.970521 0.069671
0.840753 0.970521 0.069671
0.918002 0.971563 0.069671
0.998833 0.975912 0.069671
1.008777 0.915440 0.069671
1.076774 0.911900 0.069671
0.069671 0.984170 0.069671
0.094515 0.984170 0.069671
0.153831 0.984170 0.069671
0.221552 0.984170 0.069671
0.291559 0.984170 0.069671
0.362399 0.984170 0.069671
0.433656 0.984170 0.069671
0.505112 0.984170 0.069671
0.576726 0.984170 0.069671
0.648418 0.984170 0.069671
0.720084 0.984170 0.069671
0.791930 0.984170 0.069671
0.863654 0.984170 0.069671
0.934590 0.983127 0.069671
1.008777 0.985624 0.069671
1.076774 0.981817 0.069671
0.069671 1.051959 0.069671
0.094385 1.051959 0.069671
0.153525 1.051959 0.069671
0.221065 1.051959 0.069671
0.290882 1.051959 0.069671
0.361572 1.051959 0.069671
0.432652 1.051959 0.069671
0.503935 1.051959 0.069671
0.575392 1.051959 0.069671
0.646900 1.051959 0.069671
0.718365 1.051959 0.069671
0.790085 1.051959 0.069671
0.861628 1.051959 0.069671
0.933390 1.051959 0.069671
1.004913 1.051959 0.069671
1.076774 1.051959 0.069671
0.069671 0.069671 0.123670
0.115584 0.069671 0.123670
0.175797 0.069671 0.109309
0.241322 0.069671 0.105006
0.307770 0.069671 0.102777
0.379453 0.069671 0.102219
0.454163 0.069671 0.102215
0.532108 0.069671 0.102565
0.614028 0.069671 0.103233
0.701144 0.069671 0.104209
0.792796 0.069671 0.105390
0.879792 0.069671 0.105989
0.953493 0.069671 0.105570
0.998833 0.069671 0.103392
1.008777 0.069671 0.099527
1.076774 0.069671 0.099310
0.069671 0.113723 0.123670
0.118534 0.117373 0.123670
0.175797 0.117373 0.122132
0.241322 0.117373 0.121424
0.307770 0.117373 0.121050
0.379453 0.117373 0.120877
0.454163 0.117373 0.120829
0.532108 0.117373 0.120868
0.614028 0.117373 0.120963
0.701144 0.117373 0.121094
0.792795 0.117373 0.121257
0.879792 0.117373 0.121400
0.953493 0.117373 0.121522
0.998833 0.117373 0.121584
1.008777 0.117373 0.121576
1.076774 0.117373 0.121576
0.069671 0.174491 0.110400
0.118579 0.174491 0.122504
0.176543 0.173600 0.123343
0.241322 0.171287 0.123670
0.307770 0.169584 0.123670
0.379453 0.169586 0.123670
0.454163 0.170012 0.123670
0.532108 0.170761 0.123670
0.614028 0.171906 0.123670
0.701144 0.173464 0.123670
0.792795 0.175305 0.123670
0.879792 0.176219 0.123670
0.953493 0.175496 0.123670
0.998833 0.172021 0.123670
1.008777 0.165913 0.123670
1.076774 0.165563 0.123670
0.069671 0.236180 0.105038
0.118579 0.236180 0.121883
0.173802 0.236180 0.123499
0.241322 0.236555 0.123670
0.307770 0.233006 0.123670
0.379453 0.232846 0.123670
0.454163 0.233640 0.123670
0.532108 0.235154 0.123670
0.614028 0.237404 0.123670
0.701144 0.240526 0.123670
0.792795 0.244159 0.123670
0.879792 0.246003 0.123670
0.953493 0.244729 0.123670
0.998833 0.238105 0.123670
1.008777 0.226240 0.123670
1.076774 0.225576 0.123670
0.069671 0.301884 0.102985
0.118579 0.301884 0.121579
0.172491 0.301884 0.123739
0.238067 0.301884 0.123670
0.307770 0.301273 0.123670
0.379453 0.301027 0.123670
0.454163 0.302112 0.123670
0.532108 0.304313 0.123670
0.614028 0.307626 0.123670
0.701144 0.312147 0.123670
0.792795 0.317408 0.123670
0.879792 0.320085 0.123670
0.953493 0.318297 0.123670
0.998833 0.308809 0.123670
1.008777 0.291660 0.123670
1.076774 0.290679 0.123670
0.069671 0.371109 0.102267
0.118579 0.371109 0.121432
0.172086 0.371109 0.123441
0.237445 0.371109 0.123670
0.306957 0.370479 0.123670
0.379453 0.371166 0.123670
0.454163 0.372601 0.123670
0.532108 0.375458 0.123670
0.614028 0.379703 0.123670
0.701144 0.385597 0.123670
0.792795 0.392406 0.123670
0.879792 0.395866 0.123670
0.953493 0.393593 0.123670
0.998833 0.381352 0.123670
1.008777 0.359188 0.123670
1.076774 0.357882 0.123670
0.069671 0.444062 0.102250
0.118579 0.444062 0.121391
0.172539 0.444062 0.123455
0.238266 0.444062 0.123670
0.308632 0.444062 0.123670
0.381433 0.444675 0.123670
0.454163 0.444064 0.123670
0.532108 0.447529 0.123670
0.614028 0.452734 0.123670
0.701144 0.459915 0.123670
0.792795 0.468237 0.123670
0.879792 0.472498 0.123670
0.953493 0.469708 0.123670
0.998833 0.454782 0.123670
1.008777 0.427703 0.123670
1.076774 0.426127 0.123670
0.069671 0.519451 0.102512
0.118579 0.519451 0.121410
0.173348 0.519451 0.123707
0.239579 0.519451 0.123670
0.310543 0.519451 0.123670
0.383356 0.519451 0.123670
0.457154 0.519451 0.123670
0.532108 0.520094 0.123670
0.614028 0.526275 0.123670
0.701144 0.534727 0.123670
0.792795 0.544529 0.123670
0.879792 0.549491 0.123670
0.953493 0.546250 0.123670
0.998833 0.528722 0.123670
1.008777 0.496796 0.123670
1.076774 0.494961 0.123670
0.069671 0.598634 0.103089
0.118579 0.598634 0.121479
0.174467 0.598634 0.123773
0.241673 0.598634 0.123670
0.313575 0.598634 0.123670
0.387349 0.598634 0.123670
0.461970 0.598634 0.123670
0.537093 0.598634 0.123670
0.614028 0.600114 0.123670
0.701144 0.609845 0.123670
0.792795 0.621105 0.123670
0.879792 0.626873 0.123670
0.953493 0.623093 0.123670
0.998833 0.602956 0.123670
1.008777 0.566273 0.123670
1.076774 0.564146 0.123670
0.069671 0.682760 0.104005
0.118579 0.682760 0.121579
0.176011 0.682760 0.123829
0.244688 0.682760 0.123670
0.317944 0.682760 0.123670
0.392960 0.682760 0.123670
0.468850 0.682760 0.123670
0.545187 0.682760 0.123670
0.621864 0.682760 0.123670
0.701144 0.685136 0.123670
0.792002 0.697157 0.123670
0.879792 0.704355 0.123670
0.953493 0.700163 0.123670
0.998833 0.677354 0.123670
1.008777 0.635923 0.123670
1.076774 0.633540 0.123670
0.069671 0.770417 0.105035
0.118579 0.770417 0.121700
0.177694 0.770417 0.123815
0.248013 0.770417 0.123670
0.322724 0.770417 0.123670
0.399171 0.770417 0.123670
0.476412 0.770417 0.123670
0.554087 0.770417 0.123670
0.632065 0.770417 0.123670
0.710295 0.770417 0.123670
0.791852 0.773752 0.123670
0.879738 0.781876 0.123670
0.953493 0.777250 0.123670
0.998833 0.751798 0.123670
1.008777 0.705713 0.123670
1.076774 0.703040 0.123670
0.069671 0.855456 0.105668
0.118579 0.855456 0.121826
0.178485 0.855456 0.123443
0.250017 0.855456 0.123670
0.325647 0.855456 0.123670
0.402919 0.855456 0.123670
0.480996 0.855456 0.123670
0.559534 0.855456 0.123670
0.638337 0.855456 0.123670
0.717242 0.855456 0.123670
0.796253 0.855456 0.123670
0.879334 0.859210 0.123670
0.953493 0.854490 0.123670
0.998833 0.826565 0.123670
1.008777 0.775621 0.123670
1.076774 0.772732 0.123670
0.069671 0.926018 0.105178
0.118579 0.926018 0.121910
0.177753 0.926018 0.123647
0.248506 0.926018 0.123670
0.323504 0.926018 0.123670
0.400161 0.926018 0.123670
0.477688 0.926018 0.123670
0.555574 0.926018 0.123670
0.633818 0.926018 0.123670
0.712180 0.926018 0.123670
0.790640 0.926018 0.123670
0.869254 0.926018 0.123670
0.953493 0.931646 0.123670
0.998833 0.901108 0.123670
1.008777 0.845516 0.123670
1.076774 0.842304 0.123670
0.069671 0.970521 0.103042
0.118579 0.970521 0.121972
0.174035 0.970521 0.123258
0.241831 0.970521 0.123670
0.313958 0.970521 0.123670
0.387864 0.970521 0.123670
0.462674 0.970521 0.123670
0.537976 0.970521 0.123670
0.613526 0.970521 0.123670
0.689227 0.970521 0.123670
0.765123 0.970521 0.123670
0.841134 0.970521 0.123670
0.917157 0.970504 0.123670
0.998833 0.976011 0.123670
1.008777 0.915717 0.123670
1.076774 0.912186 0.123670
0.069671 0.984170 0.099439
0.118579 0.984170 0.121984
0.168532 0.984170 0.123855
0.230452 0.984170 0.123670
0.297534 0.984170 0.123670
0.366695 0.984170 0.123670
0.436812 0.984170 0.123670
0.507472 0.984170 0.123670
0.578516 0.984170 0.123670
0.649715 0.984170 0.123670
0.721083 0.984170 0.123670
0.792568 0.984170 0.123670
0.864021 0.984170 0.123670
0.934747 0.983111 0.123670
1.008777 0.985589 0.123670
1.076774 0.981884 0.123670
0.069671 1.051959 0.099310
0.118579 1.051959 0.122000
0.168129 1.051959 0.123632
0.230029 1.051959 0.123670
0.296925 1.051959 0.123670
0.365864 1.051959 0.123670
0.435827 1.051959 0.123670
0.506344 1.051959 0.123670
0.577201 1.051959 0.123670
0.648273 1.051959 0.123670
0.719437 1.051959 0.123670
0.790804 1.051959 0.123670
0.861995 1.051959 0.123670
0.933576 1.051959 0.123670
1.004907 1.051959 0.123670
1.076774 1.051959 0.123670
0.069671 0.069671 0.188000
0.101883 0.069671 0.188000
0.172931 0.069671 0.188000
0.240667 0.069671 0.180230
0.307770 0.069671 0.175157
0.379453 0.069671 0.173766
0.454163 0.069671 0.173750
0.532108 0.069671 0.174633
0.614028 0.069671 0.176281
0.701144 0.069671 0.178720
0.792796 0.069671 0.181650
0.879792 0.069671 0.183139
0.953493 0.069671 0.182096
0.998833 0.069671 0.176710
1.008777 0.069671 0.166950
1.076774 0.069671 0.166403
0.069671 0.100496 0.188000
0.118217 0.117373 0.188000
0.175199 0.116691 0.188000
0.241322 0.117373 0.185333
0.307770 0.117373 0.182609
0.379453 0.117373 0.182279
0.454163 0.117373 0.182655
0.532108 0.117373 0.183579
0.614028 0.117373 0.185022
0.701144 0.117373 0.187065
0.792795 0.117373 0.189429
0.879792 0.117373 0.190685
0.953493 0.117373 0.189961
0.998833 0.117373 0.185909
1.008777 0.117373 0.178633
1.076774 0.117373 0.178215
0.069671 0.169410 0.188000
0.118579 0.172385 0.188000
0.176258 0.173749 0.187269
0.241322 0.174491 0.187076
0.307770 0.174491 0.186302
0.379453 0.174491 0.185982
0.454163 0.174491 0.185939
0.532108 0.174491 0.186147
0.614028 0.174491 0.186487
0.701144 0.174491 0.186974
0.792795 0.174491 0.187505
0.879792 0.174491 0.187999
0.953493 0.174491 0.188423
0.998833 0.174491 0.188623
1.008777 0.174491 0.188578
1.076774 0.174491 0.188578
0.069671 0.236180 0.180782
0.118579 0.236180 0.185269
0.175797 0.236180 0.185973
0.241322 0.236956 0.188440
0.307770 0.235966 0.188000
0.379453 0.236692 0.188000
0.454163 0.237556 0.188000
0.532108 0.238619 0.188000
0.614028 0.240008 0.188000
0.701144 0.241861 0.188000
0.792795 0.244009 0.188000
0.879792 0.244963 0.188000
0.953493 0.243845 0.188000
0.998833 0.239232 0.188000
1.008777 0.231399 0.188000
1.076774 0.230961 0.188000
0.069671 0.301884 0.175702
0.118579 0.301884 0.183134
0.175797 0.301884 0.185352
0.240353 0.301884 0.188085
0.307770 0.301632 0.188000
0.379453 0.302747 0.188000
0.454163 0.304319 0.188000
0.532108 0.306437 0.188000
0.614028 0.309245 0.188000
0.701144 0.313017 0.188000
0.792795 0.317315 0.188000
0.879792 0.319419 0.188000
0.953493 0.317729 0.188000
0.998833 0.309580 0.188000
1.008777 0.295219 0.188000
1.076774 0.294404 0.188000
0.069671 0.371109 0.173865
0.118579 0.371109 0.182549
0.175797 0.371109 0.185075
0.240579 0.371109 0.187679
0.308154 0.370409 0.188000
0.379453 0.371425 0.188000
0.454163 0.373651 0.188000
0.532108 0.376699 0.188000
0.614028 0.380800 0.188000
0.701144 0.386156 0.188000
0.792795 0.392370 0.188000
0.879792 0.395442 0.188000
0.953493 0.393155 0.188000
0.998833 0.381912 0.188000
1.008777 0.361760 0.188000
1.076774 0.360611 0.188000
0.069671 0.444062 0.173830
0.118579 0.444062 0.182943
0.175797 0.444062 0.185030
0.242189 0.444062 0.188877
0.310416 0.444062 0.188000
0.380841 0.443189 0.188000
0.454163 0.444269 0.188000
0.532108 0.448160 0.188000
0.614028 0.453403 0.188000
0.701144 0.460342 0.188000
0.792795 0.468217 0.188000
0.879792 0.472180 0.188000
0.953493 0.469419 0.188000
0.998833 0.455196 0.188000
1.008777 0.429613 0.188000
1.076774 0.428171 0.188000
0.069671 0.519451 0.174496
0.118579 0.519451 0.183714
0.175797 0.519451 0.185152
0.242550 0.519451 0.187783
0.312336 0.519451 0.188000
0.384336 0.519451 0.188000
0.457497 0.519451 0.188000
0.532108 0.520266 0.188000
0.614028 0.526630 0.188000
0.701144 0.535007 0.188000
0.792795 0.544537 0.188000
0.879792 0.549304 0.188000
0.953493 0.546074 0.188000
0.998833 0.529004 0.188000
1.008777 0.498240 0.188000
1.076774 0.496486 0.188000
0.069671 0.598634 0.175958
0.118579 0.598634 0.185003
0.175797 0.598634 0.185415
0.243948 0.598634 0.187826
0.315047 0.598634 0.188000
0.388211 0.598634 0.188000
0.462410 0.598634 0.188000
0.537245 0.598634 0.188000
0.614028 0.600217 0.188000
0.701144 0.610021 0.188000
0.792795 0.621130 0.188000
0.879792 0.626773 0.188000
0.953493 0.622975 0.188000
0.998833 0.603169 0.188000
1.008777 0.567376 0.188000
1.076774 0.565327 0.188000
0.069671 0.682760 0.178203
0.118579 0.682760 0.186902
0.175797 0.682760 0.185798
0.246302 0.682760 0.188633
0.318725 0.682760 0.188000
0.393481 0.682760 0.188000
0.469132 0.682760 0.188000
0.545324 0.682760 0.188000
0.621878 0.682760 0.188000
0.701144 0.685191 0.188000
0.792681 0.697814 0.188000
0.879792 0.704326 0.188000
0.953493 0.700063 0.188000
0.998833 0.677549 0.188000
1.008777 0.636767 0.188000
1.076774 0.634442 0.188000
0.069671 0.770417 0.180776
0.118579 0.770417 0.188986
0.175797 0.770417 0.186200
0.248320 0.770417 0.188624
0.322694 0.770417 0.188000
0.399115 0.770417 0.188000
0.476390 0.770417 0.188000
0.554080 0.770417 0.188000
0.632042 0.770417 0.188000
0.710203 0.770417 0.188000
0.791190 0.773178 0.188000
0.880499 0.782466 0.188000
0.953493 0.777198 0.188000
0.998833 0.751941 0.188000
1.008777 0.706279 0.188000
1.076774 0.703663 0.188000
0.069671 0.855456 0.182330
0.118579 0.855456 0.190258
0.175797 0.855456 0.186619
0.249068 0.855456 0.187956
0.325031 0.855456 0.188000
0.402497 0.855456 0.188000
0.480688 0.855456 0.188000
0.559274 0.855456 0.188000
0.638133 0.855456 0.188000
0.717181 0.855456 0.188000
0.796161 0.855456 0.188000
0.881156 0.861000 0.188000
0.953493 0.854481 0.188000
0.998833 0.826670 0.188000
1.008777 0.776118 0.188000
1.076774 0.773190 0.188000
0.069671 0.926018 0.181131
0.118579 0.926018 0.189432
0.175797 0.926018 0.186902
0.248321 0.926018 0.188755
0.323108 0.926018 0.188000
0.399922 0.926018 0.188000
0.477455 0.926018 0.188000
0.555460 0.926018 0.188000
0.633688 0.926018 0.188000
0.712158 0.926018 0.188000
0.790558 0.926018 0.188000
0.869235 0.926018 0.188000
0.953493 0.931609 0.188000
0.998833 0.901175 0.188000
1.008777 0.845766 0.188000
1.076774 0.842681 0.188000
0.069671 0.970521 0.175813
0.118579 0.970521 0.185450
0.175797 0.970521 0.187088
0.243802 0.970521 0.188855
0.314893 0.970521 0.188000
0.388575 0.970521 0.188000
0.463190 0.970521 0.188000
0.538284 0.970521 0.188000
0.613804 0.970521 0.188000
0.689483 0.970521 0.188000
0.765268 0.970521 0.188000
0.841220 0.970521 0.188000
0.917107 0.970519 0.188000
0.998833 0.976039 0.188000
1.008777 0.915806 0.188000
1.076774 0.912356 0.188000
0.069671 0.984170 0.166734
0.118579 0.984170 0.178721
0.175797 0.984170 0.187150
0.235500 0.984170 0.187697
0.301170 0.984170 0.188000
0.369300 0.984170 0.188000
0.438746 0.984170 0.188000
0.508946 0.984170 0.188000
0.579623 0.984170 0.188000
0.650595 0.984170 0.188000
0.721690 0.984170 0.188000
0.792986 0.984170 0.188000
0.864227 0.984170 0.188000
0.934904 0.983140 0.188000
1.008777 0.985600 0.188000
1.076774 0.981883 0.188000
0.069671 1.051959 0.166403
0.118579 1.051959 0.178455
0.175797 1.051959 0.187201
0.235941 1.051959 0.188813
0.300634 1.051959 0.188000
0.368573 1.051959 0.188000
0.437843 1.051959 0.188000
0.507860 1.051959 0.188000
0.578369 1.051959 0.188000
0.649130 1.051959 0.188000
0.720028 1.051959 0.188000
0.791244 1.051959 0.188000
0.862346 1.051959 0.188000
0.933711 1.051959 0.188000
1.004961 1.051959 0.188000
1.076774 1.051959 0.188000
0.069671 0.069671 0.257880
0.097980 0.069671 0.257880
0.162976 0.069671 0.257880
0.235998 0.069671 0.257880
0.307770 0.069671 0.255125
0.379453 0.069671 0.252957
0.454163 0.069671 0.252935
0.532108 0.069671 0.254313
0.614028 0.069671 0.256895
0.701144 0.069671 0.260720
0.792796 0.069671 0.265256
0.879792 0.069671 0.267559
0.953493 0.069671 0.265943
0.998833 0.069671 0.257529
1.008777 0.069671 0.242259
1.076774 0.069671 0.241376
0.069671 0.096726 0.257880
0.118087 0.117373 0.257880
0.171188 0.117321 0.257880
0.238373 0.117373 0.258646
0.307770 0.117373 0.257153
0.379453 0.117373 0.256633
0.454163 0.117373 0.257374
0.532108 0.117373 0.259078
0.614028 0.117373 0.261721
0.701144 0.117373 0.265403
0.792795 0.117373 0.269688
0.879792 0.117373 0.271902
0.953493 0.117373 0.270513
0.998833 0.117373 0.262949
1.008777 0.117373 0.249258
1.076774 0.117373 0.248466
0.069671 0.159709 0.257880
0.118579 0.168681 0.257880
0.176530 0.174309 0.257880
0.239845 0.174568 0.258646
0.307770 0.174491 0.257850
0.379453 0.174491 0.258061
0.454163 0.174491 0.258910
0.532108 0.174491 0.260370
0.614028 0.174491 0.262469
0.701144 0.174491 0.265279
0.792795 0.174491 0.268517
0.879792 0.174491 0.270304
0.953493 0.174491 0.269569
0.998833 0.174491 0.264582
1.008777 0.174491 0.255510
1.076774 0.174491 0.255008
0.069671 0.230859 0.257880
0.118579 0.233027 0.257880
0.175797 0.234843 0.257880
0.240247 0.236180 0.257880
0.307770 0.236180 0.257456
0.379453 0.236180 0.257182
0.454163 0.236180 0.257293
0.532108 0.236180 0.257765
0.614028 0.236180 0.258496
0.701144 0.236180 0.259424
0.792795 0.236180 0.260462
0.879792 0.236180 0.261380
0.953493 0.236180 0.262124
0.998833 0.236180 0.262505
1.008777 0.236180 0.262433
1.076774 0.236180 0.262433
0.069671 0.301884 0.255961
0.118579 0.301884 0.257741
0.175797 0.301884 0.257701
0.241322 0.301884 0.258441
0.307770 0.301833 0.257880
0.379453 0.303008 0.257880
0.454163 0.304008 0.257880
0.532108 0.305084 0.257880
0.614028 0.306430 0.257880
0.701144 0.308258 0.257880
0.792795 0.310373 0.257880
0.879792 0.311100 0.257880
0.953493 0.309471 0.257880
0.998833 0.303882 0.257880
1.008777 0.294796 0.257880
1.076774 0.294336 0.257880
0.069671 0.371109 0.253124
0.118579 0.371109 0.256755
0.175797 0.371109 0.257496
0.240561 0.371109 0.257578
0.308147 0.370184 0.257880
0.379453 0.371629 0.257880
0.454163 0.373571 0.257880
0.532108 0.375955 0.257880
0.614028 0.379017 0.257880
0.701144 0.383067 0.257880
0.792795 0.387672 0.257880
0.879792 0.389699 0.257880
0.953493 0.387413 0.257880
0.998833 0.377880 0.257880
1.008777 0.361452 0.257880
1.076774 0.360583 0.257880
0.069671 0.444062 0.253055
0.118579 0.444062 0.257533
0.175797 0.444062 0.258358
0.240561 0.444062 0.257649
0.309913 0.444062 0.257880
0.381387 0.444162 0.257880
0.454163 0.444380 0.257880
0.532108 0.447875 0.257880
0.614028 0.452387 0.257880
0.701144 0.458317 0.257880
0.792795 0.465004 0.257880
0.879792 0.468144 0.257880
0.953493 0.465270 0.257880
0.998833 0.452227 0.257880
1.008777 0.429392 0.257880
1.076774 0.428185 0.257880
0.069671 0.519451 0.254093
0.118579 0.519451 0.258960
0.175797 0.519451 0.259576
0.240561 0.519451 0.258035
0.310986 0.519451 0.257880
0.383568 0.519451 0.257880
0.457107 0.519451 0.257880
0.532108 0.520349 0.257880
