01_Cinematic LUTs_Shine.cube
LUT_3D_SIZE 6
0.069671 0.069671 0.069671
0.241322 0.069671 0.069671
0.454163 0.069671 0.069671
0.701144 0.069671 0.069671
0.953493 0.069671 0.069671
1.076774 0.069671 0.069671
0.069671 0.236180 0.069671
0.240624 0.235374 0.069671
0.454163 0.226481 0.069671
0.701144 0.233349 0.069671
0.953493 0.237981 0.069671
1.076774 0.216305 0.069671
0.069671 0.444062 0.069671
0.231633 0.444062 0.069671
0.454163 0.443828 0.069671
0.701144 0.457929 0.069671
0.953493 0.467427 0.069671
1.076774 0.422818 0.069671
0.069671 0.682760 0.069671
0.237823 0.682760 0.069671
0.467096 0.682760 0.069671
0.701144 0.685002 0.069671
0.953493 0.699359 0.069671
1.076774 0.632049 0.069671
0.069671 0.926018 0.069671
0.241928 0.926018 0.069671
0.475532 0.926018 0.069671
0.711511 0.926018 0.069671
0.953493 0.931545 0.069671
1.076774 0.841841 0.069671
0.069671 1.051959 0.069671
0.221065 1.051959 0.069671
0.432652 1.051959 0.069671
0.646900 1.051959 0.069671
0.861628 1.051959 0.069671
1.076774 1.051959 0.069671
0.069671 0.069671 0.257880
0.235998 0.069671 0.257880
0.454163 0.069671 0.252935
0.701144 0.069671 0.260720
0.953493 0.069671 0.265943
1.076774 0.069671 0.241376
0.069671 0.230859 0.257880
0.240247 0.236180 0.257880
0.454163 0.236180 0.257293
0.701144 0.236180 0.259424
0.953493 0.236180 0.262124
1.076774 0.236180 0.262433
0.069671 0.444062 0.253055
0.240561 0.444062 0.257649
0.454163 0.444380 0.257880
0.701144 0.458317 0.257880
0.953493 0.465270 0.257880
1.076774 0.428185 0.257880
0.069671 0.682760 0.259891
0.240561 0.682760 0.259379
0.467307 0.682760 0.257880
0.701144 0.685157 0.257880
0.953493 0.698565 0.257880
1.076774 0.634530 0.257880
0.069671 0.926018 0.264433
0.240561 0.926018 0.261487
0.473798 0.926018 0.257880
0.710907 0.926018 0.257880
0.953493 0.931560 0.257880
1.076774 0.842811 0.257880
0.069671 1.051959 0.241376
0.241322 1.051959 0.262719
0.438136 1.051959 0.257880
0.649394 1.051959 0.257880
0.862576 1.051959 0.257880
1.076774 1.051959 0.257880
0.069671 0.069671 0.497947
0.231477 0.069671 0.497947
0.454069 0.069671 0.497947
0.701144 0.069671 0.513958
0.953493 0.069671 0.524623
1.076774 0.069671 0.474388
0.069671 0.226437 0.497947
0.240439 0.236439 0.497947
0.455896 0.236180 0.497947
0.701144 0.236180 0.513181
0.953493 0.236180 0.523295
1.076774 0.236180 0.482093
0.069671 0.443724 0.497947
0.241322 0.446084 0.497947
0.454307 0.444062 0.497947
0.701144 0.444062 0.503201
0.953493 0.444062 0.509499
1.076774 0.444062 0.510092
0.069671 0.682760 0.512255
0.241322 0.682760 0.511714
0.454163 0.682760 0.501842
0.701144 0.684125 0.497947
0.953493 0.685729 0.497947
1.076774 0.635524 0.497947
0.069671 0.926018 0.521515
0.241322 0.926018 0.520666
0.454163 0.926018 0.506832
0.701174 0.926018 0.497947
0.953493 0.930430 0.497947
1.076774 0.844496 0.497947
0.069671 1.051959 0.474388
0.241322 1.051959 0.482228
0.454163 1.051959 0.507971
0.652461 1.051959 0.497947
0.865775 1.051959 0.497947
1.076774 1.051959 0.497947
0.069671 0.069671 0.780548
0.241868 0.069671 0.780548
0.475386 0.069671 0.780548
0.711279 0.069671 0.780548
0.953493 0.069671 0.785355
1.076774 0.069671 0.709807
0.069671 0.236589 0.780548
0.241035 0.236465 0.780548
0.475416 0.236180 0.780548
0.711892 0.236180 0.780548
0.953493 0.236180 0.784796
1.076774 0.236180 0.713214
0.069671 0.464550 0.780548
0.241322 0.465003 0.780548
0.455825 0.444062 0.780548
0.708640 0.444062 0.780548
0.953493 0.444062 0.781948
1.076774 0.444062 0.728680
0.069671 0.694975 0.780548
0.241322 0.695665 0.780548
0.454163 0.691317 0.780548
0.701635 0.682760 0.780548
0.953493 0.682760 0.785552
1.076774 0.682760 0.785736
0.069671 0.926018 0.780673
0.241322 0.926018 0.780246
0.454163 0.926018 0.777961
0.701144 0.926018 0.783690
0.953493 0.928510 0.780548
1.076774 0.862164 0.780548
0.069671 1.051959 0.709807
0.241322 1.051959 0.713246
0.454163 1.051959 0.727798
0.701144 1.051959 0.784719
0.885900 1.051959 0.780548
1.076774 1.051959 0.780548
0.069671 0.069671 1.051084
0.244319 0.069671 1.051084
0.480415 0.069671 1.051084
0.718895 0.069671 1.051084
0.957955 0.069671 1.051424
1.076774 0.069671 0.945554
0.069671 0.238975 1.051084
0.241659 0.236671 1.051084
0.479418 0.236180 1.051084
0.718576 0.236180 1.051084
0.957777 0.236180 1.051110
1.076774 0.236180 0.946755
0.069671 0.469465 1.051084
0.241322 0.468655 1.051084
0.456812 0.444062 1.051084
0.709891 0.444062 1.051084
0.956757 0.444062 1.051672
1.076774 0.444062 0.956104
0.069671 0.702384 1.051084
0.241322 0.702079 1.051084
0.454163 0.691370 1.051084
0.702730 0.682760 1.051084
0.954018 0.682760 1.051795
1.076774 0.682760 0.985655
0.069671 0.935690 1.051084
0.241322 0.935762 1.051084
0.454163 0.933234 1.051084
0.701144 0.928613 1.051084
0.951454 0.926018 1.051084
1.076774 0.926018 1.051084
0.069671 1.051959 0.945554
0.241322 1.051959 0.946728
0.454163 1.051959 0.956029
0.701144 1.051959 0.985575
0.952344 1.051959 1.051084
1.076774 1.051959 1.051084
0.069671 0.069671 1.181868
0.221065 0.069671 1.181868
0.432652 0.069671 1.181868
0.646900 0.069671 1.181868
0.861628 0.069671 1.181868
1.076774 0.069671 1.181868
0.069671 0.216305 1.181868
0.241258 0.236248 1.181868
0.440105 0.236180 1.181868
0.650263 0.236180 1.181868
0.862859 0.236180 1.181868
1.076774 0.236180 1.181868
0.069671 0.422818 1.181868
0.241322 0.430262 1.181868
0.456812 0.444062 1.181868
0.659110 0.444062 1.181868
0.867822 0.444062 1.181868
1.076774 0.444062 1.181868
0.069671 0.632049 1.181868
0.241322 0.635475 1.181868
0.454163 0.641358 1.181868
0.702730 0.682760 1.181868
0.888400 0.682760 1.181868
1.076774 0.682760 1.181868
0.069671 0.841841 1.181868
0.241322 0.843107 1.181868
0.454163 0.846505 1.181868
0.701144 0.864636 1.181868
0.951454 0.926018 1.181868
1.076774 0.926018 1.181868
0.069671 1.051959 1.181868
0.241322 1.051959 1.181868
0.454163 1.051959 1.181868
0.701144 1.051959 1.181868
0.953493 1.051959 1.181868
1.076774 1.051959 1.181868
