02_Cinematic LUTs_Matte.cube
LUT_3D_SIZE 16
0.083454 0.083379 0.084896
0.106082 0.083291 0.084896
0.165350 0.083379 0.084896
0.219396 0.083291 0.084896
0.273018 0.082920 0.084896
0.325888 0.082938 0.084896
0.383245 0.082920 0.084896
0.444373 0.082938 0.084896
0.511508 0.082937 0.084896
0.584274 0.082944 0.084896
0.660895 0.082937 0.084896
0.745984 0.082944 0.084896
0.843914 0.082964 0.084896
0.895945 0.082984 0.084896
0.937679 0.082964 0.084896
1.011241 0.082984 0.084896
0.083372 0.107374 0.084896
0.103905 0.106537 0.084896
0.165256 0.097093 0.084896
0.219285 0.093233 0.084896
0.273018 0.091418 0.084896
0.325888 0.090065 0.084896
0.383245 0.089426 0.084896
0.444373 0.089076 0.084896
0.511508 0.088913 0.084896
0.584274 0.088805 0.084896
0.660895 0.088913 0.084896
0.745984 0.088805 0.084896
0.843914 0.089095 0.084896
0.895945 0.088876 0.084896
0.937679 0.089095 0.084896
1.011241 0.088876 0.084896
0.083173 0.167494 0.084896
0.095093 0.167451 0.084896
0.164014 0.167494 0.084896
0.218669 0.147868 0.084896
0.273018 0.136191 0.084896
0.325888 0.127462 0.084896
0.383245 0.124859 0.084896
0.444373 0.122311 0.084896
0.511508 0.121044 0.084896
0.584274 0.120440 0.084896
0.660895 0.121044 0.084896
0.745984 0.120440 0.084896
0.843914 0.122032 0.084896
0.895945 0.122046 0.084896
0.937679 0.122032 0.084896
1.011241 0.121013 0.084896
0.083029 0.219175 0.084896
0.092078 0.219175 0.084896
0.144293 0.219175 0.084896
0.218673 0.219175 0.084896
0.271982 0.197959 0.084896
0.325888 0.183729 0.084896
0.383245 0.177354 0.084896
0.444373 0.172395 0.084896
0.511508 0.169809 0.084896
0.584274 0.168575 0.084896
0.660895 0.167740 0.084896
0.745984 0.168575 0.084896
0.843914 0.170655 0.084896
0.895945 0.170825 0.084896
0.937679 0.171669 0.084896
1.011241 0.169791 0.084896
0.082994 0.268834 0.084896
0.090431 0.268834 0.084896
0.133951 0.268834 0.084896
0.199462 0.268834 0.084896
0.271935 0.267880 0.084896
0.325888 0.248257 0.084896
0.383184 0.236978 0.084896
0.444373 0.229710 0.084896
0.511508 0.225877 0.084896
0.584274 0.224090 0.084896
0.660895 0.223800 0.084896
0.745984 0.226162 0.084896
0.843914 0.225568 0.084896
0.895945 0.228995 0.084896
0.937679 0.228669 0.084896
1.011241 0.225911 0.084896
0.082996 0.317861 0.084896
0.089576 0.317861 0.084896
0.127766 0.317861 0.084896
0.186208 0.317861 0.084896
0.256490 0.318127 0.084896
0.325888 0.314834 0.084896
0.383192 0.299598 0.084896
0.444373 0.290100 0.084896
0.511508 0.285013 0.084896
0.584274 0.282783 0.084896
0.660895 0.281925 0.084896
0.745984 0.283818 0.084896
0.843914 0.287753 0.084896
0.895945 0.287181 0.084896
0.937679 0.288781 0.084896
1.011241 0.285110 0.084896
0.083004 0.367264 0.084896
0.089090 0.367264 0.084896
0.123656 0.367264 0.084896
0.178491 0.367264 0.084896
0.244267 0.366688 0.084896
0.313571 0.367277 0.084896
0.383323 0.363595 0.084896
0.444388 0.351788 0.084896
0.511508 0.345527 0.084896
0.584274 0.342720 0.084896
0.660895 0.341411 0.084896
0.745984 0.344790 0.084896
0.843914 0.347009 0.084896
0.895945 0.348798 0.084896
0.937679 0.350122 0.084896
1.011241 0.345688 0.084896
0.083022 0.418240 0.084896
0.088811 0.418240 0.084896
0.121618 0.418240 0.084896
0.174093 0.418240 0.084896
0.236516 0.418207 0.084896
0.303455 0.418155 0.084896
0.374566 0.418207 0.084896
0.444573 0.414025 0.084896
0.511560 0.406457 0.084896
0.584274 0.403134 0.084896
0.660895 0.401290 0.084896
0.745984 0.404173 0.084896
0.843914 0.407680 0.084896
0.895945 0.410705 0.084896
0.937679 0.411808 0.084896
1.011241 0.406612 0.084896
0.083024 0.471187 0.084896
0.088670 0.471187 0.084896
0.119560 0.471187 0.084896
0.170845 0.471187 0.084896
0.231058 0.471187 0.084896
0.296631 0.471181 0.084896
0.366995 0.471187 0.084896
0.439846 0.471181 0.084896
0.511758 0.467593 0.084896
0.584313 0.463543 0.084896
0.660124 0.461419 0.084896
0.746073 0.465604 0.084896
0.843914 0.470356 0.084896
0.895945 0.472703 0.084896
0.937679 0.473461 0.084896
1.011241 0.467544 0.084896
0.083034 0.525556 0.084896
0.088551 0.525556 0.084896
0.119578 0.525556 0.084896
0.170728 0.525556 0.084896
0.228411 0.525556 0.084896
0.293033 0.525556 0.084896
0.362295 0.525556 0.084896
0.434168 0.525556 0.084896
0.508985 0.525625 0.084896
0.584414 0.523891 0.084896
0.661472 0.522518 0.084896
0.746159 0.525928 0.084896
0.843914 0.529715 0.084896
0.895945 0.533344 0.084896
0.937679 0.534863 0.084896
1.011241 0.528170 0.084896
0.083044 0.582102 0.084896
0.088476 0.582102 0.084896
0.118551 0.582102 0.084896
0.168587 0.582102 0.084896
0.228292 0.582102 0.084896
0.290469 0.582102 0.084896
0.360155 0.582102 0.084896
0.431597 0.582102 0.084896
0.505849 0.582102 0.084896
0.582494 0.582091 0.084896
0.664538 0.583136 0.084896
0.745224 0.586216 0.084896
0.843914 0.590556 0.084896
0.895945 0.594513 0.084896
0.937679 0.595703 0.084896
1.011241 0.588331 0.084896
0.083048 0.640986 0.084896
0.088452 0.640986 0.084896
0.119584 0.640986 0.084896
0.168567 0.640986 0.084896
0.228038 0.640986 0.084896
0.292238 0.640986 0.084896
0.359904 0.640986 0.084896
0.431308 0.640986 0.084896
0.505559 0.640986 0.084896
0.582207 0.640986 0.084896
0.660116 0.640986 0.084896
0.747009 0.644069 0.084896
0.843914 0.652074 0.084896
0.895945 0.654407 0.084896
0.937679 0.656203 0.084896
1.011241 0.648248 0.084896
0.083042 0.702174 0.084896
0.088511 0.702174 0.084896
0.119579 0.702174 0.084896
0.169641 0.702174 0.084896
0.228536 0.702174 0.084896
0.293022 0.702174 0.084896
0.361426 0.702174 0.084896
0.433122 0.702174 0.084896
0.507681 0.702174 0.084896
0.584672 0.702174 0.084896
0.664245 0.702174 0.084896
0.746451 0.704306 0.084896
0.842859 0.708781 0.084896
0.895945 0.714586 0.084896
0.937679 0.716083 0.084896
1.011241 0.707403 0.084896
0.083036 0.766250 0.084896
0.088605 0.766250 0.084896
0.119577 0.766250 0.084896
0.169749 0.766250 0.084896
0.231229 0.766250 0.084896
0.295279 0.766250 0.084896
0.364096 0.766250 0.084896
0.436435 0.766250 0.084896
0.511504 0.766250 0.084896
0.589157 0.766250 0.084896
0.668116 0.766250 0.084896
0.749869 0.766250 0.084896
0.845973 0.771701 0.084896
0.895945 0.773757 0.084896
0.937679 0.775848 0.084896
1.011241 0.766601 0.084896
0.083042 0.824618 0.084896
0.088712 0.824618 0.084896
0.119579 0.824618 0.084896
0.170890 0.824618 0.084896
0.231593 0.824618 0.084896
0.298225 0.824618 0.084896
0.366524 0.824618 0.084896
0.439359 0.824618 0.084896
0.514978 0.824618 0.084896
0.593151 0.824618 0.084896
0.673648 0.824618 0.084896
0.755943 0.824618 0.084896
0.845841 0.825337 0.084896
0.896970 0.829940 0.084896
0.938644 0.830481 0.084896
1.011565 0.819672 0.084896
0.083159 0.993260 0.083623
0.088750 0.993260 0.083552
0.119704 0.993260 0.083623
0.168867 0.993260 0.083552
0.228631 0.993260 0.083235
0.293537 0.993260 0.083243
0.362546 0.993260 0.083235
0.434657 0.993260 0.083243
0.509655 0.993260 0.083252
0.587244 0.993260 0.083258
0.666268 0.993260 0.083252
0.747917 0.993260 0.083258
0.837870 0.993599 0.083261
0.891860 0.993079 0.083285
0.924405 0.993599 0.083261
1.011887 0.994059 0.083285
0.083350 -0.466477 0.125239
0.093495 -0.466477 0.124965
0.165237 -0.466492 0.109788
0.220124 -0.466478 0.102298
0.271723 -0.466466 0.098202
0.325773 -0.466460 0.096475
0.383990 -0.466454 0.095139
0.445270 -0.466449 0.094446
0.512449 -0.466445 0.094105
0.585127 -0.466440 0.093945
0.661827 -0.466435 0.094105
0.746821 -0.466429 0.093945
0.843779 -0.466422 0.094499
0.896970 -0.466413 0.095287
0.938639 -0.466406 0.094499
1.011561 -0.466404 0.094278
0.083463 0.097225 0.122211
0.106205 0.106982 0.122415
0.165362 0.107519 0.116025
0.218484 0.100796 0.106965
0.273172 0.097950 0.103069
0.326120 0.098319 0.102149
0.383386 0.095908 0.099974
0.444583 0.095266 0.099066
0.511682 0.093925 0.097588
0.584348 0.091739 0.095371
0.662091 0.087953 0.091529
0.746040 0.084841 0.089370
0.843928 0.083780 0.087910
0.895945 0.083897 0.087955
0.937694 0.083780 0.087910
1.011277 0.083897 0.087955
0.083495 0.167446 0.106269
0.104647 0.167814 0.113625
0.165389 0.167446 0.121726
0.220018 0.156475 0.119805
0.273137 0.151845 0.119549
0.326069 0.147137 0.119300
0.383363 0.144640 0.119549
0.444535 0.143017 0.119300
0.511647 0.142050 0.118986
0.584329 0.141442 0.118587
0.662025 0.141024 0.118986
0.746102 0.141442 0.117561
0.843924 0.141292 0.117639
0.895945 0.140688 0.116723
0.937690 0.140259 0.115579
1.011273 0.139662 0.115696
0.083538 0.219133 0.099608
0.101030 0.219620 0.107468
0.156169 0.219133 0.121235
0.220532 0.219620 0.121890
0.273137 0.206661 0.120579
0.326069 0.194675 0.119300
0.383363 0.190163 0.119549
0.444535 0.186458 0.119300
0.511647 0.184495 0.118986
0.584329 0.183553 0.118587
0.662025 0.183473 0.118986
0.746102 0.183553 0.117561
0.843924 0.185868 0.117639
0.895945 0.184271 0.116723
0.937690 0.184816 0.115579
1.011273 0.183239 0.115696
0.083586 0.268798 0.096647
0.096757 0.269333 0.102100
0.151061 0.268798 0.120329
0.205933 0.269333 0.119614
0.273137 0.267283 0.119551
0.326069 0.252290 0.119301
0.383363 0.244616 0.119551
0.444535 0.238903 0.119301
0.511647 0.235913 0.118986
0.584329 0.234652 0.118587
0.662025 0.233870 0.118986
0.746102 0.234652 0.117561
0.843924 0.236152 0.117639
0.895945 0.238813 0.116723
0.937690 0.238211 0.115579
1.011273 0.235731 0.115696
0.083612 0.317804 0.094986
0.096326 0.318264 0.100891
0.146981 0.317804 0.119672
0.197250 0.318264 0.119433
0.259740 0.318893 0.119562
0.326069 0.316354 0.119307
0.383355 0.303450 0.119562
0.444535 0.295768 0.119307
0.511647 0.291879 0.118987
0.584329 0.290185 0.118587
0.662025 0.289832 0.118987
0.746102 0.292240 0.117561
0.843924 0.294861 0.117639
0.895945 0.295577 0.116723
0.937690 0.295907 0.115579
1.011273 0.292452 0.115696
0.083622 0.367264 0.093973
0.096895 0.367551 0.100957
0.143892 0.367264 0.119662
0.192681 0.367551 0.119500
0.250654 0.366651 0.119471
0.316884 0.368378 0.119300
0.383558 0.364589 0.119471
0.444611 0.354925 0.119300
0.511647 0.349953 0.118988
0.584329 0.347997 0.118589
0.662025 0.348939 0.118988
0.746102 0.350035 0.117563
0.843924 0.354647 0.117639
0.895945 0.353434 0.116723
0.937690 0.355652 0.115579
1.011273 0.351352 0.115696
0.083635 0.418196 0.093355
0.096805 0.418440 0.100564
0.142882 0.418196 0.120055
0.187435 0.418440 0.119106
0.244370 0.418416 0.119391
0.306762 0.418240 0.119289
0.376237 0.418416 0.119391
0.444786 0.415084 0.119289
0.511715 0.409045 0.118986
0.584329 0.406599 0.118580
0.662115 0.405901 0.118986
0.746102 0.409725 0.117553
0.843924 0.413002 0.117639
0.895945 0.415064 0.116723
0.937690 0.416100 0.115579
1.011273 0.410941 0.115696
0.083642 0.471157 0.093004
0.096472 0.471383 0.100054
0.140825 0.471157 0.118666
0.186071 0.471383 0.119626
0.240185 0.471341 0.119140
0.301701 0.471386 0.119210
0.369972 0.471341 0.119140
0.440767 0.471386 0.119210
0.511912 0.468633 0.118985
0.584357 0.465741 0.118585
0.661246 0.465549 0.118985
0.746054 0.467797 0.117558
0.843924 0.472719 0.117639
0.895945 0.476126 0.116723
0.937690 0.476822 0.115579
1.011273 0.470985 0.115696
0.083671 0.525597 0.092786
0.095459 0.525697 0.098974
0.140846 0.525597 0.118445
0.184021 0.525697 0.118551
0.239482 0.525708 0.118866
0.300143 0.525714 0.118875
0.366190 0.525708 0.118866
0.436112 0.525714 0.118875
0.509390 0.525739 0.118927
0.584577 0.524886 0.118589
0.661842 0.524679 0.117889
0.745284 0.526962 0.117562
0.843924 0.534283 0.117639
0.895945 0.535980 0.116723
0.937690 0.537395 0.115579
1.011273 0.530846 0.115696
0.083682 0.582089 0.092698
0.094061 0.582121 0.097536
0.139838 0.583123 0.118358
0.183629 0.582121 0.119151
0.236876 0.582159 0.118504
0.300328 0.582159 0.118504
0.364639 0.582159 0.118504
0.434251 0.582159 0.118504
0.507042 0.582161 0.118514
0.582746 0.582218 0.118559
0.662603 0.584218 0.118514
0.744493 0.585309 0.117535
0.843924 0.593563 0.117639
0.895945 0.596639 0.116723
0.937690 0.597699 0.115579
1.011273 0.590468 0.115696
0.083701 0.640970 0.092717
0.092496 0.641010 0.095944
0.139855 0.640970 0.118375
0.184074 0.641010 0.118578
0.237042 0.641041 0.118075
0.297480 0.641041 0.118075
0.364789 0.641041 0.118075
0.434490 0.641041 0.118075
0.507434 0.641041 0.118075
0.583036 0.641041 0.118075
0.660914 0.641041 0.118075
0.746860 0.645116 0.118075
0.843924 0.653613 0.117641
0.895945 0.656056 0.116725
0.937690 0.657714 0.115581
1.011273 0.649891 0.115698
0.083727 0.702155 0.092808
0.087629 0.702357 0.091148
0.138853 0.702155 0.116413
0.184190 0.702357 0.118817
0.237642 0.702320 0.117590
0.300579 0.702320 0.117590
0.366365 0.702320 0.117590
0.436555 0.702320 0.117590
0.509913 0.702320 0.117590
0.585794 0.702320 0.117590
0.664402 0.702320 0.118617
0.746492 0.705381 0.118617
0.842869 0.709853 0.117636
0.895945 0.715806 0.116715
0.937690 0.717179 0.115569
1.011273 0.708634 0.115688
0.083757 0.766239 0.092972
0.084688 0.766322 0.088317
0.138884 0.766239 0.116573
0.184175 0.766322 0.117937
0.240364 0.766299 0.116997
0.301917 0.766299 0.116997
0.369125 0.766299 0.116997
0.439936 0.766299 0.116997
0.513941 0.766299 0.116997
0.590616 0.766299 0.116997
0.669499 0.766299 0.116997
0.751271 0.766299 0.116997
0.845983 0.772542 0.117614
0.895945 0.774553 0.116704
0.937690 0.776688 0.115556
1.011273 0.767308 0.115668
0.083781 0.824612 0.093112
0.084471 0.824595 0.088122
0.138914 0.824612 0.115690
0.184953 0.824595 0.116707
0.240757 0.824581 0.116315
0.302836 0.824581 0.116315
0.371586 0.824581 0.116315
0.442940 0.824581 0.116315
0.517432 0.824581 0.116315
0.594824 0.824581 0.116315
0.672970 0.824581 0.116315
0.754485 0.824581 0.116315
0.845855 0.826872 0.116619
0.896970 0.830500 0.116707
0.938545 0.830950 0.115592
1.011598 0.820232 0.115671
0.083641 0.993258 0.087581
0.083835 0.993265 0.081347
0.117132 0.993258 0.081753
0.166776 0.993265 0.081347
0.227707 0.993262 0.081384
0.292726 0.993262 0.081458
0.361613 0.993262 0.081384
0.433863 0.993262 0.081458
0.509035 0.993262 0.081501
0.586693 0.993262 0.081517
0.667709 0.993262 0.081501
0.749409 0.993262 0.081517
0.837882 0.993578 0.081599
0.891860 0.993060 0.081705
0.924412 0.993578 0.081599
1.011925 0.994041 0.081705
0.083386 -0.466512 0.172861
0.095891 -0.466486 0.173098
0.161154 -0.466480 0.172861
0.219475 -0.466468 0.154568
0.272912 -0.466458 0.141203
0.325870 -0.466451 0.135494
0.384167 -0.466445 0.129870
0.445374 -0.466440 0.127255
0.512501 -0.466435 0.125840
0.585153 -0.466427 0.125199
0.661898 -0.466417 0.125840
0.746871 -0.466408 0.126226
0.843779 -0.466398 0.127009
0.896970 -0.466389 0.127081
0.938639 -0.466382 0.127009
1.011558 -0.466380 0.126042
0.083394 0.096364 0.168053
0.104081 0.104361 0.168330
0.164270 0.104578 0.169070
0.219458 0.103335 0.151839
0.273066 0.101783 0.141715
0.326025 0.102738 0.137734
0.383300 0.102812 0.134501
0.444512 0.102738 0.132585
0.511551 0.102478 0.131398
0.584266 0.102320 0.130790
0.661961 0.100422 0.129338
0.745971 0.099232 0.128724
0.843912 0.099132 0.129136
0.895945 0.097968 0.129058
0.937676 0.097090 0.128108
1.011265 0.097968 0.128030
0.083508 0.166902 0.167719
0.104739 0.167479 0.168266
0.165410 0.166902 0.167719
0.221157 0.166454 0.166213
0.275386 0.162244 0.163178
0.327072 0.161472 0.162280
0.384596 0.161201 0.161102
0.445554 0.160432 0.160236
0.512437 0.159556 0.159314
0.585018 0.158607 0.158308
0.662854 0.156469 0.157256
0.746724 0.156543 0.156246
0.843949 0.155055 0.154529
0.895945 0.152292 0.151688
0.937694 0.150937 0.150413
1.011457 0.151268 0.150661
0.083586 0.219094 0.146795
0.102592 0.219616 0.151832
0.163424 0.221151 0.164296
0.221056 0.219616 0.164189
0.275189 0.211593 0.163170
0.326920 0.206107 0.163418
0.384368 0.202322 0.162133
0.445395 0.199927 0.161343
0.512371 0.198443 0.160523
0.584830 0.197484 0.159629
0.662756 0.197404 0.158458
0.747681 0.197484 0.157569
0.843930 0.195737 0.156941
0.895945 0.195949 0.155134
0.937673 0.194690 0.152815
1.011437 0.193861 0.153065
0.083650 0.268770 0.135939
0.100734 0.269308 0.142056
0.160416 0.269800 0.160661
0.211980 0.271366 0.162658
0.275177 0.269814 0.161165
0.326920 0.257432 0.163411
0.384377 0.252300 0.162195
0.445395 0.248157 0.161345
0.512371 0.245957 0.160523
0.584830 0.244853 0.159629
0.662756 0.244931 0.158458
0.747681 0.244853 0.157569
0.843930 0.246674 0.156941
0.895945 0.246769 0.155134
0.937673 0.245647 0.152815
1.011437 0.243680 0.153065
0.083697 0.317785 0.129615
0.101041 0.318222 0.137069
0.159419 0.319841 0.159478
0.206124 0.320263 0.161798
0.264876 0.321132 0.161310
0.328996 0.318299 0.161389
0.384361 0.307746 0.162344
0.445394 0.301828 0.161389
0.512372 0.298819 0.160527
0.584830 0.297665 0.159629
0.662757 0.296767 0.158462
0.747681 0.298696 0.157569
0.843930 0.302591 0.156941
0.895945 0.300608 0.155134
0.937673 0.301554 0.152815
1.011437 0.298551 0.153065
0.083706 0.367263 0.125659
0.101198 0.367636 0.133960
0.158410 0.368271 0.158621
0.203189 0.367636 0.160737
0.257099 0.368350 0.162061
0.318712 0.367682 0.163402
0.384823 0.366293 0.161023
0.445413 0.358399 0.161337
0.512372 0.354704 0.160572
0.584829 0.353328 0.159637
0.662757 0.353683 0.158520
0.747680 0.355412 0.157582
0.843930 0.357854 0.156941
0.895945 0.360208 0.155134
0.937673 0.359922 0.152815
1.011437 0.356062 0.153065
0.083733 0.418164 0.123208
0.100834 0.418393 0.131671
0.159456 0.418164 0.160286
0.200749 0.419432 0.160516
0.252963 0.419428 0.160971
0.312853 0.419835 0.161642
0.378671 0.419428 0.160971
0.445746 0.416762 0.160603
0.512412 0.411942 0.160423
0.584826 0.410461 0.159737
0.661840 0.408876 0.159390
0.747674 0.412537 0.157673
0.843930 0.417460 0.156941
0.895945 0.418827 0.155134
0.937673 0.419513 0.152815
1.011437 0.414704 0.153065
0.083749 0.471187 0.121753
0.100475 0.471340 0.130223
0.158460 0.472206 0.158824
0.199380 0.472350 0.160103
0.249839 0.472034 0.160439
0.310542 0.472160 0.160528
0.373481 0.472034 0.160439
0.442375 0.472160 0.160528
0.512770 0.470171 0.159969
0.584903 0.468252 0.159528
0.661066 0.468115 0.157907
0.746635 0.472375 0.156429
0.843930 0.476499 0.156941
0.895945 0.479074 0.155134
0.937673 0.479571 0.152815
1.011437 0.473923 0.153065
0.083772 0.525583 0.120873
0.099891 0.525631 0.129076
0.157444 0.526629 0.157954
0.198779 0.526691 0.159985
0.248958 0.526259 0.159788
0.305691 0.526323 0.159788
0.370513 0.526259 0.159788
0.438593 0.526323 0.159788
0.510441 0.526483 0.159919
0.585141 0.526459 0.159250
0.662899 0.525438 0.158892
0.746850 0.531578 0.158214
0.843930 0.535524 0.156941
0.895945 0.538362 0.155134
0.937673 0.539628 0.152815
1.011437 0.533215 0.153065
0.083800 0.582080 0.120480
0.098696 0.582128 0.127861
0.157480 0.583115 0.156537
0.196572 0.582128 0.157744
0.247818 0.582550 0.159024
0.306416 0.582550 0.159024
0.369362 0.582550 0.159024
0.437252 0.582550 0.159024
0.508668 0.582566 0.159038
0.583225 0.582725 0.159183
0.663194 0.586683 0.159038
0.748134 0.588902 0.157118
0.843930 0.594267 0.156941
0.895945 0.597468 0.155134
0.937673 0.599403 0.152815
1.011437 0.592321 0.153065
0.083841 0.640955 0.120465
0.097700 0.641039 0.127088
0.156485 0.640955 0.154457
0.197614 0.641039 0.160050
0.247073 0.641310 0.158099
0.305881 0.641310 0.158099
0.369652 0.641310 0.158099
0.437729 0.641310 0.158099
0.509322 0.641310 0.158099
0.583945 0.641310 0.158147
0.662825 0.643364 0.159135
0.746652 0.647446 0.156085
0.843930 0.653982 0.155918
0.895945 0.656364 0.155141
0.937673 0.659118 0.152829
1.011437 0.651235 0.153072
0.083866 0.702143 0.120806
0.096872 0.702396 0.126627
0.155482 0.702143 0.154798
0.196780 0.702396 0.157532
0.247652 0.702647 0.157016
0.307003 0.702647 0.157016
0.371270 0.702647 0.157016
0.439900 0.702647 0.157016
0.512046 0.702647 0.157016
0.587094 0.702647 0.157016
0.664549 0.702647 0.157016
0.747783 0.705707 0.157016
0.842876 0.712148 0.155830
0.895945 0.715902 0.155053
0.937674 0.718319 0.152740
1.011438 0.709752 0.152987
0.083918 0.766243 0.121352
0.095393 0.766367 0.125851
0.154508 0.766243 0.153281
0.197342 0.766367 0.155717
0.248055 0.766532 0.155719
0.309297 0.766532 0.155719
0.373753 0.766532 0.155719
0.443222 0.766532 0.155719
0.516166 0.766532 0.155719
0.591933 0.766532 0.155719
0.670660 0.766532 0.155719
0.750609 0.766532 0.155719
0.845988 0.773294 0.155703
0.895945 0.774252 0.153886
0.937674 0.777362 0.152612
1.011439 0.768083 0.152865
0.083962 0.824608 0.121846
0.092940 0.824620 0.124276
0.152497 0.824608 0.151715
0.195867 0.824620 0.154136
0.249063 0.824624 0.154260
0.308918 0.824624 0.154260
0.375780 0.824624 0.154260
0.445925 0.824624 0.154260
0.519556 0.824624 0.154260
0.595973 0.824624 0.154260
0.676109 0.824624 0.154260
0.755626 0.824624 0.154260
0.846964 0.828263 0.154698
0.896970 0.831021 0.154875
0.938607 0.831402 0.152651
1.011763 0.820753 0.152819
0.083742 0.993257 0.111509
0.083574 0.993269 0.106575
0.136809 0.993257 0.126963
0.184018 0.993269 0.130262
0.238958 0.993275 0.129040
0.301427 0.993275 0.130297
0.367743 0.993275 0.130073
0.438421 0.993275 0.130297
0.512327 0.993275 0.130509
0.589093 0.993275 0.130720
0.667884 0.993275 0.131549
0.748786 0.993275 0.130720
0.837923 0.993549 0.131143
0.891860 0.993030 0.131562
0.924456 0.993549 0.131143
1.012118 0.994010 0.131562
0.083389 -0.466527 0.220498
0.094047 -0.466482 0.220871
0.146739 -0.466472 0.221525
0.219660 -0.466472 0.221892
0.273214 -0.466467 0.201950
0.326071 -0.466460 0.187712
0.384472 -0.466455 0.180311
0.445580 -0.466450 0.175345
0.512755 -0.466444 0.172726
0.585364 -0.466436 0.171567
0.661098 -0.466427 0.171698
0.746082 -0.466411 0.172609
0.843760 -0.466388 0.174795
0.896970 -0.466372 0.172938
0.938619 -0.466365 0.174795
1.011537 -0.466363 0.172938
0.083413 0.093216 0.214510
0.098861 0.099025 0.214964
0.150870 0.103420 0.215532
0.219380 0.107264 0.212897
0.274032 0.104456 0.195792
0.325985 0.105492 0.184619
0.383243 0.104456 0.179303
0.444470 0.104468 0.175336
0.511565 0.104438 0.173347
0.584210 0.104364 0.172379
0.660899 0.102382 0.171277
0.745968 0.103336 0.172379
0.843907 0.103154 0.173000
0.895945 0.102658 0.174787
0.937671 0.102122 0.174030
1.011259 0.102658 0.172730
0.083559 0.148375 0.214486
0.102891 0.152812 0.214999
0.163403 0.162806 0.216549
0.220323 0.163104 0.214999
0.274332 0.162433 0.204944
0.328136 0.159629 0.200476
0.384570 0.160372 0.196693
0.445566 0.159629 0.194296
0.512437 0.158846 0.192753
0.585022 0.157855 0.191640
0.662853 0.156783 0.191733
0.746732 0.154762 0.189574
0.843932 0.154465 0.189581
0.895945 0.151718 0.188840
0.937676 0.150343 0.187507
1.011469 0.150684 0.186770
0.083598 0.218898 0.211759
0.105255 0.219535 0.212941
0.161383 0.220957 0.215873
0.219593 0.218486 0.216029
0.275908 0.217828 0.213238
0.328590 0.212908 0.208376
0.386167 0.211634 0.207049
0.447060 0.209821 0.205275
0.513833 0.208182 0.203574
0.586232 0.206553 0.201780
0.662173 0.205100 0.199449
0.746950 0.203466 0.197664
0.844075 0.200863 0.195834
0.895945 0.198183 0.192124
0.937834 0.195706 0.189647
1.011815 0.196117 0.190058
0.083650 0.268770 0.192765
0.104118 0.269237 0.196762
0.157321 0.270827 0.205132
0.214350 0.273359 0.203979
0.277768 0.270167 0.205620
0.327344 0.262872 0.208943
0.385921 0.258830 0.207704
0.446839 0.255653 0.205841
0.513699 0.253672 0.204274
0.586052 0.252350 0.202635
0.663034 0.251616 0.201198
0.746762 0.250294 0.199542
0.844040 0.250988 0.196792
0.895945 0.248882 0.194047
0.937795 0.247899 0.191654
1.011778 0.246821 0.191988
0.083697 0.317785 0.181022
0.104484 0.318115 0.186962
0.156334 0.319841 0.197512
0.211621 0.322229 0.204475
0.269454 0.323991 0.204355
0.330415 0.317272 0.202929
0.385868 0.311619 0.208478
0.446832 0.306971 0.206022
0.513697 0.304510 0.204288
0.586052 0.303297 0.202635
0.663032 0.303478 0.201212
0.746762 0.304317 0.199542
0.844040 0.304308 0.196792
0.895945 0.304083 0.194047
0.937795 0.303288 0.191654
1.011778 0.301003 0.191988
0.083706 0.367263 0.173575
0.104760 0.367520 0.180734
0.156342 0.369327 0.195192
0.209838 0.369584 0.203396
0.262227 0.371110 0.203287
0.322266 0.370906 0.203129
0.386852 0.367993 0.203287
0.446901 0.361670 0.206213
0.513677 0.358776 0.204460
0.586050 0.357513 0.202666
0.663014 0.357766 0.200359
0.746757 0.359612 0.198553
0.844040 0.360328 0.196792
0.895945 0.362080 0.194047
0.937795 0.361313 0.191654
1.011778 0.357974 0.191988
0.083733 0.418164 0.168866
0.104648 0.418294 0.176726
0.155350 0.419179 0.192559
0.209717 0.420379 0.202473
0.260126 0.420183 0.203523
0.316721 0.421526 0.203735
