02_Cinematic LUTs_Matte.cube
LUT_3D_SIZE 6
0.083454 0.083379 0.084896
0.219396 0.083291 0.084896
0.383245 0.082920 0.084896
0.584274 0.082944 0.084896
0.843914 0.082964 0.084896
1.011241 0.082984 0.084896
0.083029 0.219175 0.084896
0.218673 0.219175 0.084896
0.383245 0.177354 0.084896
0.584274 0.168575 0.084896
0.843914 0.170655 0.084896
1.011241 0.169791 0.084896
0.083004 0.367264 0.084896
0.178491 0.367264 0.084896
0.383323 0.363595 0.084896
0.584274 0.342720 0.084896
0.843914 0.347009 0.084896
1.011241 0.345688 0.084896
0.083034 0.525556 0.084896
0.170728 0.525556 0.084896
0.362295 0.525556 0.084896
0.584414 0.523891 0.084896
0.843914 0.529715 0.084896
1.011241 0.528170 0.084896
0.083042 0.702174 0.084896
0.169641 0.702174 0.084896
0.361426 0.702174 0.084896
0.584672 0.702174 0.084896
0.842859 0.708781 0.084896
1.011241 0.707403 0.084896
0.083159 0.993260 0.083623
0.168867 0.993260 0.083552
0.362546 0.993260 0.083235
0.587244 0.993260 0.083258
0.837870 0.993599 0.083261
1.011887 0.994059 0.083285
0.083389 -0.466527 0.220498
0.219660 -0.466472 0.221892
0.384472 -0.466455 0.180311
0.585364 -0.466436 0.171567
0.843760 -0.466388 0.174795
1.011537 -0.466363 0.172938
0.083598 0.218898 0.211759
0.219593 0.218486 0.216029
0.386167 0.211634 0.207049
0.586232 0.206553 0.201780
0.844075 0.200863 0.195834
1.011815 0.196117 0.190058
0.083706 0.367263 0.173575
0.209838 0.369584 0.203396
0.386852 0.367993 0.203287
0.586050 0.357513 0.202666
0.844040 0.360328 0.196792
1.011778 0.357974 0.191988
0.083772 0.525583 0.164338
0.207286 0.527716 0.200592
0.374095 0.527497 0.201789
0.586310 0.527946 0.200664
0.844040 0.537310 0.196792
1.011778 0.534310 0.191988
0.083866 0.702143 0.164106
0.204241 0.703417 0.195782
0.374459 0.703146 0.197509
0.588225 0.703146 0.197509
0.844042 0.712229 0.194497
1.011784 0.710280 0.191731
0.083732 0.993257 0.153027
0.189978 0.993269 0.168637
0.370289 0.993331 0.171270
0.589840 0.993331 0.171738
0.836974 0.993460 0.171177
1.012518 0.994034 0.172618
0.083423 -0.466520 0.365076
0.183497 -0.466475 0.367294
0.386814 -0.466512 0.364902
0.586686 -0.466510 0.344759
0.843650 -0.466310 0.349115
1.011325 -0.466221 0.347557
0.083699 0.180335 0.357067
0.208525 0.206329 0.361365
0.386743 0.209700 0.355813
0.586228 0.206320 0.345504
0.844055 0.201552 0.347132
1.011872 0.195792 0.343888
0.083713 0.367375 0.354506
0.206943 0.371748 0.359089
0.387114 0.368380 0.359075
0.589647 0.359440 0.345831
0.845325 0.348905 0.330449
1.013588 0.339277 0.319935
0.083772 0.525583 0.331975
0.206259 0.528763 0.344037
0.371644 0.532209 0.334734
0.592508 0.530134 0.330116
0.845283 0.532564 0.331381
1.013544 0.526230 0.320839
0.083866 0.702143 0.331313
0.202203 0.702396 0.343656
0.363196 0.705782 0.325482
0.586567 0.705782 0.325482
0.846372 0.711554 0.320070
1.013603 0.707042 0.320036
0.083746 0.993257 0.320464
0.187977 0.993269 0.324329
0.348256 0.993432 0.290064
0.578971 0.993432 0.290465
0.834516 0.994493 0.291155
1.015039 0.994992 0.291801
0.083444 -0.466513 0.528866
0.174377 -0.466490 0.530019
0.370226 -0.466635 0.534295
0.589529 -0.466631 0.534297
0.844542 -0.466526 0.542550
1.010924 -0.466489 0.538484
0.083761 0.169562 0.519088
0.206918 0.205130 0.521174
0.375544 0.206691 0.522089
0.586339 0.205663 0.520666
0.844056 0.200387 0.528498
1.011876 0.195658 0.525357
0.083761 0.344323 0.519088
0.206454 0.358224 0.522153
0.370206 0.347466 0.527766
0.591453 0.351937 0.520223
0.847393 0.341295 0.519496
1.014005 0.331785 0.508883
0.083774 0.525652 0.518804
0.206452 0.528946 0.520984
0.361666 0.533906 0.520591
0.588968 0.526540 0.520987
0.845597 0.514854 0.502315
1.014993 0.504417 0.487044
0.083866 0.702143 0.517519
0.202203 0.702396 0.521580
0.350026 0.707069 0.508473
0.571562 0.708328 0.485745
0.849609 0.707614 0.478404
1.014852 0.698434 0.488814
0.083760 0.993257 0.508074
0.188049 0.993269 0.510541
0.325737 0.993560 0.476785
0.546791 0.993686 0.440067
0.823999 0.992891 0.438717
1.018998 0.994655 0.441659
0.083460 -0.466507 0.724638
0.173382 -0.466473 0.724778
0.370509 -0.466627 0.727934
0.593732 -0.466721 0.731057
0.846382 -0.466353 0.738107
1.010520 -0.466213 0.734097
0.083842 0.169333 0.712881
0.203142 0.200561 0.714151
0.375798 0.203278 0.714635
0.590304 0.203278 0.714635
0.844056 0.200216 0.722340
1.011881 0.195447 0.718073
0.083842 0.343681 0.712881
0.201839 0.358058 0.715165
0.359968 0.338461 0.720064
0.591469 0.340033 0.719693
0.846460 0.336789 0.718893
1.014179 0.329278 0.709331
0.083842 0.524870 0.712881
0.201839 0.531157 0.715165
0.353957 0.528066 0.720678
0.576435 0.506116 0.721565
0.846808 0.505822 0.711199
1.015907 0.496668 0.696314
0.083866 0.702506 0.712771
0.201368 0.703811 0.712644
0.350092 0.707316 0.712754
0.560087 0.708634 0.707302
0.845438 0.702931 0.711742
1.014455 0.694737 0.699170
0.083756 0.993257 0.703143
0.188038 0.993269 0.703589
0.325552 0.993560 0.687011
0.522332 0.993829 0.655612
0.820845 0.992573 0.650362
1.021841 0.994188 0.652302
0.083504 -0.466511 0.913433
0.175529 -0.466450 0.914445
0.372687 -0.466604 0.914785
0.597034 -0.466698 0.916135
0.840442 -0.466436 0.916220
1.011321 -0.466328 0.913993
0.083950 0.170476 0.904628
0.198702 0.193663 0.903527
0.376248 0.198052 0.904713
0.593899 0.198052 0.904713
0.840784 0.197866 0.904632
1.013194 0.195156 0.904653
0.083950 0.346371 0.904628
0.198440 0.357638 0.904607
0.349942 0.327694 0.905359
0.584608 0.329449 0.905486
0.843151 0.330138 0.906214
1.015734 0.325546 0.903354
0.083950 0.529013 0.904628
0.198440 0.533532 0.904607
0.341985 0.520350 0.905469
0.555176 0.488032 0.906119
0.839472 0.488668 0.906991
1.018824 0.485974 0.901324
0.083950 0.708438 0.904628
0.198440 0.712176 0.904607
0.341985 0.708556 0.905469
0.544435 0.695103 0.906186
0.841681 0.691289 0.905830
1.017776 0.688613 0.901140
0.083993 0.929862 0.904683
0.193074 0.929875 0.904669
0.334183 0.929944 0.902607
0.530991 0.930090 0.899332
0.829876 0.929264 0.899308
1.016813 0.929195 0.901441
