04_Cinematic LUTs_Frosted.cube
LUT_3D_SIZE 6
0.111802 0.085901 0.054664
0.216559 0.085900 0.054663
0.346509 0.085898 0.054655
0.506782 0.085893 0.054650
0.689514 0.085885 0.054635
0.903275 0.085876 0.054622
0.111800 0.198731 0.054659
0.216901 0.198731 0.054657
0.346508 0.204470 0.054656
0.506782 0.211415 0.054650
0.689513 0.216451 0.054635
0.903275 0.218718 0.054617
0.111793 0.338334 0.054650
0.222881 0.338334 0.054649
0.347349 0.338334 0.054641
0.506781 0.352567 0.054632
0.689512 0.363655 0.054618
0.903275 0.368647 0.054606
0.111779 0.507787 0.054613
0.228524 0.507787 0.054611
0.361836 0.507786 0.054610
0.509021 0.507786 0.054606
0.689511 0.524538 0.054593
0.903275 0.530773 0.054578
0.111764 0.698157 0.054566
0.233650 0.698157 0.054564
0.372931 0.698157 0.054563
0.526756 0.698157 0.054557
0.693720 0.697490 0.054543
0.903275 0.704447 0.054532
0.111740 0.903275 0.054516
0.234642 0.903275 0.054514
0.374800 0.903275 0.054513
0.529383 0.903275 0.054505
0.696103 0.903275 0.054491
0.903275 0.903275 0.054473
0.111802 0.085901 0.227009
0.217970 0.085900 0.227009
0.346509 0.085898 0.233877
0.506782 0.085892 0.244670
0.689513 0.085885 0.253262
0.903275 0.085876 0.256575
0.111800 0.200007 0.227007
0.215697 0.197799 0.225731
0.354852 0.193061 0.220246
0.526804 0.177634 0.201370
0.714688 0.164022 0.186322
0.903275 0.198710 0.249384
0.111793 0.338334 0.234520
0.194638 0.341953 0.193443
0.347837 0.339128 0.183796
0.517047 0.346530 0.172432
0.705067 0.352364 0.163840
0.903275 0.348671 0.226986
0.111779 0.507787 0.245732
0.175875 0.513052 0.165411
0.350434 0.510658 0.158007
0.509666 0.508604 0.154353
0.696404 0.521693 0.151444
0.903275 0.521359 0.226995
0.111764 0.698157 0.254583
0.167194 0.700125 0.155054
0.354863 0.701137 0.145999
0.521021 0.700126 0.144766
0.694619 0.699153 0.142850
0.903275 0.700446 0.226990
0.111740 0.903275 0.256560
0.216525 0.903275 0.251260
0.353764 0.903275 0.226982
0.519573 0.903275 0.226978
0.692754 0.903275 0.226969
0.903275 0.903275 0.226966
0.111801 0.085900 0.440870
0.227029 0.085899 0.440870
0.356308 0.085897 0.440869
0.506782 0.085896 0.447241
0.689513 0.085884 0.464763
0.903275 0.085875 0.474930
0.111800 0.209375 0.440869
0.214053 0.197581 0.456757
0.363550 0.190392 0.453544
0.525623 0.175666 0.452793
0.712795 0.163415 0.462127
0.903275 0.198710 0.472194
0.111793 0.348127 0.440868
0.192595 0.350035 0.445585
0.346507 0.339335 0.440867
0.518680 0.333406 0.436868
0.716250 0.324855 0.440741
0.903275 0.338331 0.471608
0.111778 0.507786 0.449488
0.175983 0.511378 0.436689
0.329243 0.512719 0.419107
0.508663 0.509101 0.402626
0.708237 0.503848 0.389801
0.903275 0.490386 0.440862
0.111763 0.698157 0.469014
0.167931 0.700098 0.448040
0.299242 0.707708 0.386804
0.493288 0.704794 0.357931
0.695463 0.701027 0.347519
0.903275 0.687628 0.440858
0.111740 0.903275 0.474905
0.216523 0.903275 0.472953
0.346500 0.903275 0.474234
0.486589 0.903275 0.440855
0.677993 0.903275 0.440853
0.903275 0.903275 0.440852
0.111800 0.085898 0.677362
0.236401 0.085898 0.677362
0.377222 0.085895 0.677362
0.533818 0.085895 0.677361
0.689513 0.085882 0.664904
0.903275 0.085874 0.679631
0.111798 0.219697 0.677362
0.211228 0.195319 0.706439
0.381768 0.184608 0.708766
0.551009 0.172115 0.700456
0.712059 0.161570 0.679978
0.903275 0.198709 0.678603
0.111791 0.370730 0.677361
0.189965 0.369307 0.699686
0.344922 0.340079 0.696889
0.535539 0.331738 0.692431
0.713355 0.322345 0.678701
0.903275 0.338331 0.678947
0.111777 0.534453 0.677359
0.175480 0.537202 0.681316
0.326906 0.531103 0.682325
0.506779 0.509692 0.677358
0.704168 0.503199 0.671875
0.903275 0.507784 0.692688
0.111762 0.698157 0.669174
0.167441 0.700062 0.663502
0.297685 0.706830 0.653277
0.490725 0.703179 0.658174
0.691555 0.700396 0.647738
0.903275 0.678993 0.678007
0.111738 0.903275 0.679618
0.216520 0.903275 0.679490
0.346500 0.903275 0.680049
0.506775 0.903275 0.694237
0.669761 0.903275 0.679143
0.903275 0.903275 0.677350
0.111798 0.085896 0.893099
0.239977 0.085895 0.893099
0.386895 0.085893 0.893099
0.549428 0.085892 0.893099
0.724880 0.085879 0.893468
0.903275 0.085871 0.879282
0.111796 0.224602 0.893099
0.203656 0.187215 0.900797
0.385880 0.177885 0.901169
0.561002 0.168398 0.899939
0.741835 0.159248 0.899071
0.903275 0.198728 0.879342
0.111789 0.381474 0.893099
0.187403 0.375720 0.899773
0.342170 0.338870 0.900459
0.541409 0.328706 0.899894
0.740167 0.320226 0.897874
0.903275 0.338331 0.880847
0.111776 0.551539 0.893098
0.174960 0.552476 0.896238
0.324777 0.539846 0.898965
0.505188 0.509831 0.897777
0.717026 0.500499 0.895861
0.903275 0.507784 0.885593
0.111760 0.732314 0.893096
0.167015 0.735112 0.894091
0.295327 0.734622 0.895400
0.489092 0.718795 0.894410
0.688358 0.698425 0.892831
0.903275 0.698155 0.892878
0.111736 0.903275 0.879264
0.216520 0.903275 0.880284
0.346499 0.903275 0.880879
0.506774 0.903275 0.885750
0.689100 0.903275 0.893574
0.903275 0.903275 0.893060
0.111795 0.085893 0.903274
0.234708 0.085892 0.903274
0.374754 0.085895 0.903274
0.529366 0.085885 0.903274
0.696060 0.085878 0.903274
0.903275 0.085868 0.903274
0.111794 0.218722 0.903274
0.216570 0.202532 0.903274
0.367309 0.198726 0.903274
0.525805 0.198723 0.903274
0.695401 0.198708 0.903274
0.903275 0.198726 0.903274
0.111788 0.368609 0.903274
0.216559 0.362651 0.903274
0.346507 0.343462 0.903274
0.514089 0.338332 0.903274
0.689779 0.338331 0.903274
0.903275 0.338330 0.903274
0.111775 0.530741 0.903274
0.216560 0.527999 0.903274
0.346505 0.518928 0.903274
0.506779 0.511506 0.903274
0.684280 0.507784 0.903274
0.903275 0.507783 0.903274
0.111762 0.704434 0.903274
0.215842 0.704349 0.903274
0.346503 0.699200 0.903274
0.506777 0.695248 0.903274
0.689594 0.699892 0.903274
0.903275 0.698154 0.903274
0.111734 0.903275 0.903274
0.216514 0.903275 0.903274
0.346499 0.903275 0.903274
0.506774 0.903275 0.903274
0.689491 0.903275 0.903274
0.903275 0.903275 0.903274
