04_Cinematic LUTs_Frosted.cube
LUT_3D_SIZE 16
0.111802 0.085901 0.054664
0.144189 0.085901 0.054664
0.178299 0.085880 0.054628
0.216559 0.085900 0.054663
0.256486 0.085900 0.054661
0.301091 0.085899 0.054658
0.346509 0.085898 0.054655
0.396385 0.085896 0.054657
0.449836 0.085895 0.054656
0.506782 0.085893 0.054650
0.567429 0.085895 0.054649
0.626589 0.085893 0.054642
0.689514 0.085885 0.054635
0.750372 0.085882 0.054633
0.804172 0.085879 0.054625
0.903275 0.085876 0.054622
0.111802 0.120581 0.054664
0.144198 0.120581 0.054664
0.178299 0.119938 0.054663
0.216565 0.121231 0.054662
0.256486 0.122051 0.054660
0.301091 0.122731 0.054658
0.346509 0.123351 0.054655
0.396385 0.124023 0.054657
0.449836 0.124740 0.054655
0.506782 0.125448 0.054650
0.567428 0.126039 0.054649
0.626589 0.126755 0.054642
0.689513 0.127196 0.054634
0.750372 0.127012 0.054632
0.804171 0.127196 0.054625
0.903275 0.127659 0.054622
0.111801 0.158183 0.054662
0.144638 0.158183 0.054662
0.178299 0.158183 0.054661
0.216378 0.159537 0.054660
0.256486 0.160272 0.054659
0.301090 0.161684 0.054656
0.346508 0.162987 0.054659
0.396384 0.164423 0.054655
0.449836 0.165917 0.054654
0.506782 0.167425 0.054648
0.567428 0.168638 0.054647
0.626589 0.170173 0.054640
0.689513 0.171112 0.054638
0.750372 0.171428 0.054630
0.804171 0.171112 0.054623
0.903275 0.172094 0.054620
0.111800 0.198731 0.054659
0.145132 0.198731 0.054659
0.179613 0.198731 0.054658
0.216901 0.198731 0.054657
0.256486 0.200229 0.054655
0.301090 0.203165 0.054659
0.346508 0.204470 0.054656
0.396384 0.206691 0.054655
0.449835 0.209033 0.054650
0.506782 0.211415 0.054650
0.567428 0.213312 0.054644
0.626589 0.214985 0.054637
0.689513 0.216451 0.054635
0.750372 0.218005 0.054628
0.804171 0.217169 0.054626
0.903275 0.218718 0.054617
0.111799 0.242295 0.054659
0.145666 0.242295 0.054659
0.180950 0.242295 0.054659
0.218164 0.242295 0.054658
0.257896 0.242491 0.054656
0.301090 0.245536 0.054657
0.346508 0.247606 0.054654
0.396384 0.250663 0.054650
0.449835 0.253896 0.054651
0.506782 0.257160 0.054644
0.567428 0.260527 0.054638
0.626589 0.263059 0.054637
0.689513 0.264372 0.054630
0.750372 0.265771 0.054622
0.804171 0.265116 0.054621
0.903275 0.267257 0.054612
0.111797 0.288779 0.054655
0.146241 0.288779 0.054655
0.182288 0.288779 0.054654
0.220835 0.288779 0.054653
0.260020 0.288218 0.054652
0.301089 0.289864 0.054649
0.346508 0.291959 0.054645
0.396383 0.295892 0.054648
0.449835 0.300087 0.054642
0.506781 0.304256 0.054637
0.567428 0.308417 0.054636
0.626589 0.311106 0.054629
0.689513 0.313014 0.054622
0.750372 0.315792 0.054620
0.804171 0.314538 0.054614
0.903275 0.317310 0.054611
0.111793 0.338334 0.054650
0.146870 0.338334 0.054650
0.182944 0.338334 0.054649
0.222881 0.338334 0.054649
0.262243 0.338334 0.054647
0.303984 0.337673 0.054644
0.347349 0.338334 0.054641
0.396382 0.342280 0.054637
0.449835 0.347383 0.054638
0.506781 0.352567 0.054632
0.567428 0.357471 0.054625
0.626589 0.361175 0.054625
0.689512 0.363655 0.054618
0.750372 0.367059 0.054611
0.804170 0.365236 0.054610
0.903275 0.368647 0.054606
0.111789 0.391271 0.054636
0.147527 0.391271 0.054636
0.184967 0.391271 0.054636
0.224978 0.391271 0.054635
0.265304 0.391270 0.054639
0.308077 0.391270 0.054637
0.352040 0.391270 0.054634
0.397604 0.391270 0.054630
0.449834 0.396036 0.054625
0.506781 0.402175 0.054624
0.567427 0.408758 0.054618
0.626588 0.412594 0.054612
0.689512 0.415665 0.054611
0.750372 0.418121 0.054609
0.804170 0.417279 0.054603
0.903275 0.421306 0.054601
0.111785 0.447793 0.054626
0.148203 0.447793 0.054626
0.185622 0.447793 0.054625
0.227089 0.447793 0.054624
0.268541 0.447793 0.054622
0.312250 0.447793 0.054626
0.356907 0.447793 0.054623
0.403422 0.447793 0.054619
0.451551 0.447793 0.054614
0.506780 0.453132 0.054615
0.567586 0.460798 0.054608
0.626588 0.465342 0.054606
0.689511 0.469007 0.054606
0.750372 0.472085 0.054600
0.804169 0.470649 0.054594
0.903275 0.475368 0.054592
0.111779 0.507787 0.054613
0.148890 0.507787 0.054613
0.187630 0.507787 0.054612
0.228524 0.507787 0.054611
0.271795 0.507786 0.054615
0.315682 0.507786 0.054612
0.361836 0.507786 0.054610
0.409384 0.507786 0.054610
0.458426 0.507786 0.054605
0.509021 0.507786 0.054606
0.566624 0.513566 0.054599
0.627217 0.519409 0.054593
0.689511 0.524538 0.054593
0.750372 0.525760 0.054588
0.804169 0.525388 0.054583
0.903275 0.530773 0.054578
0.111773 0.570807 0.054607
0.149529 0.570807 0.054607
0.188977 0.570807 0.054606
0.230609 0.570807 0.054605
0.274818 0.570807 0.054603
0.320264 0.570807 0.054601
0.366516 0.570807 0.054598
0.414926 0.570807 0.054594
0.464975 0.570807 0.054595
0.516528 0.570807 0.054589
0.569369 0.570807 0.054582
0.627599 0.575030 0.054580
0.689510 0.579689 0.054575
0.750372 0.583221 0.054569
0.804168 0.581379 0.054566
0.903275 0.587478 0.054565
0.111772 0.636049 0.054588
0.150100 0.636049 0.054588
0.189648 0.636049 0.054588
0.233294 0.636049 0.054587
0.277231 0.636049 0.054584
0.323401 0.636049 0.054582
0.370550 0.636049 0.054580
0.419733 0.636049 0.054578
0.470586 0.636049 0.054574
0.522993 0.636049 0.054568
0.576797 0.636049 0.054567
0.631821 0.636049 0.054563
0.689510 0.637141 0.054558
0.750372 0.641249 0.054554
0.804167 0.638864 0.054557
0.903275 0.645571 0.054551
0.111764 0.698157 0.054566
0.150436 0.698157 0.054566
0.190988 0.698157 0.054565
0.233650 0.698157 0.054564
0.278803 0.698157 0.054563
0.324653 0.698157 0.054566
0.372931 0.698157 0.054563
0.422570 0.698157 0.054563
0.473923 0.698157 0.054558
0.526756 0.698157 0.054557
0.581063 0.698157 0.054553
0.635737 0.698157 0.054544
0.693720 0.697490 0.054543
0.750372 0.698354 0.054538
0.804166 0.696600 0.054536
0.903275 0.704447 0.054532
0.111757 0.754759 0.054555
0.150485 0.754759 0.054555
0.190988 0.754759 0.054555
0.234415 0.754759 0.054553
0.279108 0.754759 0.054553
0.325003 0.754759 0.054551
0.373261 0.754759 0.054546
0.422946 0.754759 0.054544
0.474292 0.754759 0.054545
0.527180 0.754759 0.054538
0.581445 0.754759 0.054534
0.637791 0.754759 0.054531
0.693719 0.754415 0.054524
0.752051 0.755427 0.054521
0.804165 0.751808 0.054518
0.903275 0.760718 0.054514
0.111749 0.807824 0.054534
0.150347 0.807824 0.054534
0.190988 0.807824 0.054534
0.234265 0.807824 0.054534
0.278119 0.807824 0.054532
0.324543 0.807824 0.054529
0.372271 0.807824 0.054533
0.421707 0.807824 0.054528
0.472782 0.807824 0.054524
0.525375 0.807823 0.054519
0.579081 0.807824 0.054518
0.635129 0.807823 0.054515
0.690999 0.807822 0.054508
0.749496 0.807989 0.054505
0.805566 0.807822 0.054496
0.903275 0.816033 0.054497
0.111740 0.903275 0.054516
0.150696 0.903275 0.054516
0.190988 0.903275 0.054516
0.234642 0.903275 0.054514
0.279832 0.903275 0.054514
0.326662 0.903275 0.054515
0.374800 0.903275 0.054513
0.424702 0.903275 0.054508
0.476246 0.903275 0.054510
0.529383 0.903275 0.054505
0.584274 0.903275 0.054498
0.639283 0.903275 0.054497
0.696103 0.903275 0.054491
0.755522 0.903275 0.054487
0.812584 0.903275 0.054478
0.903275 0.903275 0.054473
0.111802 0.085901 0.106508
0.144231 0.085901 0.106508
0.178299 0.085901 0.106508
0.216621 0.085900 0.107835
0.256486 0.085900 0.108634
0.301091 0.085899 0.109671
0.346509 0.085898 0.110644
0.396385 0.085896 0.111683
0.449836 0.085895 0.112777
0.506782 0.085893 0.113867
0.567428 0.085895 0.114792
0.626589 0.085893 0.115895
0.689513 0.085885 0.116589
0.750372 0.085882 0.116629
0.804171 0.085879 0.116589
0.903275 0.085876 0.117310
0.111802 0.120627 0.106507
0.144188 0.120589 0.106507
0.180298 0.118688 0.104507
0.220010 0.114791 0.097906
0.260894 0.110675 0.091651
0.305170 0.107637 0.086936
0.350413 0.105597 0.084561
0.399880 0.104475 0.083090
0.453063 0.103828 0.082378
0.509711 0.103510 0.082195
0.570763 0.101944 0.079838
0.630454 0.101616 0.079652
0.691643 0.103425 0.083647
0.752051 0.105847 0.088214
0.806245 0.104059 0.084927
0.903275 0.120564 0.113934
0.111801 0.158183 0.107172
0.138085 0.159100 0.096653
0.178299 0.158183 0.094639
0.217545 0.157741 0.090792
0.259492 0.158003 0.088138
0.303940 0.158800 0.085596
0.349681 0.158690 0.083010
0.399350 0.159479 0.081758
0.452703 0.160492 0.081025
0.509517 0.161591 0.080666
0.568779 0.162526 0.081025
0.631056 0.164306 0.080666
0.690624 0.164080 0.080371
0.752051 0.164950 0.084268
0.806106 0.164080 0.081644
0.903275 0.164950 0.106475
0.111800 0.198731 0.107983
0.132351 0.199659 0.087506
0.176964 0.199448 0.086364
0.216144 0.198950 0.085580
0.257852 0.199332 0.083808
0.302494 0.201789 0.082462
0.348664 0.202860 0.081892
0.398637 0.204614 0.081184
0.452108 0.206573 0.080765
0.509070 0.208622 0.080591
0.570591 0.210836 0.081402
0.630617 0.211456 0.081866
0.690547 0.212714 0.081796
0.752051 0.213998 0.081715
0.806095 0.213428 0.081796
0.903275 0.214707 0.106471
0.111799 0.242295 0.108853
0.129665 0.243020 0.083301
0.176964 0.243024 0.082079
0.217331 0.242288 0.082660
0.257661 0.242633 0.082933
0.301796 0.245367 0.080740
0.347722 0.247019 0.081012
0.397859 0.249759 0.080740
0.451520 0.252694 0.080593
0.508561 0.255707 0.080602
0.569153 0.258578 0.082504
0.629248 0.260863 0.083788
0.691264 0.262077 0.081422
0.752051 0.263076 0.083629
0.805901 0.262817 0.082058
0.903275 0.264558 0.106475
0.111797 0.288779 0.109807
0.128513 0.289347 0.081622
0.177626 0.288779 0.081713
0.218819 0.289347 0.080348
0.259137 0.288081 0.080612
0.301177 0.288789 0.080583
0.347077 0.291850 0.080612
0.397234 0.295578 0.080583
0.450940 0.299482 0.080647
0.508073 0.303489 0.080802
0.567747 0.307804 0.082555
0.629523 0.311097 0.082075
0.691029 0.312299 0.079263
0.752051 0.313841 0.084906
0.805600 0.313047 0.082439
0.903275 0.315351 0.106467
0.111793 0.338334 0.110833
0.128182 0.338850 0.081299
0.178299 0.338334 0.082046
0.219827 0.338084 0.080664
0.260907 0.338456 0.078134
0.304363 0.338318 0.078886
0.347441 0.338456 0.080666
0.396765 0.342198 0.080791
0.450509 0.347165 0.080962
0.507650 0.352186 0.081211
0.568119 0.357262 0.086075
0.629118 0.360763 0.074898
0.690664 0.363472 0.082953
0.751287 0.364805 0.086830
0.805354 0.364218 0.082953
0.903275 0.367139 0.106468
0.111789 0.391271 0.111901
0.128320 0.391674 0.081801
0.179613 0.391271 0.081161
0.222063 0.391674 0.082437
0.263603 0.391440 0.081140
0.307437 0.391315 0.081960
0.351747 0.391440 0.081140
0.397675 0.391315 0.081326
0.450114 0.395938 0.081570
0.507315 0.402080 0.081852
0.567707 0.408656 0.079658
0.628761 0.413229 0.086328
0.689645 0.415773 0.081688
0.751287 0.417750 0.088760
0.805134 0.416580 0.083602
0.903275 0.420148 0.106465
0.111785 0.447793 0.113041
0.128751 0.448130 0.082854
0.180950 0.448611 0.085425
0.223897 0.448130 0.080943
0.266582 0.447993 0.079400
0.310577 0.447941 0.080880
0.356331 0.447993 0.081941
0.403289 0.447941 0.082152
0.451604 0.447839 0.082403
0.507055 0.453115 0.082725
0.569271 0.460828 0.075449
0.629332 0.465305 0.083998
0.690326 0.469365 0.079302
0.751287 0.471976 0.084255
0.804927 0.470167 0.084396
0.903275 0.474433 0.106459
0.111779 0.507787 0.114165
0.129374 0.508085 0.084295
0.181615 0.507787 0.086502
0.225977 0.508085 0.082382
0.269637 0.507960 0.086191
0.314536 0.507917 0.078753
0.361083 0.507960 0.082987
0.408929 0.507917 0.083200
0.458269 0.507871 0.083472
0.509060 0.507853 0.083783
0.567258 0.514499 0.078390
0.628958 0.518641 0.087631
0.690077 0.523369 0.087250
0.751287 0.525902 0.087463
0.804725 0.525052 0.085323
0.903275 0.530048 0.106457
0.111773 0.570807 0.115238
0.130129 0.571070 0.086036
0.182944 0.570807 0.086237
0.227498 0.571070 0.082831
0.272512 0.571041 0.077210
0.318957 0.570997 0.076792
0.365586 0.571041 0.084189
0.414343 0.570997 0.084408
0.464640 0.570999 0.084668
0.516435 0.570939 0.084973
0.569838 0.570999 0.080841
0.628362 0.575157 0.081149
0.689951 0.580300 0.087024
0.751287 0.583489 0.092623
0.804587 0.581145 0.086385
0.903275 0.586909 0.106445
0.111772 0.636049 0.116173
0.130943 0.636274 0.087955
0.182944 0.636049 0.087764
0.229771 0.636274 0.084746
0.275425 0.636199 0.087422
0.321947 0.636200 0.086970
0.369408 0.636199 0.085497
0.418978 0.636200 0.085690
0.470155 0.636246 0.085949
0.522737 0.636193 0.086237
0.577152 0.636246 0.082749
0.631538 0.636193 0.083681
0.689821 0.637811 0.088862
0.751287 0.641722 0.090666
0.804469 0.638684 0.087564
0.903275 0.645181 0.106443
0.111764 0.698157 0.116748
0.131784 0.698350 0.089935
0.184282 0.698157 0.092199
0.230010 0.698350 0.085420
0.276914 0.698273 0.088100
0.323102 0.700015 0.088291
0.371694 0.698273 0.086816
0.421722 0.698280 0.087011
0.473314 0.698235 0.087242
0.526380 0.698187 0.087519
0.581239 0.698235 0.085319
0.636161 0.698187 0.084950
0.693095 0.698315 0.089497
0.751287 0.698984 0.098495
0.804350 0.696534 0.088854
0.903275 0.704233 0.106436
0.111757 0.754759 0.116850
0.132598 0.754912 0.091822
0.184282 0.754759 0.089064
0.230895 0.754912 0.087948
0.276444 0.754942 0.088735
0.323360 0.754907 0.072422
0.372014 0.754942 0.088095
0.422000 0.754907 0.088276
0.473631 0.754866 0.088498
0.526726 0.754921 0.088742
0.580755 0.754866 0.087208
0.635652 0.754921 0.086820
0.693051 0.754407 0.090892
0.752051 0.755168 0.097167
0.804255 0.751800 0.090243
0.903275 0.760461 0.106420
0.111749 0.807824 0.116638
0.133386 0.808098 0.093683
0.183629 0.807824 0.097324
0.230385 0.808098 0.089137
0.276122 0.808018 0.090638
0.322823 0.807984 0.090154
0.370911 0.808018 0.089343
0.420687 0.807984 0.089509
0.472066 0.808090 0.089707
0.524878 0.808083 0.089945
0.579127 0.808090 0.087765
0.635420 0.808083 0.089300
0.691026 0.807915 0.092359
0.749496 0.807812 0.095833
0.805596 0.807915 0.091715
0.903275 0.815857 0.106404
0.111740 0.903275 0.117231
0.144133 0.903275 0.114481
0.183629 0.903275 0.105815
0.230997 0.903275 0.106446
0.277633 0.903275 0.106415
0.324772 0.903275 0.106416
0.373240 0.903275 0.106415
0.423475 0.903275 0.106416
0.475310 0.903275 0.106413
0.528664 0.903275 0.106409
0.582496 0.903275 0.106413
0.639354 0.903275 0.106409
0.695989 0.903275 0.106394
0.755522 0.903275 0.106388
0.812459 0.903275 0.106394
0.903275 0.903275 0.106388
0.111802 0.085901 0.164147
0.144797 0.085901 0.164147
0.178962 0.085901 0.164147
0.216549 0.085900 0.164851
0.256486 0.085900 0.166622
0.301091 0.085899 0.169554
0.346509 0.085898 0.170936
0.396385 0.085896 0.173173
0.449836 0.085895 0.175472
0.506782 0.085893 0.177853
0.567429 0.085895 0.180580
0.626589 0.085893 0.181485
0.689513 0.085885 0.183012
0.750372 0.085882 0.183861
0.804171 0.085879 0.183740
0.903275 0.085876 0.185326
0.111802 0.121238 0.164147
0.143695 0.120105 0.168147
0.180950 0.118010 0.167723
0.220854 0.114308 0.165980
0.260799 0.110607 0.164496
0.304334 0.107607 0.164956
0.350289 0.105532 0.165212
0.399803 0.104445 0.166394
0.453043 0.103811 0.167982
0.509709 0.103502 0.169809
0.569937 0.102557 0.171605
0.630452 0.104126 0.173430
0.691622 0.103431 0.174222
0.752051 0.105847 0.176702
0.806222 0.104064 0.174948
0.903275 0.120564 0.183972
0.111801 0.158552 0.164147
0.137584 0.159191 0.165143
0.178299 0.157876 0.164147
0.218400 0.157157 0.162279
0.260781 0.154973 0.159743
0.308715 0.150109 0.152213
0.356984 0.144911 0.145572
0.408168 0.140098 0.138872
0.462260 0.136060 0.133385
0.519412 0.132826 0.129145
0.580338 0.130148 0.125813
0.641322 0.128240 0.122979
0.702007 0.127423 0.123078
0.762248 0.126265 0.121540
0.815217 0.124826 0.120355
0.903275 0.158181 0.179418
0.111800 0.198731 0.165278
0.132208 0.199528 0.161699
0.173663 0.200156 0.157409
0.217359 0.198845 0.153868
0.260089 0.197791 0.148333
0.307291 0.197115 0.142782
0.354770 0.196384 0.137138
0.405909 0.195718 0.131643
0.460291 0.195454 0.126884
0.517728 0.195602 0.122906
0.577479 0.196885 0.119365
0.639594 0.195602 0.116795
0.700543 0.195659 0.115885
0.761442 0.195730 0.113975
0.814620 0.194970 0.112514
0.903275 0.196420 0.164111
0.111799 0.242295 0.167143
0.129618 0.242976 0.161243
0.164459 0.243756 0.141602
0.213180 0.243707 0.139345
0.257357 0.242342 0.137640
0.303256 0.242866 0.133932
0.351906 0.244530 0.130025
0.403250 0.245788 0.126351
0.457833 0.247335 0.122993
0.515604 0.249089 0.120085
0.577366 0.250999 0.118231
0.638181 0.252015 0.113989
0.699727 0.253689 0.114584
0.760567 0.253020 0.113974
0.813725 0.252224 0.111894
0.903275 0.253020 0.164110
0.111797 0.288779 0.169190
0.128497 0.289338 0.162102
0.157926 0.290285 0.130362
0.210582 0.290843 0.129079
0.256187 0.289785 0.128501
0.301504 0.289479 0.126163
0.349160 0.291290 0.123709
0.400652 0.294010 0.121384
0.455462 0.296985 0.119174
0.513421 0.300078 0.117183
0.574894 0.303806 0.115113
0.635918 0.304601 0.113803
0.697879 0.307202 0.113180
0.759755 0.307148 0.113293
0.812742 0.306474 0.111164
0.903275 0.307148 0.164108
0.111793 0.338334 0.171375
0.128182 0.338844 0.163656
0.152742 0.339884 0.123527
0.208864 0.340407 0.120987
0.256947 0.339594 0.120726
0.302312 0.339584 0.120649
0.347719 0.338827 0.118683
0.398417 0.341894 0.117251
0.453304 0.346177 0.115855
0.511359 0.350573 0.114550
0.571841 0.353949 0.113155
0.634582 0.358310 0.111855
0.695715 0.360031 0.111089
0.757200 0.360928 0.110609
0.811405 0.360031 0.110422
0.903275 0.360928 0.164105
0.111789 0.391271 0.173671
0.128323 0.391707 0.165575
0.150166 0.392850 0.118876
0.209705 0.393286 0.116706
0.257439 0.392915 0.116207
0.304042 0.392533 0.115409
0.350478 0.392117 0.114854
0.397960 0.391687 0.114065
0.451547 0.395836 0.113203
0.509633 0.401387 0.112384
0.571639 0.407005 0.112530
0.633637 0.410942 0.111708
0.693711 0.413098 0.110390
0.756325 0.416140 0.110606
0.810162 0.413908 0.109719
0.903275 0.415333 0.164102
0.111785 0.447793 0.176079
0.128746 0.448123 0.167746
0.147588 0.450238 0.117060
0.210178 0.449750 0.113351
0.259284 0.448850 0.113512
0.306030 0.449330 0.111712
0.353904 0.448850 0.112170
0.402306 0.448513 0.111712
0.451881 0.448154 0.111222
0.508212 0.453106 0.110734
0.568738 0.459535 0.110549
0.632198 0.465295 0.108055
0.693369 0.468531 0.109138
0.755522 0.469864 0.109936
0.808859 0.468531 0.109138
0.903275 0.470670 0.164098
0.111779 0.507787 0.178487
0.129383 0.508080 0.170084
0.146304 0.509436 0.113909
0.210860 0.509757 0.111484
0.260684 0.509767 0.111043
0.309068 0.509566 0.109447
0.357637 0.508938 0.110375
0.407072 0.508750 0.110118
0.457585 0.508407 0.109847
0.509340 0.508170 0.109563
0.569821 0.514204 0.111857
0.630074 0.520592 0.109563
0.691557 0.523254 0.108734
0.754643 0.526262 0.110603
0.807952 0.524091 0.108734
0.903275 0.527078 0.164100
0.111773 0.570807 0.180840
0.130137 0.571068 0.172386
0.146304 0.571651 0.114720
0.210996 0.571910 0.109593
0.262782 0.572069 0.107263
0.312010 0.571836 0.108470
0.361353 0.572069 0.109272
0.411611 0.571836 0.109133
0.463130 0.571549 0.108996
0.515874 0.571417 0.108852
0.570696 0.571549 0.107658
0.628559 0.575659 0.108191
0.690550 0.579849 0.109835
0.752965 0.582882 0.109932
0.806897 0.580693 0.108496
0.903275 0.584575 0.164094
0.111772 0.636049 0.182869
0.130952 0.636303 0.174503
0.145022 0.636859 0.113896
0.212573 0.637995 0.108205
0.264450 0.637306 0.112697
0.314400 0.637213 0.108619
0.364642 0.637306 0.108674
0.415697 0.637213 0.108619
0.468003 0.636925 0.108559
0.521538 0.636768 0.108507
0.576563 0.636116 0.105232
0.632820 0.636768 0.110516
0.689831 0.636874 0.112470
0.752051 0.641657 0.111272
0.806124 0.638629 0.108450
0.903275 0.643347 0.164096
0.111764 0.698157 0.184112
0.131776 0.698349 0.175993
0.146304 0.700830 0.117087
0.212105 0.699283 0.108244
0.265449 0.700156 0.106452
0.316534 0.700924 0.107106
0.366386 0.699355 0.108454
0.417910 0.699143 0.108444
0.470692 0.699093 0.108441
0.524712 0.698811 0.108445
0.580171 0.699093 0.108441
0.636097 0.698811 0.107107
0.694115 0.700055 0.110593
0.751287 0.697691 0.110595
0.805383 0.696537 0.108583
0.903275 0.702942 0.164102
0.111757 0.754759 0.184379
0.132604 0.754910 0.176580
0.146947 0.755604 0.120026
0.212309 0.755865 0.112813
0.265385 0.755809 0.111836
0.315715 0.755788 0.111852
0.366373 0.755809 0.108486
0.417858 0.755788 0.108502
0.470595 0.755647 0.108528
0.524658 0.755588 0.108561
0.579229 0.755647 0.110537
0.636819 0.753825 0.108561
0.692871 0.754617 0.112918
0.752965 0.756146 0.111933
0.804942 0.751900 0.108893
0.903275 0.759637 0.164094
0.111749 0.807824 0.183973
0.133387 0.808097 0.176663
0.147588 0.808751 0.121708
0.211803 0.809829 0.108872
0.264765 0.808886 0.110686
0.313487 0.808905 0.111390
0.364918 0.808886 0.108675
0.416259 0.808905 0.108707
0.468694 0.808766 0.108750
0.522432 0.808591 0.108817
0.578089 0.808766 0.112104
0.633708 0.808591 0.102826
0.690329 0.808087 0.107361
0.749496 0.807355 0.111252
0.805812 0.808087 0.109368
0.903275 0.815424 0.164086
0.111740 0.903275 0.185281
0.144133 0.903275 0.184195
0.178299 0.903275 0.180162
0.214451 0.903275 0.167489
0.264296 0.903275 0.164093
0.315547 0.903275 0.164092
0.366683 0.903275 0.164093
0.418417 0.903275 0.164092
0.471394 0.903275 0.164091
0.525557 0.903275 0.164089
0.580872 0.903275 0.164091
0.637776 0.903275 0.164089
0.695390 0.903275 0.164079
0.754643 0.903275 0.164077
0.811885 0.903275 0.164079
0.903275 0.903275 0.164077
0.111802 0.085901 0.227009
0.145491 0.085901 0.227009
0.180298 0.085901 0.227009
0.217970 0.085900 0.227009
0.257896 0.085900 0.227790
0.301090 0.085899 0.231217
0.346509 0.085898 0.233877
0.396384 0.085896 0.237322
0.449836 0.085894 0.240966
0.506782 0.085892 0.244670
0.567428 0.085895 0.247879
0.626589 0.085892 0.250829
0.689513 0.085885 0.253262
0.750372 0.085882 0.255025
0.804171 0.085879 0.254034
0.903275 0.085876 0.256575
0.111802 0.121979 0.227008
0.142607 0.118981 0.234558
0.182288 0.116175 0.235395
0.221056 0.113837 0.232280
0.261366 0.109205 0.231258
0.304278 0.106906 0.232080
0.350126 0.105397 0.232784
0.399749 0.104386 0.235151
0.452905 0.103779 0.238011
0.509656 0.103492 0.241132
0.570615 0.105043 0.244909
0.630367 0.104748 0.247278
0.691580 0.103445 0.248692
0.752051 0.105847 0.251141
0.806176 0.104080 0.249460
0.903275 0.120564 0.255782
0.111801 0.160119 0.227008
0.136567 0.160089 0.232622
0.177626 0.158073 0.231578
0.219356 0.156707 0.231094
0.261274 0.154490 0.229767
0.308422 0.149088 0.228639
0.356766 0.144421 0.227470
0.407872 0.139747 0.226357
0.462010 0.135828 0.225996
0.519264 0.132667 0.226366
0.579262 0.129916 0.227512
0.640341 0.128724 0.228656
0.701083 0.126739 0.227769
0.762248 0.126915 0.229354
0.815126 0.124790 0.227769
0.903275 0.158180 0.253125
0.111800 0.200007 0.227007
0.131941 0.200613 0.227990
0.172350 0.200007 0.228538
0.215697 0.197799 0.225731
0.259442 0.197972 0.225534
0.305681 0.196245 0.223097
0.354852 0.193061 0.220246
0.408842 0.188532 0.214815
0.466498 0.183076 0.208080
0.526804 0.177634 0.201370
0.588830 0.172721 0.194702
0.651478 0.168008 0.190251
0.714688 0.164022 0.186322
0.775963 0.161318 0.182503
0.829061 0.159266 0.179739
0.903275 0.198710 0.249384
0.111799 0.242806 0.228531
0.129535 0.243337 0.226878
0.164459 0.244264 0.220941
0.212400 0.243337 0.219301
0.257236 0.242305 0.218092
0.304448 0.241844 0.214221
0.353998 0.240120 0.208358
0.407531 0.238206 0.201538
0.464417 0.236250 0.194423
0.524247 0.234439 0.187504
0.586643 0.232618 0.181199
0.649675 0.230819 0.176554
0.710129 0.230759 0.170880
0.774210 0.228750 0.166402
0.827022 0.225723 0.163674
0.903275 0.238159 0.235405
0.111796 0.288779 0.231100
0.128473 0.289308 0.228243
0.157926 0.290285 0.218254
0.204416 0.291580 0.207901
0.253082 0.290548 0.204774
0.302261 0.289757 0.200208
0.351086 0.289819 0.195844
0.404458 0.290524 0.190602
0.461104 0.291306 0.185202
0.520781 0.292253 0.179951
0.583185 0.293594 0.175015
0.645231 0.293744 0.170518
0.709368 0.293786 0.167520
0.770842 0.292739 0.164210
0.824577 0.290770 0.161074
0.903275 0.290469 0.226988
0.111793 0.338334 0.234520
0.128180 0.338827 0.230932
0.152742 0.339884 0.215593
0.194638 0.341953 0.193443
0.247897 0.340662 0.189663
0.299446 0.340979 0.186671
0.347837 0.339128 0.183796
0.400745 0.340979 0.180102
0.457363 0.343673 0.176242
0.517047 0.346530 0.172432
0.580117 0.349895 0.168270
0.643000 0.351964 0.165926
0.705067 0.352364 0.163840
0.767407 0.352549 0.160623
0.821785 0.350041 0.158114
0.903275 0.348671 0.226986
0.111789 0.391271 0.238129
0.128332 0.391662 0.234084
0.150166 0.392850 0.216139
0.187398 0.395661 0.181092
0.245110 0.393883 0.176914
0.297052 0.393705 0.175230
0.347858 0.393118 0.173278
0.398196 0.392112 0.170868
