Lukas Eriksen LUT Pack 2.0/Lukas Eriksen LUT 2 - Magellanic.CUBE
LUT_3D_SIZE 16
0.000000 0.000000 0.000000
0.007452 0.006713 0.010018
0.029561 0.009253 0.014712
0.060134 0.012241 0.017607
0.097370 0.016971 0.022157
0.141600 0.022279 0.027243
0.192135 0.026765 0.031614
0.245410 0.029184 0.033091
0.302536 0.031187 0.034194
0.362628 0.037351 0.039343
0.424241 0.043833 0.045323
0.487070 0.050500 0.051663
0.550527 0.057301 0.058289
0.614756 0.064248 0.065135
0.679757 0.071319 0.072153
0.745155 0.078483 0.079325
0.013372 0.014692 0.020966
0.022226 0.022424 0.029425
0.046329 0.024824 0.031249
0.075998 0.027424 0.031677
0.112198 0.031147 0.033604
0.155294 0.035420 0.036117
0.204766 0.038845 0.038527
0.259465 0.041514 0.040040
0.318456 0.044732 0.042596
0.380786 0.049660 0.047530
0.444441 0.054724 0.052998
0.509783 0.059630 0.058789
0.576003 0.065305 0.065327
0.643244 0.071555 0.072540
0.711604 0.078198 0.080124
0.778166 0.085226 0.087548
0.016285 0.041575 0.030546
0.028780 0.048275 0.036898
0.052025 0.051641 0.040208
0.082439 0.057835 0.042728
0.119648 0.063812 0.046167
0.163240 0.069901 0.050345
0.212831 0.076034 0.054387
0.267870 0.081642 0.057978
0.326711 0.088077 0.062976
0.388364 0.094832 0.069396
0.451751 0.099636 0.075033
0.516275 0.103261 0.079855
0.581944 0.106115 0.084651
0.648659 0.108774 0.089798
0.716156 0.111471 0.095257
0.784404 0.114178 0.100980
0.020495 0.074579 0.042332
0.036068 0.080035 0.046959
0.059375 0.083691 0.050123
0.088172 0.087880 0.053990
0.125948 0.095622 0.057488
0.171665 0.104469 0.060170
0.223059 0.112473 0.063347
0.278480 0.119113 0.066814
0.337532 0.126244 0.072134
0.399382 0.133594 0.078837
0.462346 0.141153 0.086186
0.526380 0.148672 0.094321
0.591222 0.156342 0.102982
0.656765 0.164021 0.112016
0.723014 0.171885 0.121563
0.790030 0.178056 0.130099
0.028131 0.113850 0.055065
0.044250 0.119365 0.059299
0.068015 0.123382 0.062522
0.097500 0.128005 0.066418
0.133687 0.133129 0.070875
0.178046 0.141572 0.075482
0.230406 0.152411 0.077922
0.287870 0.162286 0.080601
0.349121 0.172161 0.084787
0.411541 0.180286 0.090877
0.474700 0.188309 0.097974
0.538674 0.196292 0.105803
0.603470 0.204255 0.114179
0.668907 0.212307 0.122934
0.734877 0.220437 0.132150
0.801429 0.228679 0.141794
0.037324 0.159494 0.070117
0.052923 0.166066 0.074760
0.077130 0.170239 0.078058
0.107480 0.175210 0.081924
0.144456 0.180670 0.086626
0.187388 0.186720 0.092073
0.237350 0.195082 0.097490
0.295548 0.207889 0.099973
0.357458 0.219793 0.103751
0.421655 0.231078 0.108466
0.486697 0.242036 0.113974
0.552155 0.251541 0.120408
0.617053 0.259975 0.128382
0.682594 0.268417 0.136910
0.748660 0.276930 0.145917
0.814865 0.285290 0.155208
0.046349 0.211636 0.087381
0.061602 0.219261 0.092679
0.086421 0.223612 0.095889
0.117737 0.228717 0.099820
0.155575 0.234653 0.104623
0.199456 0.240961 0.110155
0.248823 0.247761 0.116283
0.303529 0.255915 0.122699
0.365481 0.270374 0.126758
0.430134 0.283672 0.130970
0.495705 0.296044 0.135869
0.561690 0.307971 0.141623
0.628797 0.319499 0.147537
0.696668 0.330602 0.153947
0.763003 0.339856 0.162486
0.829452 0.348829 0.171585
0.054923 0.269441 0.105980
0.069795 0.278415 0.112275
0.095928 0.282707 0.115422
0.128418 0.287911 0.119462
0.167169 0.294110 0.124430
0.211879 0.300787 0.130144
0.262086 0.307881 0.136532
0.316463 0.315240 0.143571
0.374457 0.323340 0.151693
0.438512 0.338091 0.156641
0.504131 0.352525 0.161366
0.570725 0.366043 0.166542
0.638064 0.378773 0.172011
0.705661 0.391150 0.178604
0.774194 0.403074 0.184921
0.842925 0.414862 0.191988
0.065347 0.331566 0.126983
0.079850 0.341841 0.134334
0.106839 0.346059 0.137447
0.140048 0.351270 0.141597
0.179609 0.357522 0.146711
0.225171 0.364389 0.152518
0.275808 0.371783 0.159122
0.330758 0.379431 0.166316
0.388737 0.387237 0.174013
0.448513 0.395402 0.182856
0.512956 0.409388 0.188816
0.579495 0.424695 0.194028
0.646988 0.439118 0.199453
0.714881 0.452693 0.205424
0.783174 0.465734 0.211904
0.852208 0.478284 0.218301
0.077228 0.396405 0.149512
0.090571 0.408292 0.158368
0.118091 0.412277 0.161343
0.152196 0.417283 0.165380
0.192463 0.423471 0.170517
0.238643 0.430459 0.176545
0.289961 0.437916 0.183162
0.345325 0.445689 0.190396
0.403745 0.453661 0.198237
0.463497 0.461783 0.206500
0.524350 0.470052 0.215821
0.588504 0.482376 0.223197
0.656094 0.498649 0.228475
0.723462 0.513614 0.234725
0.792294 0.527961 0.240747
0.860905 0.541583 0.247382
0.089622 0.462612 0.173257
0.101343 0.476507 0.183788
0.129455 0.480076 0.186581
0.164579 0.484546 0.190364
0.205627 0.490609 0.195505
0.252389 0.497610 0.201531
0.304231 0.505149 0.208335
0.360028 0.513072 0.215696
0.418713 0.521132 0.223557
0.478635 0.529283 0.231929
0.539474 0.537459 0.240552
0.601152 0.545899 0.250222
0.664552 0.556363 0.259282
0.732949 0.573439 0.264682
0.801164 0.589162 0.271117
0.870400 0.604157 0.277280
0.102368 0.529894 0.198008
0.112525 0.545651 0.210415
0.141038 0.548922 0.212923
0.177181 0.552925 0.216456
0.218890 0.558811 0.221579
0.266328 0.565757 0.227652
0.318702 0.573331 0.234565
0.374963 0.581270 0.242003
0.433738 0.589469 0.249958
0.493926 0.597761 0.258335
0.554889 0.606020 0.267008
0.616474 0.614226 0.276084
0.678935 0.622836 0.286094
0.742122 0.632051 0.296176
0.810233 0.649019 0.302543
0.879043 0.665211 0.309007
0.115478 0.597897 0.223659
0.125447 0.614298 0.236814
0.152479 0.618932 0.240596
0.189893 0.622244 0.243548
0.232429 0.627864 0.248626
0.280515 0.634713 0.254804
0.333343 0.642320 0.261694
0.389926 0.650133 0.269200
0.448959 0.658468 0.277219
0.509269 0.666843 0.285761
0.570415 0.675138 0.294431
0.632183 0.683457 0.303499
0.694334 0.691793 0.312817
0.757349 0.700599 0.323154
0.820639 0.709263 0.333894
0.887931 0.724833 0.341488
0.128904 0.666606 0.250312
0.138710 0.683560 0.264034
0.163701 0.690004 0.269456
0.202641 0.692383 0.271755
0.246046 0.697805 0.276656
0.294840 0.704300 0.282813
0.348084 0.711845 0.289806
0.404999 0.720005 0.297443
0.464170 0.728096 0.305441
0.524835 0.736435 0.313945
0.586007 0.744988 0.322639
0.647899 0.753334 0.331650
0.710164 0.761778 0.340997
0.772974 0.770200 0.350637
0.836314 0.778913 0.361286
0.899678 0.787771 0.372244
0.143145 0.734948 0.278715
0.153196 0.752088 0.292902
0.174436 0.762345 0.299647
0.215449 0.763270 0.300746
0.259916 0.768149 0.305502
0.309477 0.774716 0.311697
0.363088 0.782120 0.318702
0.420271 0.790145 0.326231
0.479591 0.798205 0.334396
0.540346 0.806812 0.342882
0.601779 0.815163 0.351684
0.663668 0.823747 0.360688
0.726116 0.832206 0.369918
0.788956 0.840637 0.379572
0.852193 0.849097 0.389310
0.915633 0.857895 0.400255
0.157266 0.804391 0.307438
0.167478 0.821660 0.322193
0.185367 0.835074 0.330628
0.227998 0.834732 0.330811
0.273706 0.839046 0.334981
0.324003 0.845205 0.341055
0.378265 0.852687 0.348095
0.435701 0.860432 0.355776
0.495203 0.868877 0.363966
0.556056 0.877289 0.372414
0.617520 0.885857 0.381149
0.679637 0.894101 0.390302
0.742124 0.902689 0.399577
0.805098 0.911094 0.409031
0.868278 0.919619 0.418712
0.931390 0.928307 0.428681
0.002205 0.002205 0.009840
0.009034 0.008546 0.032796
0.029206 0.011224 0.038946
0.057949 0.014114 0.044504
0.095748 0.018058 0.048274
0.140824 0.022900 0.051191
0.191699 0.027162 0.052842
0.246221 0.029452 0.051178
0.303943 0.031494 0.050528
0.364217 0.037695 0.053156
0.426195 0.044211 0.056705
0.489368 0.050925 0.061078
0.553160 0.057767 0.066174
0.617734 0.064750 0.071975
0.683013 0.071855 0.078129
0.748457 0.079041 0.084671
0.015182 0.016194 0.042163
0.021804 0.024948 0.050577
0.045147 0.027187 0.055823
0.073352 0.030676 0.059380
0.110701 0.033332 0.060328
0.154701 0.036485 0.059881
0.205457 0.039040 0.059376
0.260421 0.040780 0.059209
0.319667 0.043439 0.059905
0.382119 0.048390 0.062728
0.446271 0.053862 0.066533
0.511748 0.059710 0.071305
0.578439 0.065893 0.076940
0.646322 0.072352 0.083411
0.714818 0.079123 0.090286
0.781774 0.086179 0.096911
0.018863 0.040990 0.057706
0.030236 0.048733 0.061779
0.051737 0.053176 0.063371
0.081338 0.056030 0.065983
0.119286 0.058291 0.065700
0.163206 0.061288 0.066111
0.213226 0.064513 0.067001
0.268393 0.067286 0.067442
0.327710 0.071068 0.069149
0.389939 0.076050 0.072730
0.453737 0.080917 0.076761
0.518678 0.085876 0.081298
0.584746 0.090486 0.086173
0.651439 0.095293 0.091516
0.719203 0.099786 0.097125
0.787811 0.104321 0.103127
0.022908 0.072908 0.069125
0.036141 0.081195 0.070734
0.059286 0.085334 0.072867
0.088627 0.089370 0.076641
0.127198 0.096694 0.079442
0.172086 0.103714 0.082698
0.222520 0.110456 0.086319
0.278261 0.117023 0.089978
0.337846 0.124258 0.094781
0.399809 0.131968 0.100431
0.463274 0.139587 0.106743
0.527609 0.146761 0.113000
0.592946 0.153050 0.119004
0.659115 0.158371 0.124478
0.726029 0.162429 0.129339
0.793476 0.166215 0.134338
0.030994 0.112021 0.080379
0.044168 0.121381 0.081854
0.067977 0.125459 0.084783
0.097942 0.129863 0.088673
0.134554 0.134846 0.093380
0.179753 0.143953 0.097036
0.232455 0.153889 0.099356
0.290122 0.163054 0.101700
0.350155 0.171162 0.106573
0.412386 0.179322 0.112246
0.475903 0.187526 0.118603
0.540270 0.195777 0.125589
0.605304 0.204109 0.133072
0.671010 0.212531 0.141073
0.737459 0.220906 0.149654
0.804113 0.229349 0.158718
0.039875 0.158708 0.093459
0.052998 0.168757 0.096140
0.077486 0.172842 0.099043
0.108305 0.177622 0.103014
0.145622 0.183018 0.107757
0.189012 0.188947 0.113228
0.239941 0.198326 0.117860
0.298208 0.210550 0.120317
0.360445 0.221980 0.123795
0.425053 0.232965 0.127611
0.489658 0.242981 0.132978
0.554111 0.251564 0.139818
0.619151 0.260314 0.147097
0.684898 0.269080 0.154965
0.751095 0.277874 0.163399
0.817861 0.286549 0.172242
0.048891 0.211895 0.108701
0.061945 0.222621 0.112493
0.087217 0.226944 0.115344
0.119051 0.231743 0.119363
0.157269 0.237557 0.124187
0.201465 0.243903 0.129874
0.251050 0.250656 0.136003
0.306361 0.259655 0.142122
0.368929 0.273876 0.145575
0.433673 0.286890 0.149503
0.499452 0.299087 0.153981
0.565709 0.310842 0.159130
0.633029 0.322229 0.164577
0.699643 0.332175 0.171636
0.765991 0.341258 0.179871
0.832545 0.350184 0.188486
0.057721 0.270412 0.125962
0.070267 0.282637 0.131081
0.097075 0.286526 0.133732
0.130066 0.291517 0.137778
0.169298 0.297520 0.142817
0.214432 0.304142 0.148546
0.264710 0.311309 0.155042
0.319407 0.318670 0.162138
0.377756 0.327114 0.169918
0.442214 0.342263 0.174232
0.508359 0.356483 0.178459
0.574867 0.369818 0.183578
0.642231 0.382444 0.188779
0.710048 0.394792 0.194745
0.778661 0.406699 0.200967
0.847295 0.418371 0.207660
0.068062 0.333546 0.145388
0.080375 0.346772 0.152191
0.108000 0.350646 0.154902
0.142014 0.355442 0.158791
0.181991 0.361515 0.163900
0.227906 0.368370 0.169848
0.278851 0.375636 0.176434
0.334172 0.383337 0.183614
0.392175 0.391119 0.191406
0.452185 0.399315 0.200036
0.517115 0.414014 0.205452
0.583776 0.429195 0.210517
0.651314 0.443399 0.215640
0.719433 0.456907 0.221291
0.787983 0.469853 0.227386
0.856466 0.482485 0.234017
0.080217 0.398720 0.167081
0.091586 0.413225 0.175981
0.119497 0.417334 0.177782
0.154375 0.421847 0.181589
0.195144 0.427934 0.186702
0.241726 0.434815 0.192714
0.293359 0.442204 0.199377
0.349022 0.449930 0.206734
0.407424 0.457951 0.214611
0.467311 0.466043 0.222849
0.528343 0.474356 0.232017
0.592702 0.487250 0.239214
0.660355 0.503430 0.244296
0.728647 0.518442 0.249898
0.797271 0.532684 0.255651
0.865976 0.546282 0.262253
0.092902 0.465155 0.190322
0.103169 0.480727 0.201830
0.131122 0.485332 0.202202
0.167081 0.489439 0.205746
0.208559 0.495402 0.210863
0.255633 0.502262 0.216940
0.307845 0.509725 0.223771
0.364031 0.517542 0.231136
0.422615 0.525710 0.239105
0.482719 0.533831 0.247410
0.543609 0.542031 0.256104
0.605481 0.550474 0.265677
0.669214 0.561463 0.274361
0.737493 0.578391 0.279962
0.806620 0.594300 0.285499
0.875878 0.609219 0.291436
0.105882 0.532463 0.214781
0.115846 0.548825 0.227410
0.142869 0.554462 0.228059
0.179856 0.558127 0.231167
0.222047 0.563817 0.236279
0.269841 0.570701 0.242438
0.322493 0.578154 0.249222
0.379031 0.586079 0.256761
0.438013 0.594247 0.264781
0.498319 0.602529 0.273127
0.559309 0.610834 0.281887
0.620984 0.619055 0.290914
0.683452 0.627712 0.300816
0.746730 0.637229 0.310776
0.815906 0.654378 0.316486
0.884535 0.670753 0.322771
0.119304 0.600459 0.240416
0.129287 0.617175 0.253887
0.154107 0.624985 0.255284
0.192594 0.627699 0.257835
0.235770 0.633128 0.262725
0.284192 0.639758 0.268929
0.337318 0.647302 0.275884
0.394128 0.655270 0.283427
0.453325 0.663480 0.291381
0.513800 0.671890 0.299892
0.575026 0.680169 0.308630
0.636870 0.688523 0.317597
0.699148 0.696929 0.326986
0.762169 0.705599 0.337309
0.825437 0.714370 0.347975
0.893518 0.730433 0.354974
0.133001 0.669067 0.267012
0.143045 0.686194 0.281178
0.165244 0.696531 0.283886
0.205451 0.698101 0.285515
0.249592 0.703174 0.290195
0.298743 0.709650 0.296444
0.352323 0.717115 0.303363
0.409380 0.725218 0.310954
0.468697 0.733360 0.319090
0.529380 0.741705 0.327564
0.590760 0.750082 0.336298
0.652719 0.758513 0.345305
0.715043 0.767039 0.354667
0.777918 0.775499 0.364225
0.841424 0.784400 0.374833
0.904830 0.793178 0.385812
0.146965 0.738350 0.294514
0.157209 0.755463 0.309083
0.176450 0.768638 0.313695
0.218332 0.769207 0.314204
0.263480 0.773797 0.318569
0.313429 0.780098 0.324802
0.367445 0.787644 0.331799
0.424802 0.795487 0.339383
0.484325 0.803635 0.347541
0.545151 0.812180 0.356068
0.606639 0.820577 0.364859
0.668675 0.829064 0.373832
0.731343 0.837523 0.383086
0.794149 0.846016 0.392627
0.857167 0.854475 0.402396
0.920715 0.863315 0.413267
0.161910 0.806971 0.323482
0.172474 0.824339 0.338247
0.188260 0.839929 0.347302
0.231044 0.840725 0.343695
0.277549 0.844726 0.347708
0.328134 0.850956 0.353798
0.382710 0.858018 0.360869
0.440273 0.866081 0.368505
0.500025 0.874414 0.376643
0.560962 0.882806 0.385256
0.622615 0.891105 0.393977
0.684657 0.899597 0.403066
0.747338 0.908100 0.412295
0.810199 0.916647 0.421689
0.873365 0.925178 0.431395
0.936608 0.933726 0.441337
0.004673 0.004673 0.021088
0.011547 0.011547 0.054672
0.029101 0.014507 0.064717
0.058517 0.015969 0.069859
0.093904 0.019765 0.076568
0.138706 0.024234 0.081418
0.189545 0.028268 0.082980
0.244236 0.030521 0.080979
0.303282 0.032263 0.078104
0.365031 0.038237 0.076593
0.428230 0.044673 0.076932
0.491564 0.051383 0.079332
0.555622 0.058249 0.082677
0.620476 0.065253 0.086745
0.685886 0.072374 0.091497
0.751728 0.079593 0.096724
0.016064 0.019527 0.057708
0.020524 0.029254 0.068118
0.042335 0.031155 0.080120
0.072999 0.032776 0.084514
0.107817 0.036899 0.089140
0.151993 0.039899 0.091046
0.202884 0.042236 0.090503
0.259483 0.043214 0.088723
0.320421 0.044903 0.086654
0.383581 0.049475 0.086825
0.448038 0.054850 0.089327
0.513998 0.060660 0.092706
0.580733 0.066851 0.096871
0.648691 0.073294 0.102038
0.717531 0.080037 0.107847
0.784842 0.087067 0.113355
0.023054 0.041917 0.076355
0.034286 0.049588 0.082597
0.050962 0.056333 0.085537
0.080375 0.058853 0.092463
0.116514 0.062541 0.096646
0.161890 0.064522 0.096752
0.213175 0.066245 0.095048
0.269575 0.067458 0.093112
0.329289 0.070087 0.092993
0.391669 0.073932 0.094161
0.455761 0.078144 0.096286
0.520870 0.082778 0.099111
0.587051 0.087694 0.102918
0.654158 0.092957 0.107539
0.722052 0.098494 0.112883
0.790903 0.104301 0.118947
0.030638 0.070560 0.091968
0.042947 0.078793 0.098579
0.062520 0.085342 0.100333
0.088697 0.091466 0.101966
0.126443 0.094779 0.104392
0.171932 0.097328 0.103791
0.222807 0.101020 0.104275
0.278831 0.104662 0.104753
0.338793 0.109477 0.106672
0.401126 0.115378 0.109863
0.464970 0.121163 0.113429
0.529839 0.126778 0.117411
0.595392 0.132448 0.121824
0.661823 0.137884 0.126507
0.728711 0.143047 0.131415
0.796690 0.147730 0.136407
0.037666 0.107797 0.108098
0.049792 0.117794 0.114279
0.069871 0.126018 0.112536
0.098202 0.132215 0.113515
0.135180 0.137160 0.118261
0.181378 0.145994 0.121345
0.233661 0.154223 0.124265
0.290104 0.161593 0.128013
0.350317 0.169570 0.132641
0.412822 0.177868 0.137893
0.476588 0.186223 0.143751
0.541117 0.194706 0.150193
0.606397 0.203077 0.156978
0.672539 0.211447 0.164262
0.739051 0.219713 0.171845
0.806071 0.227042 0.178857
0.045973 0.154304 0.123200
0.057718 0.165643 0.129428
0.078385 0.174782 0.125379
0.108661 0.180416 0.127408
0.146577 0.185563 0.132185
0.190212 0.191519 0.137870
0.242013 0.201504 0.141920
0.300883 0.212821 0.144155
0.363143 0.223771 0.147412
0.426745 0.233296 0.152059
0.490626 0.242078 0.157885
0.555184 0.250868 0.164267
0.620561 0.259730 0.171115
0.686441 0.268679 0.178468
0.752978 0.277649 0.186271
0.819727 0.286627 0.194572
0.054744 0.207702 0.138995
0.066162 0.220288 0.145656
0.087516 0.230076 0.140199
0.119615 0.235103 0.143202
0.158367 0.240603 0.148109
0.203004 0.246796 0.153752
0.252893 0.253528 0.160162
0.309080 0.263330 0.165698
0.371968 0.277147 0.168797
0.436746 0.289737 0.172674
0.502825 0.301573 0.176605
0.569440 0.312977 0.181261
0.635495 0.323020 0.187520
0.701399 0.332253 0.194817
0.767838 0.341513 0.202621
0.834660 0.350694 0.210805
0.063504 0.266871 0.155946
0.074531 0.280670 0.163742
0.097256 0.290530 0.157795
0.130900 0.295345 0.160948
0.170686 0.300959 0.165924
0.216244 0.307533 0.171740
0.266882 0.314547 0.178304
0.321745 0.321968 0.185427
0.380798 0.331066 0.192769
0.445668 0.346222 0.196691
0.511725 0.360191 0.200823
0.578635 0.373105 0.205458
0.646099 0.385570 0.210424
0.714287 0.397693 0.215803
0.782745 0.409487 0.221847
0.850375 0.419754 0.229342
0.073773 0.330383 0.174686
0.084511 0.345455 0.184269
0.108568 0.354949 0.177944
0.143137 0.359700 0.181078
0.183760 0.365406 0.186088
0.230078 0.372128 0.192068
0.281353 0.379295 0.198711
0.336824 0.386923 0.205960
0.395140 0.394757 0.213768
0.455498 0.403272 0.222258
0.520700 0.418346 0.227179
0.587797 0.433398 0.231799
0.655487 0.447360 0.236692
0.723480 0.460609 0.242072
0.792174 0.473492 0.247878
0.861247 0.486008 0.254034
0.085552 0.396629 0.195041
0.095897 0.412275 0.206966
0.120230 0.422167 0.200114
0.155827 0.426491 0.202911
0.197149 0.432101 0.208028
0.244159 0.438865 0.214040
0.296102 0.446266 0.220814
0.352037 0.453969 0.228153
0.410575 0.461866 0.235979
0.470753 0.469932 0.244258
0.531835 0.478304 0.253383
0.596831 0.492115 0.259900
0.664709 0.508099 0.264782
0.732893 0.522877 0.270194
0.801875 0.536989 0.275642
0.870469 0.550501 0.282089
0.098316 0.463527 0.217245
0.108418 0.479735 0.229996
0.131928 0.490538 0.223801
0.168572 0.494390 0.226290
0.210760 0.500001 0.231347
0.258455 0.506619 0.237405
0.310913 0.514074 0.244209
0.367248 0.521858 0.251644
0.426149 0.529874 0.259603
0.486378 0.538074 0.267908
0.547371 0.546258 0.276646
0.609389 0.554778 0.286203
0.674013 0.566858 0.294109
0.742049 0.583451 0.299597
0.811217 0.599049 0.304895
0.879880 0.613802 0.311231
0.111326 0.531482 0.240599
0.121542 0.547934 0.254213
0.143497 0.560149 0.249297
0.181483 0.563380 0.250999
0.224452 0.568798 0.255880
0.272846 0.575344 0.261971
0.325859 0.582774 0.268897
0.382482 0.590666 0.276435
0.441716 0.598808 0.284471
0.502124 0.606982 0.292817
0.563244 0.615304 0.301513
0.625032 0.623579 0.310502
0.687639 0.632250 0.320398
0.751540 0.642364 0.329814
0.820385 0.659544 0.335674
0.889796 0.675851 0.341262
0.124860 0.599884 0.265236
0.135058 0.616704 0.279437
0.155428 0.630260 0.276926
0.194454 0.633207 0.276946
0.238302 0.638374 0.281662
0.287362 0.644725 0.287740
0.340793 0.652117 0.294650
0.397902 0.660083 0.302237
0.457273 0.668333 0.310309
0.517851 0.676546 0.318781
0.579197 0.684989 0.327522
0.641068 0.693250 0.336485
0.703489 0.701646 0.345817
0.766694 0.710533 0.356066
0.830218 0.719467 0.366395
0.898582 0.736211 0.372928
0.138388 0.669244 0.290754
0.148834 0.686206 0.305215
0.167480 0.700683 0.307105
0.207337 0.703847 0.303936
0.252315 0.708668 0.308409
0.302038 0.714932 0.314544
0.356025 0.722309 0.321499
0.413413 0.730067 0.329113
0.472898 0.738335 0.337222
0.533712 0.746739 0.345774
0.595176 0.755159 0.354435
0.657139 0.763521 0.363463
0.719515 0.771962 0.372715
0.782452 0.780450 0.382186
0.846088 0.789265 0.392773
0.909523 0.798141 0.403534
0.152338 0.739232 0.317143
0.162954 0.756430 0.331970
0.179408 0.772069 0.338804
0.220336 0.775208 0.332003
0.266475 0.779405 0.336125
0.316780 0.785668 0.342233
0.371354 0.792796 0.349232
0.428918 0.800639 0.356919
0.488587 0.808899 0.364965
0.549496 0.817341 0.373471
0.611135 0.825832 0.382317
0.673283 0.834084 0.391265
0.735802 0.842584 0.400460
0.798784 0.851127 0.409983
0.861969 0.859515 0.419619
0.925615 0.868479 0.430495
0.166745 0.808930 0.344727
0.177607 0.826220 0.359828
0.191870 0.843251 0.371036
0.233025 0.847070 0.361059
0.280425 0.850709 0.364656
0.331686 0.856466 0.370614
0.386788 0.863699 0.377737
0.444551 0.871324 0.385392
0.504402 0.879743 0.393544
0.565586 0.888078 0.401975
0.627225 0.896590 0.410707
0.689592 0.904984 0.419737
0.752143 0.913379 0.428929
0.815063 0.921817 0.438359
0.878299 0.930360 0.448037
0.941696 0.938898 0.457888
0.007474 0.007474 0.033563
0.014576 0.014576 0.070737
0.025367 0.020082 0.096209
0.058360 0.019869 0.101109
0.094511 0.021630 0.107356
0.137121 0.025817 0.115050
0.186009 0.030217 0.119317
0.241101 0.032401 0.119268
0.300517 0.033849 0.117557
0.362740 0.039364 0.115766
0.426438 0.045522 0.113959
0.491218 0.052018 0.112785
0.557095 0.058744 0.112050
0.622631 0.065724 0.113414
0.688309 0.072862 0.116506
0.754261 0.080102 0.120271
0.016934 0.023770 0.069881
0.020027 0.034132 0.087952
0.036151 0.037834 0.104744
0.069297 0.037311 0.114748
0.107096 0.039205 0.119873
0.148732 0.043743 0.125678
0.199170 0.046482 0.128753
0.255746 0.047411 0.128795
0.317069 0.048674 0.127791
0.380950 0.052589 0.127113
0.446963 0.056972 0.126374
0.514009 0.062110 0.126688
0.581763 0.067922 0.128406
0.650299 0.074196 0.131651
0.719226 0.080889 0.136353
0.787275 0.087885 0.140762
0.022788 0.046775 0.095778
0.029827 0.056293 0.105518
0.046276 0.062610 0.108207
0.075428 0.063971 0.122454
0.115501 0.065284 0.128529
0.157843 0.069773 0.133978
0.209373 0.071569 0.135625
0.266559 0.072331 0.134520
0.327749 0.073745 0.132554
0.391529 0.076488 0.130799
0.456710 0.079972 0.130316
0.522378 0.084336 0.131979
0.588635 0.089302 0.134536
0.656026 0.094530 0.138058
0.724085 0.100080 0.142150
0.793060 0.105848 0.147146
0.037437 0.070458 0.113229
0.047320 0.080077 0.123056
0.065838 0.087192 0.125300
0.086890 0.095797 0.128862
0.124620 0.098590 0.138529
0.168543 0.102716 0.143405
0.220867 0.104442 0.143039
0.278523 0.105536 0.140566
0.339627 0.107801 0.138843
0.402452 0.111276 0.139090
0.466476 0.115168 0.140129
0.531437 0.119336 0.141704
0.597183 0.123755 0.144010
0.663804 0.128410 0.146964
0.730994 0.133330 0.150491
0.798895 0.138465 0.154831
0.046703 0.105697 0.131977
0.056825 0.116648 0.142482
0.078093 0.123443 0.145218
0.103576 0.131289 0.148067
0.135353 0.139624 0.150466
0.180330 0.143569 0.153133
0.232815 0.146560 0.152428
0.289674 0.150725 0.152940
0.350132 0.155368 0.154037
0.413161 0.161616 0.157015
0.477148 0.168253 0.160614
0.542170 0.174760 0.164457
0.607734 0.181333 0.168781
0.674002 0.187780 0.173291
0.741011 0.193910 0.178046
0.808310 0.199834 0.182843
0.054859 0.149540 0.154615
0.064986 0.161843 0.165725
0.086331 0.170170 0.165799
0.112197 0.179910 0.164214
0.146519 0.188379 0.164331
0.190729 0.194130 0.169928
0.243650 0.204100 0.173288
0.302050 0.213554 0.176294
0.362960 0.222146 0.180854
0.426235 0.230856 0.185938
0.490264 0.239672 0.191520
0.555027 0.248578 0.197535
0.620643 0.257589 0.204012
0.686782 0.266630 0.210997
0.753383 0.275876 0.218328
0.820398 0.285059 0.226170
0.063012 0.202453 0.174234
0.072782 0.216088 0.186011
0.094704 0.225377 0.183928
0.121720 0.236040 0.179075
0.158469 0.243705 0.179892
0.203696 0.249713 0.185710
0.253906 0.256325 0.192177
0.311173 0.267047 0.196949
0.374219 0.279863 0.200061
0.439351 0.291660 0.203569
0.504998 0.302456 0.207887
0.570162 0.311864 0.213835
0.635737 0.321210 0.220267
0.701943 0.330581 0.227142
0.768512 0.339914 0.234517
0.835455 0.349322 0.242286
0.071593 0.261516 0.193276
0.081297 0.276196 0.205835
0.103422 0.286691 0.202209
0.131893 0.297759 0.194976
0.170984 0.304532 0.197318
0.217115 0.310707 0.203241
0.268183 0.317621 0.209908
0.323337 0.325021 0.217107
