Lukas Eriksen LUT Pack 2.0/Lukas Eriksen LUT 1 - Orion.CUBE
LUT_3D_SIZE 6
0.044009 0.069915 0.076921
0.076203 0.076895 0.083926
0.190859 0.076898 0.095444
0.417896 0.076241 0.120676
0.718880 0.134362 0.194301
0.948927 0.241634 0.311178
0.053035 0.134353 0.105619
0.095796 0.137574 0.092423
0.247453 0.130387 0.092666
0.475578 0.110035 0.125763
0.751862 0.148316 0.191428
0.963626 0.316770 0.319278
0.057652 0.319263 0.226119
0.054754 0.289553 0.179190
0.268064 0.359010 0.175406
0.596882 0.368345 0.146471
0.826973 0.365305 0.196966
0.990048 0.469036 0.333640
0.100387 0.543500 0.372746
0.092321 0.501814 0.319555
0.114053 0.434882 0.236711
0.564213 0.635166 0.305361
0.883570 0.720027 0.303375
0.991101 0.663650 0.372864
0.177372 0.807087 0.532975
0.150013 0.781857 0.493064
0.125933 0.675420 0.371660
0.338969 0.708099 0.336148
0.831946 0.893071 0.520788
0.987485 0.908570 0.630922
0.632869 0.996385 0.795557
0.617780 0.996444 0.791417
0.554974 0.996219 0.721653
0.418696 0.986403 0.568375
0.806589 0.984942 0.740324
0.959010 0.984409 0.872541
0.045222 0.082085 0.130479
0.085819 0.081040 0.122420
0.200663 0.090599 0.120972
0.437769 0.082464 0.136346
0.728642 0.136278 0.188307
0.960795 0.271302 0.324301
0.053084 0.160321 0.187812
0.108471 0.160273 0.178600
0.247789 0.165517 0.170580
0.491056 0.160000 0.163202
0.755864 0.178829 0.189451
0.965670 0.329377 0.315722
0.068426 0.376861 0.317911
0.122596 0.347173 0.286015
0.288015 0.365648 0.257246
0.594113 0.369624 0.242350
0.832746 0.380521 0.215807
0.974930 0.475729 0.330128
0.141913 0.595573 0.444772
0.166276 0.561564 0.410912
0.150530 0.459219 0.292894
0.574938 0.637015 0.371463
0.877850 0.712108 0.374902
0.998934 0.664540 0.364899
0.284259 0.836069 0.596793
0.258832 0.813401 0.558367
0.177929 0.716923 0.439135
0.334782 0.701550 0.364244
0.830960 0.887747 0.557151
0.977973 0.907977 0.657882
0.673977 0.993106 0.813249
0.668809 0.988479 0.817683
0.587377 0.992207 0.755499
0.453297 0.991139 0.606389
0.805324 0.981427 0.747394
0.946472 0.979596 0.881447
0.061116 0.103929 0.338228
0.065336 0.109544 0.343849
0.243241 0.112621 0.313998
0.492387 0.097369 0.316420
0.741974 0.149034 0.307207
0.961548 0.300800 0.328779
0.066516 0.195198 0.366817
0.076758 0.199343 0.377028
0.276543 0.215741 0.365341
0.504646 0.214831 0.348112
0.750311 0.277077 0.354106
0.963474 0.356112 0.346332
0.086855 0.416237 0.473392
0.132403 0.417501 0.472346
0.346775 0.407341 0.444359
0.570469 0.415661 0.432859
0.803590 0.441181 0.414642
0.980382 0.491318 0.382316
0.200477 0.718875 0.616676
0.291699 0.699892 0.600165
0.375183 0.612680 0.524071
0.607177 0.664009 0.519838
0.863535 0.702775 0.526488
0.991166 0.682730 0.487018
0.392439 0.896006 0.719440
0.429756 0.891109 0.709621
0.432108 0.833928 0.629144
0.321207 0.689974 0.425575
0.831744 0.888448 0.656046
0.973686 0.904290 0.743397
0.727072 0.993129 0.870219
0.748907 0.987765 0.869857
0.724103 0.987346 0.841575
0.586416 0.987076 0.718402
0.781968 0.981986 0.752104
0.963444 0.977960 0.895034
0.112209 0.176187 0.604329
0.112446 0.177682 0.605757
0.366679 0.181881 0.632174
0.563794 0.168327 0.591290
0.802573 0.211552 0.605671
0.965523 0.305822 0.566611
0.114089 0.248671 0.614302
0.116007 0.261078 0.624104
0.387718 0.276491 0.640771
0.581930 0.278965 0.615009
0.803268 0.318218 0.616710
0.963747 0.382427 0.576640
0.119509 0.437375 0.642238
0.121010 0.437995 0.646533
0.394211 0.450752 0.662880
0.627257 0.492493 0.665415
0.810933 0.515763 0.648762
0.946703 0.588321 0.644900
0.240744 0.726568 0.757787
0.326444 0.731936 0.753424
0.485327 0.725259 0.745173
0.676267 0.713777 0.720687
0.843667 0.726911 0.713726
0.962190 0.736512 0.688239
0.578784 0.953882 0.861164
0.616778 0.946148 0.864036
0.650396 0.928939 0.838735
0.651732 0.860060 0.748807
0.844705 0.893228 0.787103
0.962412 0.908153 0.828152
0.772147 0.995700 0.910815
0.783786 0.994052 0.903545
0.808864 0.994877 0.906537
0.805253 0.981214 0.876877
0.720035 0.988610 0.754560
0.963710 0.978968 0.907092
0.163460 0.271191 0.868048
0.262283 0.279019 0.870466
0.514335 0.284183 0.878742
0.749703 0.341809 0.883653
0.861532 0.350690 0.850644
0.951481 0.516382 0.829216
0.163740 0.347108 0.869357
0.263260 0.343851 0.867016
0.513744 0.369199 0.878987
0.749989 0.432719 0.883302
0.854236 0.443812 0.851260
0.948700 0.586026 0.825192
0.161491 0.502003 0.858843
0.214360 0.509967 0.872153
0.500860 0.533093 0.872958
0.747558 0.610783 0.877563
0.859992 0.641414 0.866287
0.943232 0.729788 0.850080
0.256586 0.731789 0.878017
0.336489 0.734396 0.879467
0.463956 0.720706 0.869908
0.722390 0.760021 0.876819
0.866221 0.817637 0.872714
0.940449 0.848132 0.869131
0.601327 0.927514 0.910269
0.638358 0.924458 0.909214
0.710371 0.922623 0.906298
0.796167 0.917565 0.907023
0.885677 0.918481 0.898264
0.951734 0.927363 0.900944
0.861615 0.995125 0.945158
0.878244 0.992434 0.941747
0.886687 0.987505 0.943196
0.904773 0.987262 0.939018
0.895674 0.981026 0.919281
0.957438 0.976780 0.934424
0.531116 0.517346 0.964300
0.575877 0.532763 0.969088
0.682356 0.563025 0.964124
0.812880 0.633337 0.961722
0.914734 0.739433 0.948639
0.964070 0.745330 0.942086
0.541656 0.572114 0.968997
0.592098 0.583724 0.970524
0.690491 0.617140 0.966844
0.807435 0.681200 0.953505
0.916909 0.774343 0.950444
0.969542 0.774270 0.948994
0.550377 0.675080 0.961834
0.601274 0.694344 0.957669
0.705405 0.725261 0.956014
0.822815 0.775309 0.950698
0.915234 0.844769 0.947646
0.964833 0.846496 0.945927
0.487989 0.784077 0.959514
0.532637 0.790053 0.959921
0.657956 0.799315 0.950159
0.821313 0.855697 0.951254
0.914305 0.901599 0.949840
0.965270 0.915206 0.944648
0.735589 0.939873 0.967150
0.751806 0.927356 0.956431
0.775978 0.927358 0.957644
0.821137 0.923519 0.950294
0.909998 0.942981 0.948095
0.968670 0.956774 0.951032
0.890190 0.980469 0.958802
0.894781 0.988395 0.956098
0.913415 0.986867 0.957523
0.930772 0.984570 0.959376
0.950167 0.983804 0.953186
0.977976 0.988565 0.963473
