Lukas Eriksen LUT Pack 2.0/Lukas Eriksen LUT 5 - Circinus.CUBE
LUT_3D_SIZE 16
0.010225 0.031168 0.047634
0.022273 0.044912 0.053722
0.087549 0.065348 0.060903
0.171707 0.093214 0.068090
0.261636 0.117720 0.071701
0.351793 0.134156 0.071003
0.436680 0.149925 0.073972
0.505985 0.175810 0.089534
0.578839 0.191129 0.117828
0.646332 0.207695 0.149689
0.706158 0.226922 0.183167
0.756652 0.247948 0.212671
0.801703 0.270001 0.237745
0.843642 0.291717 0.256972
0.881765 0.312010 0.272493
0.916445 0.330947 0.283953
0.015261 0.074702 0.052212
0.023641 0.075928 0.060017
0.095348 0.084252 0.055411
0.175879 0.110127 0.065232
0.268358 0.127389 0.070750
0.361296 0.136573 0.070765
0.443466 0.151132 0.076139
0.514058 0.172796 0.095443
0.585380 0.191327 0.121760
0.651407 0.210337 0.150733
0.709912 0.230073 0.181278
0.760165 0.251603 0.206464
0.805507 0.273205 0.228309
0.847173 0.294492 0.248200
0.885132 0.314969 0.263427
0.919342 0.334347 0.275135
0.026154 0.140115 0.057595
0.030975 0.157613 0.057994
0.080968 0.148638 0.060908
0.200821 0.133698 0.053738
0.295732 0.156632 0.056448
0.383031 0.178316 0.057166
0.466252 0.194446 0.065696
0.535862 0.211542 0.083077
0.606017 0.222673 0.110452
0.669385 0.235320 0.139626
0.724911 0.250781 0.167199
0.773282 0.268781 0.191237
0.816899 0.287800 0.212242
0.856871 0.307341 0.230863
0.893018 0.326514 0.245922
0.926229 0.345457 0.257974
0.037472 0.209264 0.059773
0.041735 0.235870 0.051454
0.087695 0.231191 0.056437
0.194490 0.215267 0.068558
0.317578 0.188556 0.054000
0.421765 0.202372 0.051480
0.498386 0.223961 0.065080
0.570142 0.241485 0.083499
0.634005 0.256366 0.104717
0.692329 0.270371 0.127938
0.745268 0.289216 0.147997
0.792605 0.308073 0.166904
0.835605 0.325879 0.185362
0.873747 0.341978 0.202919
0.907598 0.357981 0.217665
0.938320 0.374354 0.229335
0.046952 0.277036 0.064509
0.049783 0.301239 0.055722
0.082699 0.309932 0.054334
0.201766 0.288532 0.087347
0.327511 0.279797 0.065442
0.436141 0.240611 0.055650
0.529004 0.248447 0.068691
0.611446 0.262724 0.091344
0.675063 0.278714 0.113103
0.729345 0.297282 0.132182
0.776004 0.316639 0.148397
0.818148 0.336976 0.162061
0.857235 0.359767 0.172867
0.892465 0.384518 0.179522
0.923889 0.408203 0.184191
0.946856 0.423462 0.189409
0.053085 0.333251 0.069316
0.055068 0.354356 0.060144
0.078680 0.375921 0.057141
0.203880 0.361095 0.073623
0.349212 0.358708 0.073773
0.444417 0.318762 0.078659
0.543969 0.288070 0.072121
0.632220 0.290028 0.089914
0.706277 0.305413 0.114852
0.762625 0.325736 0.134012
0.804831 0.344479 0.147920
0.842091 0.364314 0.158815
0.877134 0.386577 0.167050
0.911022 0.411302 0.172762
0.941351 0.439402 0.174756
0.956782 0.453835 0.176004
0.058290 0.387898 0.071688
0.059743 0.400963 0.064831
0.083474 0.421090 0.062593
0.206173 0.433863 0.066691
0.340082 0.419882 0.087216
0.475899 0.438019 0.075191
0.563753 0.382703 0.082463
0.653007 0.349643 0.092868
0.723977 0.343568 0.108392
0.778756 0.354714 0.127540
0.824163 0.372659 0.142642
0.863353 0.392942 0.154312
0.895458 0.415178 0.160861
0.926228 0.440979 0.165039
0.955929 0.468696 0.168947
0.968826 0.481417 0.170738
0.065023 0.435161 0.079312
0.066707 0.444370 0.073190
0.100349 0.466445 0.070939
0.224839 0.488105 0.076057
0.356094 0.479814 0.091263
0.500720 0.508085 0.085496
0.596516 0.512965 0.097564
0.673382 0.442389 0.103160
0.740593 0.412497 0.112750
0.792650 0.400063 0.122365
0.836452 0.409058 0.134804
0.874399 0.422896 0.146661
0.908974 0.445537 0.155060
0.940489 0.471214 0.161618
0.968133 0.499381 0.167642
0.971974 0.512510 0.169053
0.072340 0.474150 0.094012
0.076293 0.494579 0.078999
0.126445 0.512010 0.079942
0.249735 0.533916 0.085400
0.377757 0.532087 0.095596
0.495409 0.550370 0.094826
0.619700 0.570840 0.106641
0.692481 0.578058 0.118618
0.754281 0.506323 0.122834
0.804708 0.478410 0.130152
0.846455 0.461867 0.137520
0.883378 0.465069 0.145709
0.917328 0.478831 0.154271
0.948729 0.501321 0.162935
0.972005 0.531782 0.170546
0.971925 0.540377 0.171254
0.082225 0.524040 0.092950
0.086688 0.539837 0.085474
0.154828 0.553725 0.088688
0.275966 0.572114 0.093823
0.395897 0.574487 0.102131
0.500389 0.588880 0.108329
0.627360 0.628525 0.113954
0.698986 0.633276 0.125356
0.759287 0.647862 0.137289
0.810928 0.580870 0.140687
0.855208 0.547181 0.146242
0.890610 0.527613 0.152156
0.923446 0.523122 0.159017
0.954495 0.537149 0.167060
0.972054 0.560590 0.172915
0.972077 0.564217 0.173222
0.092859 0.574377 0.099703
0.098176 0.586795 0.095593
0.166724 0.601628 0.099229
0.290100 0.608834 0.104169
0.406502 0.614028 0.114580
0.505303 0.626839 0.118691
0.605274 0.656816 0.119646
0.711733 0.692157 0.133832
0.758526 0.699825 0.142723
0.809674 0.719890 0.154437
0.856951 0.659899 0.157526
0.894231 0.617162 0.161105
0.928275 0.590145 0.165759
0.958774 0.579707 0.171557
0.972031 0.595755 0.175987
0.972025 0.594880 0.175871
0.102636 0.610654 0.113673
0.111215 0.616562 0.106018
0.184056 0.632057 0.109256
0.305439 0.638454 0.118423
0.417189 0.647977 0.129667
0.511937 0.659509 0.133897
0.602136 0.688103 0.127158
0.693223 0.720646 0.137597
0.771774 0.751160 0.150895
0.807058 0.762645 0.158766
0.850926 0.786941 0.170092
0.892766 0.732843 0.172544
0.928291 0.680914 0.174959
0.960729 0.648718 0.178437
0.972081 0.639511 0.179984
0.972060 0.636722 0.179712
0.124024 0.630140 0.139570
0.137811 0.636713 0.127767
0.212159 0.653788 0.128162
0.324703 0.662910 0.139759
0.432218 0.675939 0.151522
0.523905 0.692167 0.152763
0.607102 0.721361 0.136308
0.681963 0.749687 0.144597
0.751692 0.778543 0.154385
0.817965 0.812180 0.166638
0.846173 0.822117 0.173301
0.885862 0.847085 0.184262
0.925557 0.794371 0.186315
0.962421 0.736444 0.188045
0.967310 0.711464 0.186626
0.967844 0.701955 0.185650
0.134691 0.685232 0.142843
0.143717 0.697142 0.132075
0.199698 0.723749 0.130697
0.300661 0.739428 0.134520
0.405156 0.747764 0.137612
0.496452 0.764714 0.143765
0.583866 0.791354 0.152949
0.659528 0.810414 0.160239
0.722114 0.825992 0.166358
0.777537 0.840074 0.172122
0.831708 0.857425 0.178896
0.878765 0.878792 0.186714
0.917746 0.896119 0.196877
0.958344 0.842649 0.198883
0.971646 0.792000 0.195817
0.971331 0.779797 0.194422
0.137520 0.756756 0.138664
0.145730 0.762707 0.139141
0.202392 0.778066 0.143636
0.285977 0.797060 0.149561
0.376141 0.818424 0.156637
0.472051 0.840654 0.164516
0.561444 0.859294 0.171718
0.637690 0.873188 0.177599
0.700461 0.881782 0.181791
0.755039 0.889732 0.185760
0.803566 0.896789 0.189362
0.852238 0.902197 0.192592
0.892583 0.911017 0.196644
0.947845 0.937214 0.208286
0.972005 0.880704 0.206334
0.971815 0.852541 0.202905
0.166296 0.857623 0.168341
0.167816 0.862561 0.169864
0.173160 0.872350 0.170739
0.254201 0.883397 0.174555
0.355051 0.891167 0.177810
0.457555 0.896411 0.180843
0.552394 0.901598 0.184165
0.630172 0.906389 0.187321
0.693068 0.909990 0.189983
0.746447 0.913504 0.192585
0.795286 0.917358 0.195201
0.841589 0.921322 0.197900
0.886233 0.926081 0.200903
0.926288 0.944692 0.207889
0.972231 0.954838 0.215653
0.972225 0.925736 0.211963
0.014375 0.050681 0.074337
0.035065 0.058973 0.087924
0.114410 0.068301 0.090364
0.193571 0.080940 0.091968
0.273653 0.085524 0.084092
0.355989 0.116534 0.079641
0.436643 0.136471 0.082507
0.506893 0.158796 0.102123
0.579201 0.178655 0.130535
0.646363 0.200136 0.162344
0.703855 0.222648 0.197431
0.753877 0.246600 0.225311
0.800102 0.269599 0.246003
0.842154 0.291314 0.264526
0.880335 0.311209 0.279478
0.915015 0.329742 0.290755
0.017227 0.073020 0.089152
0.025040 0.076614 0.092479
0.088239 0.097168 0.099971
0.175677 0.121462 0.103476
0.271341 0.144300 0.100635
0.364876 0.158339 0.086740
0.451287 0.171816 0.078821
0.520979 0.188859 0.088760
0.590098 0.200758 0.116991
0.655366 0.214609 0.149223
0.712739 0.231626 0.181872
0.761610 0.251159 0.210863
0.806329 0.272903 0.233148
0.847572 0.294107 0.252276
0.885344 0.314473 0.267270
0.919654 0.333542 0.278797
0.027451 0.145439 0.094213
0.032186 0.149921 0.097228
0.082529 0.150835 0.104098
0.193731 0.149442 0.095456
0.287012 0.173354 0.096860
0.382092 0.181795 0.082776
0.470635 0.190470 0.077484
0.540101 0.205356 0.088069
0.608070 0.217932 0.114834
0.670436 0.231095 0.144127
0.725259 0.247638 0.171245
0.772905 0.265967 0.194945
0.815962 0.285117 0.216043
0.855935 0.304721 0.234302
0.892232 0.324321 0.249584
0.925795 0.343511 0.261221
0.037788 0.210925 0.079184
0.041457 0.234676 0.088583
0.077029 0.236165 0.092551
0.193938 0.222942 0.101533
0.324525 0.198838 0.072550
0.417264 0.212703 0.060761
0.499957 0.230896 0.067075
0.567230 0.248655 0.079797
0.631878 0.260872 0.101264
0.691926 0.271677 0.126705
0.744532 0.288221 0.148131
0.790731 0.304503 0.168525
0.832496 0.319577 0.188828
0.870342 0.335497 0.206960
0.904632 0.352147 0.221597
0.936000 0.369375 0.233152
0.046562 0.273730 0.071187
0.049421 0.297764 0.081753
0.070527 0.313816 0.071529
0.194969 0.300596 0.104113
0.331876 0.287128 0.084625
0.447587 0.246295 0.059884
0.533450 0.255742 0.069058
0.607523 0.268917 0.087449
0.671978 0.284707 0.108366
0.726046 0.301989 0.127286
0.771055 0.320821 0.142359
0.812997 0.339916 0.156347
0.851675 0.361177 0.167686
0.887520 0.382392 0.177404
0.920310 0.403084 0.185569
0.946419 0.420329 0.191451
0.053156 0.333942 0.074743
0.054698 0.350243 0.077540
0.064410 0.382458 0.059230
0.193302 0.371117 0.081286
0.346344 0.362295 0.089274
0.455569 0.329056 0.092080
0.557914 0.293958 0.074508
0.648257 0.296636 0.093686
0.711380 0.311674 0.114302
0.760666 0.330080 0.130393
0.802150 0.348638 0.143460
0.838654 0.368420 0.153905
0.874689 0.389992 0.163032
0.907452 0.414756 0.168372
0.937650 0.441652 0.171264
0.954573 0.458242 0.172435
0.058342 0.388317 0.078544
0.059367 0.397702 0.078228
0.069592 0.431636 0.064365
0.193347 0.441648 0.069545
0.336462 0.424792 0.102449
0.476017 0.442926 0.076689
0.574721 0.392828 0.086005
0.665150 0.356199 0.095363
0.736956 0.350210 0.111415
0.790214 0.361628 0.130141
0.827405 0.378976 0.141296
0.861183 0.397570 0.150530
0.893589 0.419423 0.157567
0.924549 0.445691 0.162328
0.953985 0.474449 0.166248
0.966710 0.487461 0.168529
0.065089 0.435535 0.088216
0.066286 0.442048 0.085374
0.085010 0.475126 0.072540
0.209923 0.496352 0.077779
0.352119 0.486682 0.099979
0.494165 0.508839 0.086087
0.596833 0.517421 0.098086
0.682158 0.452091 0.105447
0.750018 0.420332 0.115101
0.800916 0.407517 0.124444
0.844383 0.416230 0.136296
0.880427 0.430863 0.146918
0.909721 0.451575 0.153808
0.938783 0.476436 0.160212
0.966982 0.504922 0.167430
0.972002 0.517442 0.169420
0.072438 0.474561 0.107081
0.075971 0.492848 0.088721
0.110458 0.519326 0.081352
0.233777 0.540475 0.086842
0.371401 0.537644 0.102758
0.492973 0.553512 0.103037
0.622240 0.576738 0.107613
0.693147 0.582917 0.119198
0.759455 0.516513 0.124701
0.811032 0.486862 0.132132
0.851131 0.469521 0.139065
0.888563 0.472796 0.147398
0.923093 0.486583 0.156071
0.950728 0.509097 0.163982
0.971885 0.536632 0.170901
0.971959 0.545867 0.171673
0.081620 0.520980 0.107627
0.086872 0.546057 0.087955
0.138211 0.560429 0.090025
0.259470 0.576339 0.095132
0.388661 0.579008 0.108900
0.498503 0.592170 0.119577
0.624427 0.630637 0.114321
0.701579 0.638776 0.126356
0.760131 0.653412 0.137989
0.813068 0.588670 0.141839
0.859302 0.556165 0.147900
0.893730 0.534574 0.153410
0.927107 0.530351 0.160400
0.959552 0.544278 0.168778
0.972099 0.567564 0.173487
0.972119 0.570777 0.173776
0.092685 0.573463 0.112654
0.097126 0.592476 0.097230
0.150252 0.605684 0.100091
0.273396 0.610270 0.106090
0.397341 0.616814 0.121185
0.502064 0.628824 0.131927
0.603904 0.659873 0.120481
0.713576 0.697830 0.134754
0.759191 0.703501 0.143238
0.810183 0.723478 0.154913
0.856521 0.664911 0.157953
0.897090 0.625783 0.162525
0.931184 0.596062 0.166934
0.962148 0.586076 0.172862
0.972058 0.599688 0.176277
0.972048 0.598127 0.176171
0.103150 0.612519 0.125441
0.110531 0.616495 0.110950
0.173709 0.631259 0.111284
0.291060 0.638774 0.121159
0.407797 0.648400 0.136253
0.509014 0.661158 0.147171
0.602062 0.690571 0.132627
0.692873 0.723844 0.138387
0.773077 0.755954 0.151699
0.806993 0.765039 0.159011
0.850439 0.788912 0.170216
0.892353 0.736331 0.172829
0.930459 0.687272 0.176174
0.964080 0.653459 0.179629
0.972132 0.643409 0.180365
0.972083 0.639728 0.180005
0.126215 0.632137 0.153654
0.136995 0.636986 0.134865
0.204467 0.652808 0.132921
0.313227 0.662946 0.143376
0.423247 0.675060 0.157285
0.520063 0.691902 0.164748
0.605301 0.722378 0.143985
0.680108 0.753753 0.145594
0.748931 0.781454 0.155067
0.817270 0.814718 0.166826
0.846775 0.824273 0.173665
0.884732 0.846480 0.183965
0.925092 0.794743 0.186261
0.965960 0.742837 0.189454
0.967142 0.714215 0.186916
0.967279 0.702753 0.185709
0.133118 0.695618 0.149477
0.139535 0.702739 0.134390
0.193441 0.723848 0.132464
0.290168 0.740682 0.135562
0.396193 0.751698 0.139090
0.492133 0.761438 0.142824
0.579827 0.789206 0.152275
0.656865 0.812465 0.160731
0.720972 0.829362 0.167285
0.776550 0.842645 0.172827
0.831057 0.858187 0.179075
0.878444 0.878653 0.186682
0.916219 0.894368 0.196317
0.958749 0.842078 0.198878
0.971710 0.795934 0.196299
0.971338 0.780405 0.194475
0.139750 0.765210 0.141562
0.142579 0.767911 0.140522
0.196687 0.779687 0.144023
0.280748 0.794838 0.148909
0.371261 0.812185 0.154790
0.465291 0.832497 0.162030
0.555576 0.854216 0.170086
0.634271 0.872572 0.177328
0.698798 0.883655 0.182318
0.753998 0.891243 0.186164
0.803089 0.896855 0.189375
0.851892 0.901578 0.192431
0.892322 0.910341 0.196445
0.946946 0.935956 0.207931
0.972000 0.880328 0.206277
0.971824 0.853330 0.203014
0.168318 0.864266 0.170362
0.168760 0.865783 0.170802
0.172236 0.873891 0.171295
0.248685 0.882287 0.174152
0.346895 0.891352 0.177837
0.445645 0.898204 0.181174
0.540702 0.903690 0.184520
0.622426 0.908586 0.187776
0.688680 0.912632 0.190685
0.744391 0.916196 0.193316
0.793239 0.919602 0.195788
0.839350 0.923540 0.198527
0.884873 0.927626 0.201292
0.923542 0.943466 0.207454
0.972306 0.956833 0.215901
0.972163 0.928057 0.212231
0.020834 0.080859 0.114442
0.030501 0.082981 0.117595
0.136314 0.096432 0.143332
0.220888 0.110424 0.136804
0.311201 0.123837 0.138649
0.397927 0.125585 0.124664
0.478137 0.135452 0.121738
0.533547 0.154326 0.127218
0.596520 0.177471 0.151338
0.656875 0.201629 0.179872
0.711525 0.226434 0.207708
0.758997 0.249681 0.231086
0.802142 0.271646 0.252442
0.842350 0.292599 0.271508
0.878927 0.311873 0.287468
0.912725 0.329458 0.300081
0.021756 0.088736 0.118450
0.031052 0.102429 0.132024
0.109670 0.114595 0.154026
0.209217 0.129484 0.149619
0.302906 0.133919 0.141060
0.390669 0.125850 0.115540
0.472018 0.135152 0.113104
0.532967 0.156072 0.123555
0.598215 0.178935 0.148932
0.659203 0.202751 0.177883
0.712576 0.226626 0.205293
0.759941 0.249624 0.228486
0.803840 0.271700 0.249119
0.844353 0.292717 0.266780
0.881864 0.312340 0.281202
0.916424 0.330574 0.292089
0.027391 0.131164 0.147303
0.031095 0.140166 0.154304
0.085460 0.149575 0.164011
0.181915 0.173432 0.168141
0.285807 0.194652 0.159293
0.388276 0.202779 0.132016
0.478382 0.206307 0.110629
0.558735 0.206538 0.104080
0.615542 0.213976 0.122196
0.674476 0.223481 0.155366
0.726398 0.239420 0.184612
0.772834 0.259834 0.206506
0.815412 0.280342 0.225970
0.854956 0.300675 0.243336
0.891388 0.320440 0.257820
0.925061 0.339851 0.268891
0.041110 0.226577 0.182020
0.040980 0.227341 0.158773
0.074263 0.234750 0.162265
0.182173 0.234905 0.162655
0.309585 0.226989 0.149716
0.405856 0.238601 0.127452
0.493594 0.245044 0.110934
0.573196 0.246640 0.101357
0.634556 0.249555 0.108845
0.689889 0.256172 0.136458
0.740717 0.270496 0.160498
0.786325 0.288439 0.180245
0.827788 0.306774 0.198361
0.866025 0.324821 0.215410
0.901499 0.343104 0.229813
0.933919 0.361899 0.240942
0.049396 0.293883 0.155576
0.048510 0.287748 0.131764
0.057691 0.324394 0.134076
0.165065 0.322147 0.136774
0.327524 0.300977 0.131483
0.443658 0.260908 0.092877
0.529773 0.270003 0.082644
0.603784 0.280668 0.087394
0.662362 0.295572 0.099629
0.713728 0.308969 0.116797
0.761072 0.323390 0.134452
0.803752 0.339031 0.150782
0.843622 0.356331 0.165618
0.880538 0.375342 0.177811
0.914246 0.392480 0.189541
0.945553 0.408653 0.200531
0.054638 0.347878 0.133366
0.054002 0.342395 0.102126
0.058614 0.387389 0.105846
0.150482 0.393280 0.097328
0.330957 0.375055 0.135382
0.451930 0.346043 0.131023
0.558186 0.305867 0.081094
0.638538 0.309146 0.088553
0.701933 0.322167 0.106039
0.752267 0.338575 0.121829
0.793933 0.355585 0.134895
0.831145 0.375008 0.145471
0.866620 0.395397 0.154762
0.898721 0.418294 0.161026
0.929403 0.443822 0.165489
0.952900 0.461494 0.170177
0.058756 0.391908 0.107458
0.058834 0.392732 0.098252
0.065235 0.436265 0.094501
0.150149 0.459430 0.078469
0.324591 0.440577 0.126881
0.479457 0.456208 0.095219
0.570948 0.407485 0.107995
0.661196 0.367246 0.095443
0.733250 0.358133 0.108920
0.783713 0.370921 0.123795
0.822184 0.387179 0.135198
0.856223 0.406066 0.144112
0.888812 0.427126 0.151844
0.919345 0.452842 0.157412
0.948311 0.481038 0.162882
0.963044 0.496496 0.166291
0.064273 0.430900 0.104962
0.065775 0.439055 0.112260
0.074753 0.486688 0.088516
0.170480 0.511230 0.083296
0.337400 0.501203 0.119427
0.481411 0.514990 0.114606
0.592945 0.524811 0.099995
0.677960 0.466175 0.106035
0.746826 0.431747 0.115343
0.798818 0.417097 0.124445
0.842906 0.422835 0.134906
0.876010 0.439132 0.143746
0.905819 0.460408 0.151189
0.934827 0.485361 0.158726
0.963270 0.513728 0.167195
0.971951 0.525525 0.170045
0.071320 0.468565 0.127702
0.073151 0.478065 0.131556
0.086137 0.538753 0.086690
0.197880 0.551764 0.091515
0.353860 0.548706 0.120609
0.481748 0.557222 0.146511
0.622233 0.588278 0.108805
0.692449 0.592074 0.119996
0.756994 0.529869 0.125499
0.809429 0.498109 0.132691
0.849663 0.478781 0.139467
0.887043 0.478687 0.147512
0.919873 0.493607 0.155861
0.947652 0.517117 0.163921
0.971482 0.544579 0.171486
0.972014 0.554206 0.172381
0.077514 0.500238 0.148700
0.082089 0.523127 0.132130
0.103230 0.575221 0.093465
0.227889 0.583581 0.100060
0.369404 0.586969 0.125463
0.488873 0.596828 0.152686
0.613093 0.633473 0.115173
0.705348 0.648765 0.128037
0.760300 0.662652 0.138997
0.812364 0.600812 0.142913
0.857193 0.565478 0.148322
0.892032 0.541218 0.153570
0.925798 0.535181 0.160490
0.957776 0.548702 0.168759
0.972011 0.575141 0.174144
0.972044 0.580100 0.174576
0.084108 0.532590 0.170997
0.093878 0.578692 0.133472
0.125043 0.604142 0.104183
0.245547 0.614947 0.112394
0.378202 0.621280 0.135881
0.492391 0.631624 0.162826
0.597276 0.662504 0.146340
0.712571 0.706451 0.135536
0.762836 0.712463 0.144900
0.809998 0.730038 0.155610
0.856613 0.672263 0.158633
0.894066 0.630871 0.162490
0.928854 0.599682 0.166746
0.960716 0.589583 0.172863
0.972085 0.603462 0.176646
0.972096 0.605111 0.176802
0.095356 0.585062 0.181340
0.105543 0.616267 0.146676
0.152168 0.629492 0.122423
0.267030 0.642093 0.129020
0.390363 0.650043 0.149299
0.498775 0.663841 0.170180
0.596877 0.692088 0.163952
0.688325 0.726613 0.139054
0.773606 0.762945 0.152597
0.809825 0.771455 0.160282
0.849857 0.791931 0.170438
0.891927 0.737914 0.172902
0.928497 0.689512 0.175985
0.962158 0.654733 0.179367
0.971212 0.646451 0.180482
0.971763 0.644383 0.180430
0.107790 0.627247 0.191655
0.133249 0.635745 0.175684
0.187827 0.650798 0.150306
0.293161 0.665259 0.153216
0.407623 0.675196 0.169145
0.509633 0.690309 0.184774
0.599529 0.720667 0.175205
0.675685 0.757132 0.149303
0.744195 0.785075 0.155895
0.814344 0.817568 0.167085
0.848113 0.827688 0.174377
0.883523 0.845769 0.183621
0.924748 0.793888 0.186085
0.964570 0.742895 0.189162
0.967248 0.715273 0.187037
0.967404 0.704169 0.185852
0.121579 0.694505 0.184132
0.133831 0.711419 0.158766
0.173197 0.728131 0.139548
0.268623 0.743750 0.139896
0.380849 0.752078 0.144347
0.483374 0.767087 0.145979
0.571725 0.783315 0.150525
0.650809 0.812436 0.160535
0.716827 0.832681 0.168100
0.773618 0.845539 0.173546
0.828341 0.858722 0.179148
0.878293 0.879035 0.186782
0.914906 0.892776 0.195859
0.958935 0.840738 0.198753
0.971726 0.797496 0.196481
0.971352 0.781729 0.194638
0.140320 0.767164 0.148731
0.143028 0.776983 0.145593
0.176873 0.786090 0.145697
0.266279 0.795756 0.149010
0.360049 0.808216 0.153525
0.455077 0.824629 0.159613
0.546628 0.846496 0.167663
0.627479 0.869422 0.176200
0.693604 0.884406 0.182422
0.750623 0.892571 0.186457
0.801327 0.896963 0.189351
0.851156 0.901141 0.192263
0.891704 0.909407 0.196127
0.945824 0.934442 0.207530
0.971998 0.880167 0.206268
0.971827 0.853594 0.203053
0.169787 0.869246 0.171841
0.170997 0.873355 0.173061
0.172478 0.878057 0.173573
0.233269 0.883659 0.174500
0.333916 0.889413 0.177066
0.433733 0.897196 0.180693
0.528207 0.906472 0.185113
0.610880 0.911805 0.188462
0.680383 0.916657 0.191673
0.738077 0.919624 0.194159
0.788425 0.923113 0.196729
0.835771 0.926495 0.199214
0.883732 0.930323 0.202079
0.920370 0.942751 0.207088
0.972117 0.959563 0.216202
0.972209 0.931640 0.212682
0.028216 0.115506 0.160486
0.036931 0.115560 0.160275
0.100514 0.129088 0.187186
0.255302 0.143330 0.194448
0.336660 0.151626 0.179869
0.425088 0.160874 0.172385
0.506528 0.173283 0.169917
0.578952 0.182563 0.166576
0.637227 0.193963 0.166891
0.682573 0.213577 0.183468
0.731956 0.235637 0.209101
0.774533 0.256265 0.230252
0.813513 0.276167 0.249840
0.849926 0.295327 0.267522
0.884357 0.313753 0.282770
0.916661 0.330890 0.295118
0.028897 0.121220 0.163588
0.036903 0.134628 0.177740
0.089621 0.143826 0.191506
0.245292 0.159135 0.209356
0.330881 0.168175 0.192473
0.426291 0.172887 0.181081
0.508350 0.177481 0.170118
0.583214 0.187517 0.168537
0.644609 0.197558 0.168306
0.686869 0.216083 0.181997
0.734730 0.237092 0.206855
0.776106 0.256999 0.228115
0.814185 0.276353 0.248114
0.850614 0.295515 0.266204
0.885103 0.313905 0.281663
0.917374 0.331173 0.294158
0.031458 0.140762 0.177562
0.035219 0.155923 0.191359
0.080131 0.175263 0.210090
0.213836 0.190659 0.235049
0.320233 0.202378 0.217541
0.421967 0.191053 0.189245
0.510425 0.191050 0.173767
0.588665 0.198804 0.171534
0.655024 0.206067 0.171122
0.693422 0.221424 0.177742
0.737808 0.239786 0.201163
0.777771 0.258199 0.222750
0.815256 0.276872 0.243392
0.851715 0.295923 0.262104
0.887041 0.314695 0.277345
0.920333 0.332989 0.288726
0.038842 0.202518 0.214861
0.040637 0.215968 0.224641
0.066434 0.228852 0.239882
0.171279 0.240449 0.254943
0.293454 0.263596 0.251983
0.402442 0.267086 0.224655
0.498697 0.263180 0.199576
0.581554 0.252513 0.181596
0.653146 0.240771 0.169898
0.702878 0.237783 0.163269
0.743630 0.253330 0.181795
0.785414 0.271306 0.201367
0.825812 0.291893 0.216954
0.864272 0.313070 0.230747
0.900191 0.333523 0.243263
0.933070 0.352772 0.253824
0.050830 0.296664 0.256188
0.052841 0.315799 0.256116
0.053565 0.321679 0.237432
0.132561 0.331618 0.236065
0.308264 0.324446 0.226421
0.426411 0.306069 0.215185
0.514352 0.314745 0.205691
0.593329 0.319266 0.194558
0.662755 0.315905 0.179562
0.720785 0.311143 0.166125
0.768812 0.308673 0.158068
0.799613 0.319967 0.162250
0.837683 0.334465 0.179079
0.875992 0.354108 0.192743
0.911441 0.374427 0.203896
0.943867 0.393581 0.213463
0.059349 0.386658 0.260355
0.057844 0.375514 0.221085
0.057031 0.368869 0.197516
0.088057 0.411991 0.184367
0.283452 0.404161 0.194354
0.444171 0.376158 0.197565
0.551339 0.332554 0.160396
0.631292 0.336707 0.140758
0.696455 0.344342 0.127900
0.748354 0.354871 0.127193
0.786299 0.370188 0.131589
0.822911 0.382232 0.137544
0.854361 0.397481 0.146983
0.890115 0.416249 0.157278
0.923930 0.438461 0.165016
0.952246 0.460148 0.170462
0.063974 0.425399 0.227849
0.062425 0.417079 0.200741
0.061429 0.411807 0.168097
0.086326 0.473509 0.145667
0.277463 0.471728 0.157494
0.466384 0.474006 0.170047
0.563107 0.435599 0.182942
0.657242 0.386541 0.125182
0.727479 0.373804 0.107800
0.772964 0.387471 0.117600
0.812869 0.402662 0.127732
0.847242 0.419306 0.136822
0.879386 0.438647 0.144980
0.909837 0.462471 0.152248
0.939128 0.489306 0.159934
0.958568 0.508195 0.165674
0.070178 0.460056 0.219758
0.068222 0.450884 0.184284
0.067978 0.450199 0.162247
0.108839 0.520206 0.122271
0.294274 0.523878 0.148832
0.454541 0.521345 0.196839
0.589523 0.539036 0.140882
0.670907 0.488637 0.140942
