Lukas Eriksen LUT Pack 2.0/Lukas Eriksen LUT 14 - Messier.cube
LUT_3D_SIZE 6
0.000000 0.010451 0.009242
0.052765 0.032219 0.000000
0.221310 0.084046 0.008039
0.407604 0.131077 0.072355
0.577463 0.170289 0.122601
0.720650 0.208417 0.157238
0.002612 0.079828 0.000000
0.054227 0.094641 0.000010
0.187224 0.130500 0.015622
0.400717 0.178360 0.091462
0.626738 0.223977 0.147268
0.827037 0.265395 0.186157
0.041950 0.168908 0.003733
0.094193 0.182683 0.011279
0.199990 0.205728 0.052536
0.419742 0.251466 0.123374
0.670430 0.292889 0.173063
0.919097 0.337163 0.214056
0.112506 0.292675 0.071817
0.172795 0.296605 0.089790
0.247760 0.319704 0.120627
0.465026 0.364491 0.173904
0.725076 0.407363 0.214283
0.971374 0.453784 0.255350
0.170084 0.422860 0.137021
0.207644 0.431516 0.147646
0.331835 0.475375 0.188289
0.511581 0.488322 0.222471
0.749448 0.529962 0.258363
0.982225 0.588258 0.313114
0.234720 0.560311 0.192256
0.260640 0.573325 0.200899
0.357104 0.593675 0.224840
0.587822 0.634404 0.274432
0.836739 0.690086 0.321656
0.959213 0.742053 0.448901
0.000010 0.072170 0.247034
0.054688 0.072545 0.184375
0.198573 0.103507 0.144814
0.423076 0.146079 0.156549
0.650797 0.195578 0.173797
0.802995 0.234145 0.185309
0.014289 0.153122 0.236721
0.056904 0.151451 0.182719
0.197294 0.163196 0.127538
0.451214 0.207606 0.148276
0.708454 0.252190 0.178068
0.915578 0.292306 0.203354
0.064960 0.263835 0.195213
0.102964 0.257222 0.154043
0.222306 0.254272 0.130690
0.473701 0.285934 0.157435
0.739782 0.323055 0.193157
0.963329 0.359039 0.226336
0.137074 0.401431 0.174883
0.173172 0.388597 0.155215
0.275888 0.383878 0.161563
0.509016 0.404817 0.196283
0.771940 0.440631 0.229436
0.982376 0.474958 0.267682
0.197847 0.514147 0.179697
0.237499 0.499399 0.176903
0.350895 0.524258 0.208060
0.570331 0.540743 0.245593
0.791390 0.560308 0.271561
0.983086 0.594301 0.320739
0.236273 0.611041 0.211056
0.266377 0.617722 0.217301
0.383265 0.634760 0.242082
0.648705 0.673416 0.293907
0.880456 0.718745 0.342531
0.956971 0.763289 0.476711
0.001524 0.173821 0.490391
0.063805 0.156458 0.457634
0.205342 0.150857 0.407141
0.405745 0.181905 0.374079
0.645917 0.222439 0.337007
0.800884 0.246511 0.292338
0.018597 0.246751 0.490467
0.056788 0.241097 0.467086
0.175952 0.233661 0.427032
0.421074 0.248002 0.371240
0.708133 0.285510 0.348382
0.950498 0.332034 0.322172
0.068915 0.348438 0.474227
0.105322 0.349108 0.443275
0.206512 0.340962 0.403034
0.466052 0.342872 0.346353
0.760806 0.373840 0.326030
0.980375 0.420623 0.318554
0.157429 0.512004 0.437687
0.185116 0.508518 0.407437
0.273344 0.495693 0.361857
0.534295 0.487636 0.319777
0.804238 0.512656 0.312543
0.985495 0.543069 0.320888
0.245959 0.667682 0.410648
0.267821 0.665927 0.376512
0.350825 0.647468 0.332903
0.590024 0.632415 0.314703
0.831578 0.631510 0.313837
0.974756 0.659230 0.375066
0.316812 0.795541 0.373124
0.333221 0.803487 0.355483
0.445186 0.778605 0.329454
0.626273 0.756198 0.331120
0.898040 0.767944 0.386801
0.952553 0.812079 0.542405
0.018085 0.282973 0.732160
0.066210 0.264204 0.722514
0.222059 0.244031 0.669515
0.409057 0.251171 0.638585
0.645293 0.293727 0.609807
0.798662 0.293578 0.497427
0.047548 0.356071 0.731951
0.073730 0.340802 0.725705
0.183642 0.328144 0.703941
0.402296 0.326459 0.658725
0.672589 0.351913 0.619536
0.912718 0.391696 0.572188
0.098568 0.448749 0.731083
0.135106 0.452374 0.717422
0.221353 0.446112 0.699139
0.428626 0.440986 0.658441
0.714457 0.447998 0.604009
0.968840 0.491252 0.565142
0.199013 0.608321 0.716774
0.220100 0.610889 0.702934
0.300253 0.601176 0.675044
0.497430 0.597147 0.635132
0.782767 0.601583 0.575990
0.983709 0.634855 0.538794
0.297422 0.755589 0.705310
0.315858 0.761585 0.684751
0.386862 0.750930 0.644992
0.587759 0.736473 0.581264
0.843575 0.742957 0.547031
0.975673 0.797025 0.596613
0.414498 0.886444 0.686470
0.462374 0.904741 0.691171
0.540508 0.912067 0.640084
0.735487 0.915856 0.602606
0.915676 0.929297 0.686805
0.964826 0.946083 0.813637
0.041032 0.359472 0.980339
0.085230 0.324770 0.964893
0.198760 0.300856 0.907901
0.397121 0.304777 0.852749
0.628747 0.336021 0.794049
0.767790 0.326722 0.663799
0.121593 0.478412 0.971135
0.129920 0.436479 0.975408
0.228951 0.428724 0.968385
0.422907 0.423484 0.918076
0.656422 0.437202 0.863607
0.876112 0.461528 0.808770
0.156260 0.543303 0.970926
0.194653 0.548992 0.966990
0.276470 0.540603 0.957195
0.458393 0.536000 0.919099
0.689530 0.544116 0.870136
0.933630 0.575575 0.811454
0.267569 0.697212 0.957040
0.286457 0.695624 0.946506
0.361182 0.687135 0.927186
0.529385 0.685327 0.898323
0.742663 0.696388 0.857699
0.972486 0.726972 0.796497
0.398535 0.822126 0.925788
0.413961 0.828480 0.919514
0.462292 0.826307 0.902356
0.618426 0.824069 0.871382
0.831266 0.841646 0.846361
0.994046 0.883810 0.826841
0.638192 0.916776 0.901868
0.674291 0.928071 0.901050
0.705948 0.940260 0.888250
0.804276 0.961431 0.878548
0.934753 0.978286 0.895382
0.988433 0.986775 0.949027
0.072435 0.418133 1.001021
0.104576 0.385018 1.000958
0.212115 0.364762 0.998111
0.405865 0.358897 0.993423
0.617052 0.381830 0.973648
0.791301 0.402017 0.881460
0.137337 0.515758 1.001022
0.167951 0.503394 1.001021
0.378160 0.548674 0.999582
0.588499 0.567577 1.000059
0.664920 0.502373 1.000883
0.862423 0.535204 0.999591
0.223430 0.632032 1.001025
0.268707 0.646700 1.001019
0.360424 0.629151 1.000977
0.552887 0.627592 1.000424
0.696525 0.614312 1.000954
0.913514 0.650443 1.000869
0.346531 0.768685 0.993797
0.366006 0.757440 0.998096
0.440120 0.753121 1.000695
0.579411 0.753079 1.001049
0.753778 0.751677 1.001055
0.958362 0.832797 1.000749
0.516760 0.858109 0.950248
0.546697 0.869657 0.948043
0.596992 0.876585 0.968781
0.715881 0.895363 0.995489
0.874202 0.917831 1.001044
0.994912 0.956076 1.000930
0.736840 0.937200 0.937469
0.755883 0.941210 0.941533
0.819775 0.956595 0.956796
0.920189 0.980466 0.980483
0.983269 0.995709 0.996022
1.001021 1.001021 1.001021
