Lukas Eriksen LUT Pack 2.0/Lukas Eriksen LUT 9 - Lacertae.CUBE
LUT_3D_SIZE 16
0.014114 0.026885 0.035651
0.075637 0.033352 0.041455
0.146294 0.040181 0.034693
0.234501 0.050004 0.049739
0.302940 0.055877 0.053597
0.370228 0.067987 0.057842
0.447225 0.077607 0.064306
0.511063 0.087668 0.076318
0.577066 0.107527 0.095486
0.626531 0.122464 0.109898
0.676944 0.131701 0.122183
0.724105 0.139710 0.133134
0.770467 0.149539 0.143618
0.815062 0.163419 0.158993
0.857894 0.171336 0.168023
0.897564 0.182232 0.179722
0.020653 0.105721 0.043515
0.064864 0.107984 0.052240
0.145979 0.101016 0.047306
0.217310 0.106075 0.051781
0.295596 0.108774 0.056270
0.376535 0.117006 0.066702
0.449342 0.120562 0.070365
0.515116 0.128080 0.084214
0.573614 0.138166 0.100762
0.623111 0.143793 0.107153
0.677362 0.155166 0.121370
0.721917 0.160903 0.132683
0.768848 0.172947 0.145691
0.816393 0.182471 0.160015
0.857745 0.192311 0.175432
0.897155 0.198327 0.184683
0.034040 0.186273 0.064681
0.052170 0.183502 0.059055
0.135492 0.185201 0.065360
0.205629 0.181181 0.065695
0.291050 0.182180 0.073786
0.367669 0.181248 0.073645
0.440676 0.180530 0.081886
0.506530 0.181372 0.089211
0.565679 0.183934 0.101648
0.623125 0.185718 0.117077
0.674006 0.191761 0.126743
0.724485 0.197204 0.142862
0.769138 0.206221 0.155561
0.813740 0.207469 0.162188
0.856076 0.209342 0.170948
0.898710 0.221274 0.185346
0.043924 0.254290 0.081812
0.049728 0.259498 0.082913
0.115908 0.256885 0.080526
0.208764 0.260891 0.089984
0.285349 0.258361 0.084874
0.357192 0.260124 0.094745
0.431647 0.250488 0.093643
0.504519 0.245126 0.103369
0.567745 0.243471 0.115866
0.625279 0.238159 0.124723
0.673331 0.243787 0.139289
0.723202 0.241432 0.147778
0.771060 0.246823 0.160840
0.814038 0.247808 0.168668
0.859035 0.250639 0.180570
0.899724 0.255355 0.190152
0.053151 0.335083 0.106537
0.054824 0.332004 0.102941
0.101320 0.333354 0.110644
0.182473 0.329693 0.107725
0.273873 0.334948 0.121139
0.360509 0.334008 0.115218
0.433669 0.328619 0.119789
0.500412 0.324501 0.123235
0.561477 0.312099 0.129678
0.619244 0.304904 0.139499
0.675775 0.300949 0.156175
0.722902 0.297323 0.163423
0.767766 0.294449 0.171490
0.813264 0.298211 0.181633
0.859589 0.295893 0.192484
0.901068 0.295999 0.200946
0.060324 0.405702 0.132733
0.059821 0.399063 0.121367
0.087488 0.405273 0.124655
0.169028 0.407135 0.132618
0.246505 0.407812 0.133762
0.342896 0.411650 0.141372
0.431896 0.413070 0.143308
0.502530 0.402054 0.151792
0.564742 0.389362 0.157160
0.622630 0.376080 0.162215
0.672995 0.367635 0.167486
0.723148 0.355985 0.175304
0.770815 0.349029 0.180302
0.816263 0.347693 0.190305
0.860800 0.346726 0.201464
0.903455 0.340560 0.210200
0.072798 0.476583 0.153860
0.071437 0.469181 0.147817
0.083151 0.470549 0.148180
0.158130 0.476958 0.162392
0.232381 0.474460 0.164703
0.324732 0.473493 0.163655
0.419742 0.480666 0.169983
0.502789 0.483383 0.174752
0.564142 0.471420 0.184649
0.619001 0.456207 0.184621
0.674337 0.445908 0.190254
0.720596 0.431489 0.191229
0.770157 0.421879 0.199980
0.817702 0.405900 0.205062
0.860488 0.402489 0.214968
0.900432 0.396444 0.214974
0.084445 0.534641 0.172021
0.084616 0.535528 0.169519
0.089216 0.533096 0.170175
0.145187 0.537570 0.174266
0.224219 0.533960 0.191246
0.309024 0.538683 0.190061
0.388779 0.540714 0.192153
0.486936 0.547472 0.206011
0.567410 0.549322 0.210976
0.624085 0.529109 0.216848
0.678555 0.520456 0.219791
0.725947 0.505888 0.220225
0.772198 0.494717 0.225081
0.816996 0.482661 0.230551
0.863563 0.468103 0.236455
0.906315 0.457939 0.238579
0.097070 0.593023 0.190156
0.096674 0.591228 0.193642
0.102907 0.593535 0.192196
0.152297 0.594647 0.196823
0.225919 0.594137 0.215079
0.298857 0.597144 0.223022
0.376877 0.597431 0.220941
0.464234 0.597994 0.224597
0.554107 0.606325 0.233788
0.624268 0.602358 0.233746
0.677487 0.592976 0.242303
0.727597 0.580470 0.246616
0.776918 0.567605 0.251554
0.820994 0.549770 0.248578
0.864241 0.539418 0.255983
0.905872 0.525670 0.256051
0.109789 0.647866 0.209147
0.110166 0.649328 0.214805
0.115667 0.651374 0.215397
0.165566 0.645555 0.222610
0.230755 0.646343 0.240045
0.295289 0.650059 0.247399
0.375782 0.652699 0.247448
0.455708 0.650977 0.251930
0.535864 0.652470 0.251882
0.609678 0.660091 0.257839
0.681314 0.662639 0.263437
0.728649 0.646974 0.263397
0.779720 0.635716 0.269860
0.826235 0.617676 0.269795
0.869235 0.607392 0.279890
0.909987 0.596298 0.281325
0.123109 0.701647 0.224231
0.123246 0.702111 0.227493
0.133107 0.700292 0.234954
0.186720 0.698981 0.247445
0.243390 0.696714 0.256500
0.306641 0.704616 0.267451
0.374550 0.703842 0.271212
0.446831 0.706499 0.271276
0.522360 0.706931 0.273636
0.594790 0.708437 0.275672
0.668062 0.713683 0.285127
0.736020 0.709773 0.288059
0.781713 0.695270 0.288206
0.827583 0.680011 0.290972
0.869497 0.669245 0.293064
0.911948 0.656987 0.288639
0.135495 0.748822 0.239974
0.136627 0.746664 0.243052
0.153703 0.745797 0.243116
0.205354 0.745508 0.260942
0.259544 0.747362 0.274106
0.314698 0.750026 0.287071
0.374746 0.752182 0.284927
0.444776 0.753029 0.288724
0.517946 0.753543 0.289309
0.587756 0.755551 0.294309
0.651485 0.755590 0.298131
0.721242 0.760453 0.301212
0.783041 0.755635 0.307874
0.830409 0.739782 0.310324
0.874856 0.726245 0.316481
0.916463 0.717334 0.317131
0.148806 0.794312 0.263156
0.157590 0.797085 0.260683
0.189747 0.791996 0.265972
0.226037 0.796180 0.274217
0.276735 0.795224 0.293329
0.325166 0.797423 0.304080
0.379344 0.800199 0.306558
0.444008 0.800788 0.307922
0.512271 0.802013 0.311382
0.582977 0.802423 0.315540
0.646078 0.803925 0.319490
0.706481 0.802998 0.315723
0.776075 0.809538 0.319481
0.834388 0.802117 0.323936
0.876732 0.783683 0.329336
0.918353 0.771395 0.329080
0.171846 0.838757 0.276318
0.185727 0.838731 0.280273
0.221990 0.838993 0.287354
0.259322 0.838364 0.300080
0.306546 0.838494 0.317283
0.341524 0.841168 0.322538
0.387217 0.843506 0.325641
0.445652 0.844340 0.322849
0.515647 0.844677 0.328025
0.581552 0.846706 0.327675
0.639459 0.846993 0.328824
0.701365 0.847092 0.334917
0.768334 0.847579 0.335057
0.833123 0.850080 0.340795
0.881114 0.839999 0.343698
0.920522 0.827610 0.346548
0.209193 0.884170 0.291096
0.225461 0.882617 0.292192
0.257550 0.884235 0.307233
0.293751 0.883137 0.322155
0.336384 0.884013 0.339690
0.367667 0.883796 0.345100
0.400081 0.885854 0.339867
0.450404 0.886798 0.338314
0.513033 0.889916 0.338602
0.572502 0.890693 0.339925
0.640395 0.888999 0.341351
0.698728 0.890584 0.346201
0.756397 0.890979 0.346338
0.812440 0.891738 0.344525
0.878971 0.895339 0.344564
0.925498 0.884528 0.357212
0.242163 0.921446 0.305685
0.262763 0.924021 0.313062
0.290826 0.923491 0.324572
0.321146 0.923282 0.337729
0.359034 0.923482 0.354395
0.387181 0.924164 0.357733
0.414207 0.926480 0.354045
0.453956 0.929242 0.354089
0.511752 0.933024 0.353221
0.574098 0.931320 0.356753
0.636425 0.931314 0.354890
0.694333 0.932491 0.356824
0.752101 0.935406 0.363002
0.808919 0.934670 0.364191
0.866886 0.934685 0.357705
0.930305 0.940126 0.369081
0.021592 0.071257 0.127276
0.078381 0.057936 0.136992
0.147733 0.058640 0.132685
0.226479 0.066326 0.127650
0.301704 0.073902 0.130858
0.379849 0.082254 0.133500
0.452326 0.091570 0.135569
0.520594 0.108511 0.143292
0.577293 0.119381 0.150137
0.629909 0.133751 0.158098
0.677645 0.147000 0.161510
0.724808 0.154828 0.172274
0.771015 0.164555 0.181209
0.816984 0.175288 0.190803
0.857625 0.179716 0.195509
0.896796 0.189865 0.204522
0.026584 0.116026 0.125146
0.068707 0.116051 0.132887
0.146895 0.119505 0.134601
0.226226 0.124481 0.134000
0.302640 0.126456 0.136448
0.376532 0.131117 0.141304
0.445595 0.139666 0.144578
0.511413 0.147930 0.147541
0.576532 0.156638 0.159871
0.626117 0.169849 0.168098
0.675229 0.177770 0.175101
0.723765 0.185127 0.183487
0.770530 0.195528 0.194006
0.812958 0.201628 0.200196
0.859291 0.208234 0.208558
0.898438 0.217386 0.221939
0.035894 0.193514 0.144914
0.058161 0.193244 0.142771
0.135628 0.194357 0.154680
0.214408 0.190493 0.148334
0.296256 0.193436 0.146984
0.370093 0.193889 0.149964
0.445272 0.194664 0.152818
0.514088 0.195146 0.153366
0.571200 0.201661 0.167951
0.624271 0.202840 0.170080
0.675713 0.208743 0.180550
0.724177 0.215458 0.188079
0.767168 0.218894 0.191544
0.814209 0.226932 0.202744
0.856443 0.236413 0.218649
0.896699 0.237332 0.223378
0.045883 0.267520 0.161880
0.057699 0.270194 0.167466
0.124303 0.273305 0.164417
0.195283 0.271933 0.158546
0.284864 0.267787 0.161794
0.365842 0.262345 0.157041
0.439403 0.259642 0.161229
0.507701 0.256997 0.167880
0.565988 0.253582 0.167301
0.622996 0.251672 0.174118
0.675140 0.255300 0.190243
0.720617 0.256941 0.196106
0.768360 0.260001 0.205094
0.814293 0.262313 0.211677
0.856646 0.265893 0.222031
0.898110 0.271016 0.228454
0.053658 0.338510 0.171205
0.057734 0.339657 0.170631
0.114125 0.336806 0.178849
0.195303 0.336840 0.180024
0.271970 0.345241 0.175778
0.364675 0.338584 0.180691
0.437729 0.335677 0.181021
0.505201 0.325086 0.182422
0.568031 0.321155 0.181620
0.623399 0.313203 0.189958
0.675672 0.305795 0.193736
0.725610 0.306290 0.204293
0.771605 0.305481 0.213379
0.815812 0.305462 0.217577
0.859264 0.308354 0.224968
0.902460 0.308369 0.234716
0.061360 0.412583 0.184772
0.061430 0.409994 0.189430
0.093711 0.411757 0.195126
0.177735 0.411314 0.188649
0.256402 0.412382 0.191873
0.344017 0.415513 0.197959
0.434712 0.417045 0.198405
0.506382 0.404806 0.201504
0.565373 0.395471 0.207591
0.620282 0.385040 0.209544
0.673772 0.375244 0.212530
0.721828 0.365513 0.216699
0.769996 0.358593 0.223679
0.813571 0.355519 0.226970
0.860257 0.355231 0.235781
0.897061 0.351183 0.236973
0.073675 0.480397 0.201367
0.072999 0.476662 0.198281
0.093378 0.477589 0.202024
0.166333 0.479201 0.203272
0.246591 0.479249 0.214446
0.327835 0.482507 0.213618
0.418033 0.482093 0.210429
0.500280 0.488098 0.216806
0.563268 0.472559 0.223981
0.621357 0.457837 0.223714
0.674429 0.447086 0.229058
0.723143 0.435252 0.229113
0.769972 0.427053 0.233030
0.816680 0.417216 0.243163
0.857723 0.407492 0.249797
0.902285 0.405868 0.255156
0.085644 0.539483 0.222896
0.085735 0.540265 0.212134
0.097574 0.541307 0.212072
0.158726 0.540861 0.219088
0.235907 0.541918 0.226518
0.310722 0.540722 0.232318
0.394636 0.548129 0.238104
0.488418 0.551064 0.240157
0.567117 0.548833 0.246002
0.625165 0.533923 0.249752
0.676040 0.521742 0.252764
0.726241 0.510296 0.256383
0.774277 0.498756 0.257286
0.820302 0.487142 0.263591
0.861033 0.473304 0.263168
0.905866 0.463238 0.265454
0.097595 0.594776 0.235884
0.098055 0.596345 0.233666
0.108301 0.595283 0.226961
0.162254 0.598718 0.232025
0.237060 0.596230 0.243630
0.308567 0.600411 0.256668
0.389613 0.600882 0.264222
0.472158 0.598420 0.263240
0.555677 0.606889 0.266966
0.626203 0.609666 0.268097
0.677504 0.595134 0.264691
0.727659 0.583018 0.274250
0.778337 0.569153 0.276857
0.823859 0.555412 0.283783
0.867779 0.544492 0.288504
0.908697 0.528478 0.289445
0.110855 0.651773 0.248659
0.111029 0.651766 0.249297
0.123729 0.652292 0.245851
0.172480 0.652106 0.251248
0.238494 0.650772 0.264563
0.305951 0.653552 0.278811
0.377996 0.654640 0.279898
0.459140 0.653180 0.282924
0.539879 0.655190 0.289673
0.616057 0.661065 0.290715
0.683722 0.660956 0.292152
0.735234 0.649058 0.301436
0.781732 0.633913 0.300757
0.824789 0.622228 0.299358
0.866618 0.613215 0.305662
0.912108 0.600446 0.305386
0.123222 0.701629 0.257084
0.124706 0.702833 0.264146
0.145106 0.703625 0.268855
0.191687 0.700054 0.270730
0.251127 0.701765 0.282056
0.308776 0.710273 0.292105
0.379897 0.706502 0.297512
0.451261 0.707312 0.300531
0.527487 0.709937 0.306451
0.602938 0.711444 0.307884
0.675068 0.715760 0.315357
0.737341 0.711776 0.314252
0.784820 0.697654 0.317449
0.828241 0.684566 0.321980
0.869432 0.670730 0.317397
0.911388 0.658216 0.316180
0.137094 0.752408 0.270182
0.139548 0.748217 0.272724
0.168256 0.751279 0.280729
0.209886 0.749678 0.286639
0.270945 0.751279 0.301122
0.327507 0.751483 0.312670
0.380817 0.754566 0.317781
0.448235 0.756496 0.322540
0.524686 0.758069 0.325651
0.594703 0.757743 0.325406
0.659619 0.759334 0.326825
0.726397 0.763613 0.328532
0.786793 0.757275 0.332649
0.831372 0.741467 0.331830
0.873440 0.727447 0.337933
0.915952 0.720101 0.338268
0.153208 0.797503 0.288835
0.172251 0.796047 0.295883
0.200574 0.797370 0.294695
0.243472 0.794859 0.307679
0.286040 0.795740 0.316766
0.342163 0.796915 0.334726
0.391709 0.800236 0.339356
0.452364 0.800431 0.337854
0.514875 0.801777 0.337349
0.591884 0.803015 0.343639
0.654678 0.803459 0.344508
0.714876 0.805038 0.342632
0.774408 0.809074 0.341381
0.833595 0.800357 0.348900
0.876301 0.786980 0.349595
0.921244 0.770087 0.356369
0.181166 0.842069 0.305334
0.200919 0.838655 0.303475
0.232726 0.841852 0.310095
0.271518 0.841506 0.320148
0.312527 0.840752 0.336892
0.355836 0.841043 0.350711
0.397517 0.842814 0.348791
0.454427 0.843351 0.349396
0.519091 0.844589 0.348971
0.586667 0.845872 0.352911
0.647061 0.848334 0.353265
0.705037 0.847248 0.359453
0.762727 0.849196 0.357999
0.830983 0.851971 0.361385
0.881467 0.841483 0.361748
0.923793 0.827499 0.362222
0.226671 0.884592 0.324961
0.241449 0.884845 0.324687
0.267319 0.882901 0.329749
0.301655 0.887578 0.339305
0.336651 0.885059 0.354720
0.381523 0.884606 0.371717
0.412307 0.884374 0.368685
0.457881 0.885527 0.362416
0.518012 0.886943 0.363693
0.581490 0.889879 0.364137
0.642565 0.890544 0.364732
0.699510 0.891866 0.367898
0.756090 0.892884 0.370557
0.815513 0.891721 0.365574
0.881389 0.895385 0.369254
0.925745 0.884345 0.380116
0.259975 0.923161 0.339713
0.274631 0.925604 0.343778
0.300752 0.928525 0.352274
0.334960 0.927221 0.363536
0.374137 0.927993 0.383331
0.403071 0.926889 0.382542
0.426338 0.927695 0.379235
0.461023 0.928490 0.371229
0.515852 0.931852 0.372944
0.580086 0.932510 0.377838
0.638992 0.933016 0.378083
0.694894 0.935656 0.382688
0.750897 0.935741 0.382932
0.808836 0.935099 0.384864
0.870563 0.936143 0.378304
0.926728 0.939950 0.380404
0.033352 0.124247 0.210108
0.042412 0.096152 0.214090
0.147225 0.083007 0.225842
0.231764 0.078387 0.220902
0.308875 0.089748 0.217811
0.377050 0.101734 0.211615
0.456289 0.119303 0.213175
0.518030 0.127741 0.212081
0.577087 0.134318 0.205693
0.630238 0.147692 0.208750
0.680840 0.156548 0.216957
0.727300 0.170125 0.219946
0.773298 0.174982 0.225413
0.815435 0.182657 0.230728
0.858340 0.189097 0.234037
0.899734 0.198174 0.239690
0.038917 0.175141 0.213075
0.054511 0.158728 0.214391
0.135474 0.147461 0.228997
0.225340 0.138253 0.224090
0.302479 0.144507 0.220299
0.380098 0.152020 0.219196
0.453870 0.154187 0.217904
0.519612 0.165889 0.220612
0.578901 0.174231 0.218990
0.627305 0.179324 0.219220
0.678293 0.186867 0.221679
0.727979 0.195800 0.227809
0.774226 0.204944 0.235874
0.815498 0.210012 0.237331
0.858678 0.217187 0.244500
0.899129 0.221888 0.251468
0.040378 0.216608 0.217787
0.074090 0.211441 0.229700
0.144435 0.213428 0.234726
0.223361 0.206206 0.233507
0.297245 0.212638 0.231866
0.367398 0.213121 0.230991
0.444251 0.215160 0.233230
0.516140 0.215375 0.229368
0.573062 0.218401 0.230610
0.627737 0.222897 0.235487
0.677951 0.231851 0.239396
0.723087 0.236728 0.240405
0.770253 0.245417 0.247350
0.813721 0.251064 0.253751
0.853753 0.255392 0.262632
0.899258 0.261802 0.268802
0.048030 0.281944 0.231688
0.064101 0.277907 0.237027
0.133627 0.282874 0.241822
0.205537 0.282333 0.242561
0.292415 0.279432 0.244293
0.365145 0.279349 0.241310
0.438716 0.278459 0.241164
0.511529 0.275347 0.241972
0.568460 0.268571 0.236224
0.626832 0.270330 0.242133
0.673802 0.274423 0.243379
0.723770 0.279393 0.257246
0.770086 0.281138 0.258347
0.815752 0.285070 0.264201
0.858179 0.289477 0.272285
0.899204 0.297796 0.283201
0.055227 0.351460 0.246127
0.071521 0.351693 0.247167
0.122891 0.353325 0.244903
0.190486 0.347100 0.242850
0.289222 0.350525 0.248477
0.364635 0.350678 0.253656
0.436889 0.341138 0.247403
0.507353 0.339862 0.251547
0.567156 0.333951 0.248682
0.621829 0.327986 0.250368
0.674024 0.322105 0.252531
0.723139 0.323008 0.257520
0.770897 0.320849 0.265021
0.816656 0.322276 0.268247
0.858639 0.325673 0.274735
0.899204 0.327906 0.276969
0.063213 0.420348 0.257297
0.066838 0.420742 0.252271
0.119364 0.420511 0.258084
0.179537 0.419228 0.251336
0.263724 0.419390 0.261634
0.348813 0.424852 0.265507
0.435621 0.422352 0.260647
0.508218 0.415419 0.260999
0.567732 0.403141 0.261719
0.623891 0.393896 0.268463
0.674479 0.384741 0.264395
0.723462 0.375470 0.264992
0.770626 0.372860 0.271127
0.815575 0.370128 0.273676
0.857968 0.370387 0.282626
0.902128 0.368139 0.286493
0.074451 0.482807 0.272291
0.078349 0.489112 0.272400
0.122715 0.487141 0.277407
0.169330 0.486650 0.263485
0.253764 0.485315 0.273529
0.337754 0.484887 0.275956
0.424589 0.489653 0.275324
0.507949 0.491123 0.276037
0.568823 0.479552 0.282033
0.622225 0.469618 0.280547
0.673665 0.456181 0.277722
0.721343 0.447069 0.283840
0.770434 0.442313 0.290000
0.819214 0.426633 0.293525
0.861019 0.418254 0.292588
0.903894 0.417444 0.297508
0.087111 0.545518 0.280959
0.089646 0.547605 0.274219
0.121460 0.548698 0.280408
0.176605 0.544815 0.277397
0.240362 0.545620 0.279333
0.321975 0.547286 0.286769
0.401907 0.549899 0.290762
0.491006 0.554067 0.295520
0.567795 0.552630 0.298144
0.626803 0.539182 0.299725
0.677042 0.529574 0.301000
0.728678 0.515361 0.303622
0.775276 0.506382 0.303939
0.819703 0.498390 0.308831
0.861007 0.484220 0.305937
0.904664 0.473660 0.309952
0.099265 0.601118 0.293593
0.102039 0.601333 0.291742
0.131549 0.600893 0.285635
0.179682 0.602104 0.290698
0.243735 0.602245 0.295905
0.321741 0.601616 0.308877
0.391394 0.606688 0.312462
0.473993 0.606629 0.314848
0.557120 0.611867 0.315948
0.627780 0.610603 0.318732
0.681182 0.598694 0.318860
0.730547 0.586356 0.323630
0.776741 0.574212 0.323307
0.820333 0.563218 0.324637
0.865524 0.555553 0.328511
0.905705 0.540860 0.333401
0.112855 0.658546 0.300026
0.115556 0.657094 0.300230
0.147762 0.655066 0.297904
0.198366 0.654562 0.304769
0.259735 0.653000 0.309979
0.326113 0.655470 0.325533
0.391936 0.658030 0.329816
0.465346 0.659193 0.330951
0.546793 0.660604 0.333179
0.620097 0.666239 0.333848
0.684882 0.664174 0.336755
0.733909 0.652383 0.341447
0.781124 0.640736 0.344526
0.825181 0.628492 0.346211
0.867973 0.614527 0.338791
0.911837 0.604130 0.347668
0.125597 0.705656 0.315717
0.134793 0.706074 0.315271
0.167909 0.706869 0.310112
0.217546 0.705824 0.320210
0.269938 0.708981 0.328198
0.323388 0.705800 0.334816
0.390004 0.706151 0.340043
0.462153 0.708678 0.343406
0.537731 0.711201 0.350037
0.607395 0.712244 0.353209
0.675096 0.718314 0.356452
0.739176 0.712891 0.356607
0.782495 0.699840 0.354194
0.829722 0.689629 0.359155
0.871459 0.674681 0.359144
0.915409 0.663037 0.359213
0.143267 0.755812 0.321322
0.158046 0.752499 0.324819
0.195358 0.754871 0.326038
0.236015 0.753439 0.334109
0.284770 0.752832 0.339568
0.341845 0.752692 0.354609
0.395478 0.755558 0.355500
0.459345 0.757775 0.360231
0.536142 0.758478 0.364741
0.599724 0.756783 0.361470
0.666902 0.760436 0.367417
0.731129 0.764742 0.369474
0.787645 0.758810 0.369197
0.829473 0.744252 0.367840
0.873586 0.728764 0.374311
0.914219 0.722278 0.370404
0.174363 0.798051 0.334597
0.192439 0.800550 0.339511
0.223423 0.798552 0.346460
0.262371 0.802177 0.349184
0.307353 0.800151 0.363323
0.354650 0.799471 0.370234
0.403469 0.801479 0.375271
0.461530 0.802582 0.373175
0.530588 0.802584 0.374572
0.593231 0.803488 0.376350
0.653225 0.804066 0.374258
0.716029 0.805467 0.377141
0.780619 0.810176 0.380840
0.834444 0.803051 0.383956
0.878212 0.786591 0.382842
0.921255 0.773331 0.385990
0.210161 0.843349 0.349944
0.228457 0.842174 0.356095
0.255508 0.842919 0.355218
0.290319 0.846185 0.363729
0.334402 0.843248 0.375539
0.381462 0.843590 0.391533
0.416649 0.844193 0.388396
0.462563 0.844855 0.380175
0.526291 0.848624 0.389249
0.591607 0.848602 0.390357
0.649525 0.848477 0.390376
0.710035 0.850075 0.390108
0.768540 0.850601 0.386841
0.834625 0.852488 0.393689
0.883489 0.842559 0.393432
0.923949 0.825951 0.399100
0.243453 0.883634 0.363788
0.259226 0.881506 0.366668
0.293761 0.886296 0.374401
0.322819 0.887311 0.379267
0.365359 0.885327 0.397418
0.402088 0.886758 0.406283
0.431034 0.888237 0.402696
0.468479 0.889220 0.399754
0.524252 0.890660 0.399752
0.587220 0.891307 0.399179
0.648962 0.890456 0.397118
0.705797 0.891817 0.401562
0.761374 0.893238 0.401374
0.818737 0.895006 0.405147
0.883091 0.896829 0.407624
0.927602 0.884452 0.407139
0.271297 0.927164 0.375160
0.296088 0.927857 0.378840
0.321838 0.928286 0.385579
0.350820 0.928146 0.397412
0.388303 0.927835 0.409591
0.429467 0.928894 0.424706
0.453046 0.929812 0.422151
0.479429 0.929536 0.413617
0.524000 0.932595 0.411482
0.584306 0.932553 0.409852
0.646554 0.934940 0.410633
0.696436 0.933881 0.410544
0.754985 0.938379 0.413170
0.814116 0.937069 0.414375
0.870772 0.937855 0.408838
0.931394 0.943483 0.416474
0.041951 0.178164 0.286950
0.041260 0.151979 0.298009
0.083776 0.122217 0.312120
0.230861 0.105919 0.320315
0.317087 0.114415 0.316855
0.382080 0.129047 0.305603
0.452457 0.136535 0.294318
0.520369 0.149657 0.290983
0.581715 0.159193 0.282996
0.634543 0.172977 0.280826
0.683554 0.181029 0.283883
0.729858 0.184801 0.278250
0.774907 0.193227 0.277882
0.819483 0.200006 0.279182
0.862779 0.205753 0.280335
0.900362 0.209435 0.282097
0.045241 0.229549 0.293193
0.045095 0.209157 0.302879
0.087164 0.182541 0.315494
0.228419 0.162769 0.318988
0.306931 0.165203 0.313100
0.382202 0.167097 0.308261
0.451653 0.178785 0.301568
0.518825 0.187462 0.293093
0.577566 0.195383 0.288235
0.630283 0.199503 0.289242
0.681152 0.204937 0.286029
0.730197 0.210942 0.286262
0.773109 0.217097 0.282345
0.819270 0.224132 0.283797
0.862306 0.227342 0.286368
0.904207 0.234713 0.289992
0.049134 0.269382 0.296866
0.078493 0.265624 0.304902
0.134570 0.250346 0.314745
0.214244 0.232360 0.314226
0.299113 0.226023 0.315939
0.375933 0.227826 0.316253
0.448132 0.231969 0.309533
0.517265 0.233959 0.302458
0.575508 0.237308 0.303341
0.630796 0.241509 0.300005
0.681158 0.243535 0.296512
0.729435 0.249566 0.296000
0.774215 0.253940 0.296905
0.819767 0.257946 0.299459
0.861529 0.267568 0.306706
0.898998 0.266160 0.306478
0.052783 0.298509 0.302184
0.083370 0.295895 0.304399
0.157034 0.293168 0.316661
0.214665 0.294608 0.311858
0.294469 0.295056 0.318250
0.373608 0.294974 0.318150
0.442263 0.295363 0.318542
0.511078 0.297816 0.317431
0.571265 0.293724 0.315604
0.629527 0.294659 0.315676
0.679126 0.297417 0.313680
0.728605 0.303390 0.317786
0.774147 0.306752 0.317693
0.818667 0.307443 0.321476
0.860703 0.311541 0.323854
0.900704 0.317099 0.328539
0.056447 0.360229 0.305076
0.061953 0.361148 0.306521
0.135309 0.360867 0.327202
0.205458 0.365578 0.328677
0.289376 0.365247 0.329498
0.368240 0.360657 0.325271
0.445154 0.358202 0.326808
0.507708 0.355115 0.328361
0.568777 0.353094 0.324844
0.625289 0.351054 0.330794
0.677825 0.348402 0.324515
0.725800 0.347652 0.325935
0.774778 0.350456 0.330768
0.818446 0.352446 0.334906
0.860097 0.352794 0.334720
0.905292 0.356922 0.344019
0.064800 0.429794 0.313620
0.070886 0.423939 0.321618
0.135458 0.424736 0.324156
0.200929 0.433595 0.331771
0.274199 0.432761 0.332591
0.359411 0.434492 0.341243
0.443111 0.430032 0.339921
0.508624 0.422553 0.335762
0.567408 0.416560 0.334033
0.621812 0.410865 0.331113
0.675070 0.403414 0.332367
0.724299 0.397612 0.330292
0.775963 0.394625 0.338053
0.819010 0.391879 0.339037
0.861787 0.391547 0.340578
0.900847 0.396487 0.349886
0.078167 0.492104 0.336328
0.094717 0.493777 0.344401
0.151748 0.498582 0.344674
0.205572 0.494914 0.349789
0.264986 0.495935 0.343648
0.344477 0.493174 0.351352
0.431875 0.496949 0.352329
0.505745 0.495096 0.347460
0.569780 0.484559 0.347259
0.627260 0.476607 0.345527
0.676811 0.466345 0.345583
0.725697 0.462124 0.347316
0.774330 0.453568 0.349295
0.816742 0.446307 0.345998
0.862743 0.441056 0.350894
0.903472 0.439136 0.356416
0.091754 0.556744 0.352884
0.112080 0.552816 0.350087
0.150647 0.555418 0.347498
0.211546 0.553341 0.355715
0.261808 0.553414 0.352131
0.337904 0.553652 0.356252
0.418471 0.555960 0.363778
0.502024 0.561327 0.362304
