Lukas Eriksen LUT Pack 2.0/Lukas Eriksen LUT 2 - Magellanic.CUBE
LUT_3D_SIZE 6
0.000000 0.000000 0.000000
0.060134 0.012241 0.017607
0.192135 0.026765 0.031614
0.362628 0.037351 0.039343
0.550527 0.057301 0.058289
0.745155 0.078483 0.079325
0.020495 0.074579 0.042332
0.088172 0.087880 0.053990
0.223059 0.112473 0.063347
0.399382 0.133594 0.078837
0.591222 0.156342 0.102982
0.790030 0.178056 0.130099
0.046349 0.211636 0.087381
0.117737 0.228717 0.099820
0.248823 0.247761 0.116283
0.430134 0.283672 0.130970
0.628797 0.319499 0.147537
0.829452 0.348829 0.171585
0.077228 0.396405 0.149512
0.152196 0.417283 0.165380
0.289961 0.437916 0.183162
0.463497 0.461783 0.206500
0.656094 0.498649 0.228475
0.860905 0.541583 0.247382
0.115478 0.597897 0.223659
0.189893 0.622244 0.243548
0.333343 0.642320 0.261694
0.509269 0.666843 0.285761
0.694334 0.691793 0.312817
0.887931 0.724833 0.341488
0.157266 0.804391 0.307438
0.227998 0.834732 0.330811
0.378265 0.852687 0.348095
0.556056 0.877289 0.372414
0.742124 0.902689 0.399577
0.931390 0.928307 0.428681
0.007474 0.007474 0.033563
0.058360 0.019869 0.101109
0.186009 0.030217 0.119317
0.362740 0.039364 0.115766
0.557095 0.058744 0.112050
0.754261 0.080102 0.120271
0.037437 0.070458 0.113229
0.086890 0.095797 0.128862
0.220867 0.104442 0.143039
0.402452 0.111276 0.139090
0.597183 0.123755 0.144010
0.798895 0.138465 0.154831
0.063012 0.202453 0.174234
0.121720 0.236040 0.179075
0.253906 0.256325 0.192177
0.439351 0.291660 0.203569
0.635737 0.321210 0.220267
0.835455 0.349322 0.242286
0.093173 0.391718 0.233100
0.156015 0.430794 0.234036
0.297813 0.449931 0.250725
0.473143 0.473550 0.274258
0.668477 0.512508 0.293595
0.875100 0.554087 0.309602
0.131679 0.597198 0.300378
0.194881 0.638779 0.305234
0.343427 0.656871 0.321796
0.521108 0.681129 0.345806
0.707072 0.706075 0.372605
0.903495 0.741637 0.398707
0.174121 0.807162 0.376802
0.233596 0.853538 0.387478
0.389961 0.868970 0.401912
0.569494 0.893004 0.426136
0.756444 0.918472 0.452893
0.946335 0.944079 0.481541
0.017384 0.017610 0.079564
0.033319 0.042508 0.207355
0.178627 0.036722 0.251365
0.347464 0.049386 0.274414
0.543255 0.064768 0.281415
0.745094 0.083784 0.281357
0.031764 0.092554 0.197190
0.061386 0.124827 0.229098
0.204413 0.121114 0.286032
0.386092 0.133753 0.309128
0.587293 0.141135 0.314192
0.794536 0.151475 0.315165
0.092465 0.195902 0.274986
0.141921 0.234204 0.310397
0.247148 0.272219 0.317776
0.432760 0.283450 0.348258
0.634566 0.292247 0.343454
0.836806 0.306607 0.347305
0.129804 0.373227 0.370213
0.181135 0.418251 0.408979
0.308345 0.453640 0.400558
0.476120 0.484676 0.411257
0.677034 0.523168 0.425516
0.881490 0.556050 0.443013
0.166344 0.578065 0.452287
0.214234 0.628258 0.494716
0.348206 0.667664 0.459532
0.526026 0.693761 0.475323
0.713747 0.718309 0.501064
0.915065 0.758332 0.522037
0.207064 0.791096 0.526424
0.251297 0.845246 0.574930
0.391823 0.885638 0.524340
0.576558 0.907949 0.546289
0.765191 0.932539 0.571991
0.955925 0.958143 0.599499
0.022741 0.033000 0.125957
0.030104 0.064815 0.243526
0.114642 0.066467 0.409542
0.336280 0.061274 0.445678
0.527616 0.076316 0.474092
0.724124 0.095782 0.494724
0.033500 0.113323 0.258261
0.043790 0.158199 0.352163
0.152118 0.159285 0.439415
0.371578 0.149653 0.486889
0.567237 0.165238 0.512931
0.769581 0.179744 0.533195
0.080938 0.224658 0.395509
0.114543 0.270960 0.445459
0.212962 0.309537 0.451184
0.403260 0.311409 0.531359
0.612647 0.322782 0.559402
0.818999 0.334507 0.571192
0.169605 0.368866 0.490973
0.212233 0.419650 0.542086
0.338580 0.454294 0.552662
0.464299 0.507298 0.565460
0.664326 0.520421 0.612856
0.874471 0.529974 0.611498
0.213413 0.564193 0.592705
0.258291 0.617510 0.644931
0.392572 0.650827 0.656043
0.547775 0.691719 0.666605
0.714336 0.731637 0.674457
0.921523 0.770068 0.689793
0.259556 0.767707 0.696932
0.307426 0.821786 0.749743
0.436773 0.863019 0.748389
0.589366 0.911596 0.734559
0.767391 0.946544 0.739893
0.959820 0.970891 0.765776
0.027361 0.049928 0.175114
0.031307 0.083588 0.296719
0.067801 0.110942 0.514488
0.254002 0.096998 0.614093
0.509006 0.091920 0.653104
0.710499 0.106078 0.684984
0.038506 0.132301 0.332184
0.051501 0.179075 0.442353
0.107392 0.210181 0.540061
0.296698 0.194609 0.662011
0.553295 0.181949 0.700317
0.753752 0.198540 0.727419
0.070750 0.260383 0.519180
0.098379 0.308248 0.571132
0.160572 0.360333 0.606443
0.347881 0.355808 0.696895
0.587783 0.346616 0.748311
0.801333 0.359201 0.775555
0.161749 0.396840 0.624152
0.203032 0.448264 0.676648
0.281136 0.504536 0.713414
0.428539 0.547010 0.707789
0.626797 0.553989 0.798999
0.853425 0.559927 0.830546
0.259463 0.559085 0.722338
0.306836 0.612459 0.775687
0.399885 0.665746 0.819217
0.567403 0.702579 0.814319
0.698582 0.758970 0.829654
0.905566 0.770846 0.888517
0.317582 0.756425 0.819163
0.368451 0.810293 0.871964
0.491946 0.852201 0.898914
0.642222 0.896439 0.916479
0.799702 0.939480 0.937091
0.958098 0.984791 0.949396
0.030034 0.067570 0.226236
0.037105 0.104027 0.349828
0.055316 0.155774 0.517027
0.185350 0.142386 0.732218
0.430759 0.129507 0.779191
0.678321 0.129358 0.807890
0.045869 0.153573 0.401273
0.059480 0.201617 0.517575
0.086060 0.259554 0.603880
0.243532 0.246173 0.752854
0.474796 0.236772 0.806922
0.716014 0.234951 0.837848
0.074744 0.290416 0.599712
0.103798 0.337348 0.640116
0.159657 0.394454 0.672565
0.330801 0.402020 0.732454
0.523634 0.406573 0.840149
0.761078 0.405085 0.874866
0.160434 0.429533 0.707669
0.216189 0.475715 0.731750
0.294351 0.533922 0.762041
0.420366 0.585614 0.775030
0.596453 0.603796 0.868616
0.803737 0.615742 0.914858
0.292050 0.571853 0.803824
0.363414 0.617939 0.825307
0.456267 0.675808 0.851886
0.582542 0.732431 0.865877
0.707747 0.791130 0.887858
0.866419 0.826240 0.955087
0.402072 0.744545 0.876859
0.491448 0.784326 0.895992
0.606039 0.834081 0.919876
0.751161 0.881645 0.945074
0.887304 0.935662 0.971396
1.000020 1.000020 1.000020
