Lukas Eriksen LUT Pack 2.0/Lukas Eriksen LUT 12 - Lundmark.cube
LUT_3D_SIZE 16
0.001924 0.010704 0.018375
0.017129 0.011630 0.017129
0.148119 0.033848 0.009601
0.340980 0.065699 0.012307
0.499193 0.091025 0.011417
0.650823 0.113013 0.009327
0.831995 0.131312 0.010862
1.001166 0.152720 0.013001
1.062105 0.183366 0.017599
1.069518 0.211748 0.024458
1.069952 0.234513 0.030173
1.069960 0.251947 0.034787
1.069960 0.267006 0.041832
1.069960 0.275714 0.047302
1.069960 0.275714 0.047302
1.069960 0.275714 0.047302
0.000574 0.031571 0.018606
0.002892 0.030986 0.017096
0.114481 0.043969 0.007555
0.322908 0.065464 0.011383
0.491684 0.089813 0.011492
0.644361 0.112278 0.009356
0.826799 0.130782 0.010807
0.998921 0.152055 0.012916
1.061756 0.182719 0.017482
1.069495 0.211309 0.024356
1.069951 0.234232 0.030101
1.069960 0.251763 0.034731
1.069960 0.266882 0.041759
1.069960 0.275714 0.047302
1.069960 0.275714 0.047302
1.069960 0.275714 0.047302
0.012861 0.112277 0.074431
0.012726 0.111444 0.073886
0.046917 0.105063 0.059853
0.183897 0.115890 0.038453
0.330302 0.124271 0.019420
0.510157 0.123004 0.009782
0.798136 0.129120 0.010437
0.988004 0.149410 0.012585
1.060426 0.180246 0.017033
1.069401 0.209512 0.023939
1.069948 0.233022 0.029793
1.069960 0.250970 0.034489
1.069960 0.266329 0.041431
1.069960 0.275714 0.047302
1.069960 0.275714 0.047302
1.069960 0.275714 0.047302
0.039508 0.197350 0.140792
0.039530 0.197203 0.136782
0.040030 0.197486 0.110493
0.137571 0.186258 0.087699
0.248517 0.184063 0.075888
0.361257 0.180189 0.065143
0.492481 0.177325 0.054049
0.684353 0.173584 0.041075
0.998911 0.170252 0.026003
1.069092 0.205126 0.026609
1.069944 0.230722 0.029207
1.069960 0.249434 0.034020
1.069960 0.265278 0.040807
1.069960 0.275714 0.047302
1.069960 0.275714 0.047302
1.069960 0.275714 0.047302
0.079652 0.270424 0.192711
0.079653 0.270583 0.189424
0.079657 0.271470 0.171014
0.077955 0.269906 0.148697
0.213856 0.256387 0.122344
0.308628 0.249268 0.110001
0.416910 0.242691 0.095161
0.546848 0.238190 0.081452
0.729853 0.232027 0.069689
0.962274 0.222558 0.054123
1.063769 0.232097 0.043002
1.069960 0.244225 0.046092
1.069960 0.263648 0.039840
1.069960 0.275693 0.047288
1.069960 0.275714 0.047302
1.069960 0.275714 0.047302
0.122930 0.341175 0.226037
0.122958 0.341357 0.223245
0.122878 0.341741 0.212656
0.122241 0.341816 0.190161
0.142747 0.335311 0.175305
0.279596 0.322920 0.150879
0.371706 0.313887 0.137508
0.482225 0.304858 0.120311
0.617243 0.297839 0.104887
0.816354 0.286351 0.089128
1.004861 0.276982 0.072454
1.065990 0.281184 0.061931
1.069960 0.290346 0.054341
1.069960 0.301588 0.025577
1.069960 0.275714 0.047302
1.069960 0.275714 0.047302
0.166130 0.410400 0.254520
0.166121 0.410395 0.252509
0.166180 0.410523 0.244478
0.165878 0.410137 0.228821
0.164253 0.408207 0.211119
0.243609 0.399049 0.190674
0.341040 0.389824 0.173392
0.438366 0.379008 0.158017
0.554109 0.368944 0.138747
0.700422 0.357902 0.122173
0.904219 0.342398 0.103195
1.043185 0.334887 0.086568
1.069384 0.336409 0.076842
1.069960 0.342028 0.070992
1.069960 0.330545 0.056520
1.069960 0.323911 0.012301
0.213159 0.478273 0.279047
0.213192 0.478332 0.277395
0.213048 0.478166 0.271417
0.212628 0.477638 0.259948
0.211467 0.476217 0.244196
0.208680 0.472441 0.234139
0.307862 0.463858 0.210041
0.404912 0.454377 0.191736
0.506224 0.442818 0.173642
0.625612 0.431399 0.154937
0.785324 0.416271 0.137319
0.977204 0.402256 0.116829
1.064018 0.398537 0.103183
1.069926 0.397449 0.095960
1.069958 0.384795 0.087493
1.069960 0.366016 0.073124
0.259135 0.545248 0.304916
0.259124 0.545235 0.303820
0.259001 0.545060 0.298736
0.258648 0.544538 0.289396
0.257771 0.543213 0.276332
0.256164 0.540784 0.259719
0.257506 0.535505 0.252903
0.366794 0.527676 0.226866
0.468926 0.516448 0.207313
0.571164 0.504334 0.191567
0.695469 0.490531 0.172602
0.866898 0.474047 0.152872
1.027473 0.463954 0.133755
1.068460 0.461711 0.125820
1.069951 0.452023 0.120173
1.069939 0.433082 0.109111
0.296538 0.607827 0.329834
0.296511 0.607779 0.328910
0.296447 0.607659 0.324657
0.296275 0.607346 0.316633
0.295729 0.606369 0.305687
0.294581 0.604337 0.292458
0.292673 0.601015 0.279256
0.321588 0.594036 0.266772
0.428000 0.587781 0.245302
0.529577 0.576509 0.224979
0.638805 0.564176 0.205517
0.772538 0.548401 0.185549
0.947728 0.531691 0.165474
1.062286 0.525427 0.153734
1.069801 0.519518 0.151066
1.069872 0.503040 0.144939
0.332707 0.665953 0.355402
0.332657 0.665887 0.354659
0.332569 0.665809 0.351012
0.332304 0.665505 0.344001
0.331790 0.664791 0.334799
0.330906 0.663480 0.322865
0.329582 0.661449 0.309634
0.327389 0.657944 0.302211
0.385218 0.653640 0.286165
0.490162 0.644861 0.264559
0.592717 0.634522 0.243216
0.706680 0.621878 0.224310
0.846086 0.603935 0.204657
1.010241 0.589404 0.186603
1.068872 0.583516 0.173901
1.069404 0.569758 0.169749
0.360429 0.720749 0.382290
0.360420 0.720776 0.381450
0.360343 0.720754 0.378303
0.360175 0.720623 0.372619
0.359813 0.719960 0.364776
0.359247 0.718763 0.356024
0.358462 0.716958 0.346946
0.357434 0.714366 0.339957
0.356170 0.710963 0.335914
0.449238 0.707500 0.310927
0.550418 0.699772 0.288996
0.654759 0.690100 0.266499
0.771506 0.676833 0.244829
0.921100 0.658673 0.225552
1.056567 0.646394 0.209217
1.068653 0.635654 0.200506
0.366448 0.769312 0.411033
0.366415 0.769320 0.410188
0.366307 0.769284 0.407587
0.366090 0.769127 0.402648
0.365790 0.768720 0.396507
0.365426 0.767941 0.390139
0.365118 0.766624 0.385375
0.364908 0.764555 0.384902
0.364784 0.761865 0.388467
0.407162 0.763239 0.366549
0.514423 0.759504 0.343762
0.612053 0.752779 0.316904
0.715356 0.744141 0.292740
0.834350 0.730260 0.265820
1.001313 0.712618 0.251836
1.064447 0.701385 0.242442
0.375789 0.812392 0.430360
0.375770 0.812403 0.429762
0.375673 0.812422 0.427124
0.375463 0.812350 0.422713
0.375127 0.812038 0.417955
0.374640 0.811265 0.414742
0.373999 0.809886 0.414622
0.373516 0.807778 0.421294
0.373659 0.804828 0.439690
0.373450 0.802237 0.447011
0.484563 0.810686 0.407246
0.581225 0.808072 0.383411
0.674465 0.804542 0.355487
0.771945 0.797925 0.330812
0.897915 0.784642 0.303009
1.058782 0.772057 0.292687
0.399012 0.860966 0.439414
0.398983 0.860989 0.438686
0.398873 0.861136 0.435418
0.398633 0.861263 0.430048
0.398256 0.861049 0.425249
0.397742 0.860117 0.424201
0.396981 0.858234 0.429445
0.396184 0.855086 0.444070
0.395757 0.850606 0.472482
0.395433 0.845367 0.511462
0.469791 0.855753 0.491859
0.571260 0.860908 0.466985
0.653624 0.864915 0.430351
0.737513 0.863938 0.407753
0.824182 0.860475 0.391100
0.986249 0.849453 0.374772
0.409160 0.880628 0.436384
0.409158 0.880628 0.436345
0.409139 0.880635 0.435854
0.409104 0.880646 0.434974
0.408900 0.880715 0.429809
0.408701 0.880782 0.424791
0.409086 0.880652 0.434525
0.410222 0.880160 0.459770
0.413152 0.878689 0.504026
0.419003 0.877928 0.560079
0.501915 0.892733 0.580217
0.591703 0.903985 0.556931
0.659807 0.916016 0.532341
0.727466 0.926754 0.516335
0.796808 0.934047 0.510008
0.898992 0.936179 0.489517
0.001281 0.008349 0.091751
0.014229 0.009634 0.079908
0.145271 0.032302 0.048915
0.321292 0.062853 0.035913
0.482084 0.087757 0.026753
0.638055 0.110871 0.017923
0.820968 0.129485 0.016564
0.995977 0.151003 0.015495
1.061659 0.182542 0.017505
1.069491 0.211226 0.024337
1.069951 0.234203 0.030094
1.069960 0.251772 0.034734
1.069960 0.266891 0.041764
1.069960 0.275714 0.047302
1.069960 0.275714 0.047302
1.069960 0.275714 0.047302
0.003057 0.027812 0.089814
0.004301 0.026738 0.089133
0.111356 0.036948 0.064177
0.296140 0.060432 0.048902
0.462782 0.084741 0.037358
0.622209 0.108147 0.027449
0.812038 0.128213 0.019615
0.991871 0.149671 0.017481
1.060968 0.181392 0.018739
1.069468 0.210801 0.024238
1.069950 0.233923 0.030023
1.069960 0.251583 0.034676
1.069960 0.266763 0.041688
1.069960 0.275714 0.047302
1.069960 0.275714 0.047302
1.069960 0.275714 0.047302
0.011462 0.110156 0.111472
0.011366 0.109298 0.110262
0.045898 0.102468 0.090520
0.178370 0.107903 0.067364
0.304900 0.110964 0.056571
0.461032 0.109268 0.056070
0.710271 0.117820 0.060426
0.945080 0.139324 0.043660
1.056313 0.174523 0.029274
1.069313 0.208442 0.026026
1.069948 0.232792 0.029734
1.069960 0.250832 0.034447
1.069960 0.266245 0.041381
1.069960 0.275714 0.047302
1.069960 0.275714 0.047302
1.069960 0.275714 0.047302
0.037883 0.194369 0.163755
0.037889 0.194234 0.160815
0.038359 0.194272 0.137652
0.137125 0.182960 0.107646
0.245064 0.179545 0.091586
0.353386 0.175048 0.080505
0.477327 0.171732 0.071030
0.645929 0.168031 0.062318
0.943798 0.159184 0.058588
1.067204 0.193134 0.056472
1.069924 0.227488 0.040387
1.069960 0.249184 0.034689
1.069960 0.265220 0.040773
1.069960 0.275714 0.047302
1.069960 0.275714 0.047302
1.069960 0.275714 0.047302
0.078966 0.268978 0.204352
0.078949 0.268970 0.201013
0.079004 0.269672 0.185331
0.077351 0.267831 0.165076
0.213413 0.254340 0.135260
0.307122 0.247110 0.121087
0.412785 0.240139 0.106244
0.538832 0.235470 0.092035
0.712860 0.229899 0.078933
0.943481 0.219669 0.064709
1.060254 0.223912 0.058145
1.069959 0.238140 0.074724
1.069960 0.262010 0.047598
1.069960 0.275684 0.047282
1.069960 0.275714 0.047302
1.069960 0.275714 0.047302
0.122503 0.340356 0.232586
0.122649 0.340587 0.229922
0.122503 0.340751 0.220398
0.121845 0.340651 0.200802
0.148360 0.333592 0.184455
0.279120 0.321879 0.159587
0.370502 0.312883 0.145538
0.479489 0.303652 0.127842
0.612090 0.296427 0.111326
0.806300 0.285300 0.095401
0.997232 0.275589 0.079539
1.065342 0.278389 0.068079
1.069955 0.287191 0.062144
1.069960 0.293059 0.053827
1.069960 0.275666 0.047567
1.069960 0.275713 0.047304
0.165839 0.409930 0.259702
0.165829 0.409923 0.257824
0.165845 0.409985 0.250153
0.165513 0.409545 0.235781
0.164073 0.407585 0.218358
0.244457 0.398405 0.196684
0.341013 0.389349 0.178448
0.437557 0.378567 0.162668
0.552391 0.368267 0.143174
0.696745 0.357331 0.126708
0.897563 0.342124 0.108180
1.040582 0.334149 0.091151
1.069244 0.335687 0.080845
1.069960 0.340722 0.075861
1.069960 0.327751 0.064216
1.069960 0.321721 0.017955
0.213009 0.478032 0.282881
0.213011 0.478044 0.281464
0.212871 0.477884 0.275669
0.212425 0.477314 0.264716
0.211289 0.475826 0.249643
0.208546 0.472117 0.239542
0.308187 0.463515 0.214645
0.404760 0.454169 0.195957
0.505763 0.442519 0.177429
0.624536 0.431030 0.157904
0.782439 0.416093 0.140306
0.974244 0.402059 0.119881
1.063538 0.398323 0.106070
1.069919 0.397195 0.098882
1.069957 0.384435 0.090685
1.069960 0.365032 0.077319
0.259037 0.545079 0.308164
0.259015 0.545049 0.306954
0.258899 0.544883 0.302220
0.258518 0.544316 0.293192
0.257668 0.543024 0.280580
0.256050 0.540569 0.264447
0.257512 0.535344 0.257437
0.367064 0.527489 0.230930
0.468901 0.516391 0.210030
0.570936 0.504238 0.193954
0.694645 0.490392 0.174997
0.864903 0.473971 0.155434
1.026425 0.463782 0.135838
1.068404 0.461646 0.127597
1.069951 0.451998 0.122118
1.069937 0.433019 0.111183
0.296399 0.607597 0.332723
0.296407 0.607609 0.331831
0.296367 0.607530 0.327598
0.296183 0.607196 0.319826
0.295674 0.606295 0.309023
0.294518 0.604249 0.295895
0.292623 0.600950 0.282932
0.321769 0.594034 0.270398
0.428266 0.587758 0.248552
0.529449 0.576475 0.227722
0.638605 0.564134 0.208121
0.771791 0.548411 0.188097
0.946339 0.531735 0.167404
1.062121 0.525467 0.155260
1.069793 0.519582 0.152600
1.069865 0.503125 0.146677
0.332689 0.665878 0.358198
0.332648 0.665830 0.357181
0.332542 0.665723 0.353616
0.332255 0.665379 0.346825
0.331739 0.664682 0.337598
0.330893 0.663427 0.326339
0.329544 0.661359 0.313107
0.327464 0.658038 0.305378
0.385797 0.653740 0.289040
0.490377 0.644934 0.267212
0.592668 0.634679 0.245720
0.706440 0.622076 0.226464
0.845363 0.604132 0.206613
1.009436 0.589574 0.188421
1.068834 0.583717 0.175656
1.069375 0.569941 0.171501
0.360443 0.720655 0.384434
0.360429 0.720664 0.383646
0.360357 0.720651 0.380600
0.360196 0.720548 0.375009
0.359844 0.719924 0.367510
0.359282 0.718747 0.358591
0.358492 0.716921 0.349701
0.357475 0.714344 0.343091
0.356208 0.710942 0.339022
0.449677 0.707500 0.313492
0.550520 0.699828 0.291535
0.654693 0.690273 0.268733
0.771272 0.677028 0.246904
0.920376 0.658888 0.227651
1.056285 0.646652 0.211081
1.068579 0.635944 0.202384
0.366516 0.769260 0.412899
0.366489 0.769254 0.412257
0.366375 0.769239 0.409516
0.366166 0.769087 0.404744
0.365869 0.768684 0.398698
0.365510 0.767904 0.392446
0.365201 0.766567 0.387725
0.364992 0.764508 0.387324
0.364871 0.761787 0.391144
0.407690 0.763251 0.369160
0.514704 0.759454 0.346222
0.612190 0.752778 0.319158
0.715402 0.744206 0.294498
0.834151 0.730521 0.267651
1.000839 0.712915 0.253665
1.064336 0.701780 0.244110
0.375844 0.812370 0.431988
0.375820 0.812378 0.431286
0.375722 0.812387 0.428735
0.375521 0.812333 0.424356
0.375186 0.812003 0.419788
0.374689 0.811224 0.416382
0.374056 0.809841 0.416460
0.373579 0.807739 0.423131
0.373719 0.804790 0.441402
0.373517 0.802148 0.449135
0.485323 0.810601 0.409450
0.581525 0.808017 0.385173
0.674582 0.804563 0.357281
0.771950 0.798032 0.332585
0.897666 0.784957 0.305003
1.058620 0.772380 0.294452
0.399079 0.860968 0.440567
0.399058 0.861002 0.439885
0.398942 0.861118 0.436794
0.398708 0.861254 0.431436
0.398315 0.861038 0.426616
0.397777 0.860114 0.425604
0.397045 0.858219 0.430668
0.396260 0.855089 0.445281
0.395828 0.850586 0.473584
0.395467 0.845301 0.513003
0.470495 0.855742 0.493330
0.571806 0.860829 0.468693
0.653949 0.864934 0.432121
0.737668 0.864019 0.409438
0.824290 0.860564 0.392693
0.986138 0.849600 0.376213
0.409204 0.880613 0.437500
0.409199 0.880615 0.437367
0.409180 0.880621 0.436910
0.409147 0.880632 0.436062
0.408943 0.880701 0.430914
0.408745 0.880767 0.425903
0.409121 0.880641 0.435414
0.410263 0.880135 0.460473
0.413198 0.878671 0.504613
0.419038 0.877929 0.560497
0.502622 0.892768 0.581139
0.592123 0.903976 0.557932
0.660092 0.916033 0.533386
0.727683 0.926803 0.517534
0.796928 0.934113 0.511257
0.899076 0.936275 0.490515
0.002116 0.011951 0.284122
0.007598 0.012897 0.274858
0.127353 0.030025 0.244849
0.268261 0.055535 0.220892
0.376247 0.075184 0.194662
0.485925 0.093115 0.167573
0.625151 0.111920 0.147611
0.814929 0.129813 0.130340
0.996913 0.152537 0.112111
1.060729 0.186738 0.100266
1.069490 0.218144 0.091946
1.069959 0.242372 0.078658
1.069960 0.263500 0.057086
1.069960 0.275657 0.047615
1.069960 0.275714 0.047302
1.069960 0.275714 0.047302
0.003341 0.032357 0.244174
0.003621 0.030044 0.245174
0.102773 0.034984 0.222377
0.255692 0.054206 0.223224
0.369127 0.073929 0.195903
0.480613 0.092341 0.170099
0.619298 0.111424 0.150688
0.808614 0.129443 0.133054
0.992967 0.151904 0.114545
1.059986 0.185869 0.102553
1.069442 0.217660 0.093060
1.069959 0.241605 0.081558
1.069960 0.263035 0.059039
1.069960 0.275559 0.048158
1.069960 0.275714 0.047302
1.069960 0.275714 0.047302
0.009972 0.111505 0.210075
0.009717 0.110445 0.209877
0.046157 0.102574 0.186013
0.168484 0.099747 0.151868
0.278434 0.101911 0.139922
0.403898 0.097927 0.144869
0.594930 0.109309 0.163906
0.781764 0.127845 0.144560
0.976523 0.149433 0.124461
1.056837 0.182567 0.110526
1.069134 0.215036 0.100793
1.069953 0.239243 0.090186
1.069960 0.260649 0.069756
1.069960 0.274897 0.051826
1.069960 0.275714 0.047302
1.069960 0.275714 0.047302
0.034565 0.189696 0.222256
0.034369 0.189181 0.221047
0.033634 0.187072 0.213005
0.138292 0.176528 0.169819
0.238399 0.171377 0.147557
0.337494 0.166133 0.132903
0.446250 0.161473 0.121527
0.586583 0.159057 0.111669
0.855768 0.149994 0.119852
1.047682 0.176834 0.126321
1.068314 0.210146 0.114744
1.069922 0.235568 0.103720
1.069960 0.256079 0.090174
1.069960 0.272601 0.064667
1.069960 0.275710 0.047322
1.069960 0.275714 0.047302
0.076560 0.264617 0.240612
0.076511 0.264545 0.238670
0.076310 0.264255 0.230331
0.075276 0.262104 0.215896
0.212501 0.249127 0.177049
0.302831 0.242017 0.158615
0.401676 0.233414 0.141933
0.517593 0.227169 0.126008
0.671923 0.222662 0.112072
0.890118 0.212113 0.098741
1.043488 0.210598 0.092731
1.069824 0.230288 0.122491
1.069960 0.252013 0.108886
1.069960 0.267711 0.094986
1.069960 0.273669 0.058629
1.069960 0.275693 0.047415
0.120986 0.337951 0.259353
0.120995 0.337960 0.257601
0.120902 0.337779 0.250179
0.120190 0.336621 0.236216
0.161663 0.328899 0.213682
0.278346 0.318790 0.186907
0.367534 0.310132 0.171188
0.471822 0.299703 0.152649
0.596668 0.291954 0.134928
0.775518 0.281640 0.118623
0.971716 0.271357 0.103066
1.060938 0.271619 0.089547
1.069902 0.279527 0.084204
1.069960 0.281607 0.089041
1.069960 0.267392 0.098787
1.069960 0.274308 0.055089
0.164811 0.408241 0.279170
0.164807 0.408245 0.277493
0.164670 0.408069 0.271796
0.164171 0.407372 0.260805
0.162779 0.405311 0.246214
0.248134 0.396121 0.220565
0.340172 0.387540 0.200171
0.435186 0.376983 0.181088
0.546461 0.365910 0.158987
0.684045 0.355214 0.143164
0.875263 0.340752 0.125522
1.030463 0.331960 0.107383
1.068707 0.332879 0.094785
1.069959 0.337463 0.091178
1.069960 0.322117 0.083806
1.069960 0.302214 0.071725
0.212371 0.477026 0.298779
0.212365 0.477024 0.297550
0.212200 0.476814 0.292390
0.211670 0.476110 0.283307
0.210437 0.474416 0.270989
0.207898 0.470820 0.259938
0.309691 0.462325 0.232804
0.404172 0.453282 0.212444
0.503945 0.441548 0.192711
0.620033 0.429708 0.172127
0.771903 0.415241 0.152989
0.962987 0.401341 0.131336
1.061444 0.397427 0.117564
1.069882 0.396406 0.109971
1.069955 0.383225 0.101911
1.069959 0.362961 0.091192
0.258723 0.544516 0.321160
0.258689 0.544468 0.320151
0.258539 0.544253 0.315953
0.258125 0.543627 0.308189
0.257238 0.542263 0.297192
0.255619 0.539752 0.283095
0.257474 0.534694 0.274837
0.367969 0.526719 0.246684
0.468429 0.515960 0.224346
0.569797 0.503697 0.205394
0.691782 0.489933 0.184359
0.856973 0.473789 0.165222
1.020967 0.463260 0.146047
1.068041 0.461470 0.136302
1.069949 0.451892 0.129619
1.069934 0.432927 0.120075
0.296053 0.607037 0.344433
0.296032 0.606998 0.343413
0.295967 0.606877 0.339900
0.295749 0.606488 0.332930
0.295275 0.605656 0.323182
0.294285 0.603934 0.310604
0.292468 0.600764 0.297535
0.326520 0.594073 0.284340
0.429014 0.587579 0.261625
0.529252 0.576352 0.239126
0.637532 0.564097 0.218647
0.768627 0.548426 0.198255
0.939992 0.531844 0.177245
1.060815 0.525448 0.163059
1.069750 0.519899 0.159111
1.069837 0.503473 0.153402
0.332565 0.665505 0.368746
0.332550 0.665494 0.367953
0.332438 0.665372 0.364710
0.332150 0.665019 0.358580
0.331586 0.664263 0.350049
0.330667 0.662948 0.339406
0.329312 0.660871 0.327414
0.327248 0.657596 0.319614
0.387435 0.653814 0.302305
0.491058 0.645069 0.278780
0.592604 0.635276 0.255563
0.705455 0.622804 0.235563
0.841971 0.604930 0.214930
1.006194 0.590303 0.196011
1.068678 0.584683 0.182968
1.069261 0.570753 0.178537
0.360502 0.720241 0.393857
0.360482 0.720229 0.393155
0.360413 0.720218 0.390238
0.360248 0.720077 0.385057
0.359933 0.719632 0.377994
0.359417 0.718627 0.369766
0.358640 0.716815 0.361498
0.357620 0.714220 0.355328
0.356359 0.710832 0.351540
0.451536 0.707576 0.324837
0.551110 0.700057 0.301469
0.654606 0.690905 0.277842
0.770101 0.677913 0.255555
0.917168 0.659766 0.235885
1.055021 0.647793 0.219181
1.068278 0.637099 0.210114
0.366804 0.769002 0.420888
0.366777 0.768994 0.420262
0.366678 0.768995 0.417837
0.366477 0.768888 0.413310
0.366197 0.768517 0.407759
0.365850 0.767717 0.401898
0.365551 0.766379 0.397547
0.365339 0.764296 0.397363
0.365229 0.761506 0.402076
0.410781 0.763429 0.379659
0.516023 0.759199 0.355610
0.612692 0.752789 0.328228
0.715225 0.744558 0.302794
0.833010 0.731607 0.275546
0.998839 0.714168 0.261032
1.063890 0.703261 0.250782
0.376065 0.812263 0.438705
0.376038 0.812268 0.437973
0.375939 0.812269 0.435470
0.375740 0.812191 0.431406
0.375412 0.811850 0.427078
0.374935 0.811079 0.423962
0.374307 0.809692 0.424045
0.373844 0.807587 0.430720
0.373955 0.804579 0.448526
0.373805 0.801767 0.458211
0.488258 0.810319 0.418450
0.582888 0.807825 0.393114
0.675160 0.804702 0.364855
0.771873 0.798503 0.339958
0.896722 0.786215 0.313198
1.058119 0.773591 0.301358
0.399363 0.860914 0.446025
0.399340 0.860946 0.445319
0.399223 0.861058 0.442254
0.398985 0.861182 0.436954
0.398604 0.860978 0.432190
0.398051 0.860046 0.431203
0.397339 0.858159 0.436183
0.396527 0.855001 0.450462
0.396125 0.850515 0.478128
0.395624 0.845101 0.518851
0.474033 0.855626 0.499440
0.573795 0.860569 0.475425
0.655275 0.865035 0.439257
0.738384 0.864288 0.416725
0.824575 0.860988 0.399528
0.986192 0.850098 0.382006
0.409376 0.880555 0.441846
0.409372 0.880556 0.441748
0.409355 0.880562 0.441311
0.409319 0.880574 0.440407
0.409141 0.880634 0.435907
0.408911 0.880712 0.430089
0.409269 0.880591 0.439146
0.410433 0.880035 0.463403
0.413371 0.878605 0.506811
0.419200 0.877935 0.562462
0.505439 0.892908 0.584938
0.593710 0.903915 0.562168
0.661338 0.916118 0.537793
0.728520 0.927001 0.522648
0.797483 0.934381 0.516218
0.899349 0.936726 0.495232
0.003632 0.023593 0.410163
0.012884 0.025545 0.399853
0.119681 0.041400 0.370733
0.244443 0.059733 0.365400
0.352798 0.080278 0.347028
0.443511 0.096642 0.313722
0.553173 0.113854 0.283244
0.701522 0.131574 0.254146
0.893369 0.149305 0.221855
1.029791 0.176070 0.193011
1.065644 0.207425 0.173285
1.069766 0.232122 0.156168
1.069960 0.251963 0.138027
1.069960 0.264867 0.123707
1.069960 0.266625 0.106281
1.069960 0.271923 0.068560
0.003098 0.042930 0.364996
0.004455 0.041275 0.365485
0.100709 0.047603 0.339396
0.234703 0.059099 0.363036
0.346933 0.079023 0.347093
0.439423 0.095848 0.314450
0.549410 0.113299 0.283680
0.698093 0.131173 0.254369
0.889839 0.149015 0.223047
1.028618 0.175678 0.194177
1.065479 0.207066 0.174395
1.069754 0.231845 0.157280
1.069960 0.251785 0.138861
1.069960 0.264785 0.124532
1.069960 0.266553 0.106982
1.069960 0.271799 0.069274
0.014854 0.125832 0.304493
0.014531 0.124366 0.305266
0.061606 0.114353 0.280284
0.165663 0.108739 0.253222
0.264132 0.104183 0.246805
0.383732 0.097813 0.271537
0.534095 0.111274 0.288237
0.682227 0.129849 0.259782
0.873445 0.148011 0.230691
1.021755 0.173963 0.200844
1.064679 0.205417 0.179803
1.069698 0.230729 0.162222
1.069959 0.250966 0.143937
1.069960 0.264441 0.127964
1.069960 0.266131 0.111114
1.069960 0.270837 0.074798
0.037345 0.195135 0.289355
0.037053 0.194541 0.289098
0.035892 0.192135 0.288438
0.145418 0.179263 0.244200
0.233081 0.172417 0.223027
0.323803 0.166245 0.207407
0.420769 0.157791 0.195780
0.547474 0.153852 0.188710
0.798614 0.147168 0.222139
1.006212 0.170704 0.213464
1.062384 0.202258 0.190903
1.069568 0.228441 0.172029
1.069957 0.249322 0.153667
1.069960 0.263858 0.135341
1.069960 0.265323 0.119162
1.069960 0.268313 0.090617
0.074273 0.261762 0.290663
0.074139 0.261508 0.289987
0.073400 0.260116 0.287651
0.077689 0.256415 0.280331
0.214233 0.244772 0.233233
0.299298 0.237708 0.212316
0.391837 0.228864 0.195255
0.497934 0.220645 0.179233
0.633708 0.216460 0.164076
0.826372 0.207575 0.151420
1.014111 0.200582 0.149597
1.069182 0.224981 0.186820
1.069954 0.246734 0.168051
1.069960 0.263109 0.149552
1.069960 0.264198 0.130388
1.069960 0.266361 0.108866
0.118605 0.334552 0.300147
0.118540 0.334437 0.299452
0.118240 0.333900 0.295788
0.117301 0.332301 0.289067
0.172610 0.324238 0.262147
0.278458 0.314718 0.233166
0.364532 0.306631 0.213561
0.462913 0.295487 0.193868
0.579282 0.286190 0.175023
0.738668 0.276720 0.157354
0.930153 0.267102 0.141343
1.049230 0.265160 0.123859
1.069509 0.272145 0.116375
1.069960 0.272565 0.127398
1.069960 0.263223 0.149866
1.069960 0.264551 0.126865
0.163060 0.405512 0.313099
0.163051 0.405491 0.312073
0.162844 0.405143 0.308013
0.162141 0.404018 0.301059
0.160563 0.401657 0.291791
0.253697 0.392601 0.259299
0.339717 0.384450 0.237131
0.432014 0.374462 0.216994
0.537728 0.362614 0.194605
0.666439 0.351745 0.176167
0.841088 0.338674 0.157044
1.008754 0.329535 0.136874
1.066097 0.329535 0.120295
1.069941 0.334342 0.114247
1.069960 0.318002 0.109155
1.069960 0.294112 0.104810
0.211314 0.475380 0.328104
0.211277 0.475333 0.327269
0.211028 0.474999 0.323586
0.210376 0.474106 0.316857
0.209031 0.472233 0.307647
0.206594 0.468792 0.296411
0.312710 0.460385 0.265331
0.403575 0.451743 0.242367
