Lukas Eriksen LUT Pack 2.0/Lukas Eriksen LUT 1 - Orion.CUBE
LUT_3D_SIZE 16
0.044009 0.069915 0.076921
0.049066 0.071770 0.074581
0.064185 0.067617 0.074582
0.076203 0.076895 0.083926
0.102636 0.076102 0.077453
0.143530 0.077792 0.090597
0.190859 0.076898 0.095444
0.252726 0.064985 0.099850
0.331911 0.059951 0.105253
0.417896 0.076241 0.120676
0.507172 0.093378 0.142328
0.614602 0.114155 0.161660
0.718880 0.134362 0.194301
0.810503 0.152111 0.220943
0.892686 0.169689 0.265638
0.948927 0.241634 0.311178
0.044009 0.076921 0.076218
0.053884 0.078301 0.069898
0.069081 0.078001 0.075323
0.083615 0.075757 0.080925
0.111740 0.081432 0.080637
0.154443 0.085894 0.086534
0.198484 0.089497 0.092103
0.260524 0.075841 0.097316
0.344361 0.062671 0.105779
0.428491 0.078252 0.126930
0.515881 0.095041 0.139808
0.619508 0.115106 0.162596
0.721170 0.134816 0.192326
0.815873 0.153146 0.226182
0.893324 0.171727 0.260767
0.953762 0.251952 0.312881
0.053764 0.093297 0.087599
0.054040 0.092826 0.077885
0.074984 0.094968 0.080874
0.094829 0.098121 0.080666
0.131023 0.098575 0.085045
0.166974 0.096790 0.089644
0.216562 0.102463 0.091480
0.278616 0.090948 0.095822
0.353041 0.081107 0.107454
0.443774 0.081405 0.122759
0.537977 0.099313 0.146385
0.626133 0.116384 0.161991
0.724041 0.135351 0.189464
0.812379 0.152482 0.216573
0.887921 0.184664 0.257302
0.951291 0.268786 0.306893
0.053035 0.134353 0.105619
0.054486 0.129438 0.097711
0.064900 0.129646 0.092158
0.095796 0.137574 0.092423
0.144228 0.144812 0.089181
0.185936 0.139782 0.086271
0.247453 0.130387 0.092666
0.315972 0.124229 0.091847
0.392410 0.125493 0.111637
0.475578 0.110035 0.125763
0.572670 0.113518 0.146141
0.665223 0.125980 0.169108
0.751862 0.148316 0.191428
0.832477 0.181215 0.219983
0.907226 0.242936 0.262174
0.963626 0.316770 0.319278
0.053203 0.186596 0.140304
0.055213 0.178644 0.130885
0.060168 0.173014 0.114356
0.086516 0.178192 0.107324
0.139349 0.195672 0.110081
0.205451 0.211452 0.106712
0.275476 0.200558 0.095884
0.353670 0.181484 0.095185
0.431504 0.173923 0.108745
0.518206 0.173125 0.129395
0.597536 0.172576 0.144951
0.687246 0.187855 0.169079
0.777252 0.213518 0.198399
0.858764 0.253152 0.230964
0.921128 0.304922 0.268539
0.971699 0.364093 0.322613
0.055549 0.246595 0.182237
0.055614 0.244248 0.167300
0.056269 0.237145 0.145883
0.070069 0.221036 0.139483
0.109140 0.245235 0.135690
0.184905 0.268384 0.126251
0.296621 0.291256 0.132825
0.374989 0.280363 0.122623
0.476731 0.260558 0.111799
0.559023 0.237330 0.122432
0.633201 0.238354 0.143620
0.724692 0.256840 0.167881
0.798244 0.282816 0.190243
0.864616 0.316442 0.229346
0.933907 0.358629 0.272534
0.968686 0.407592 0.318912
0.057652 0.319263 0.226119
0.057376 0.318299 0.218273
0.055408 0.307252 0.198344
0.054754 0.289553 0.179190
0.081141 0.283129 0.164857
0.151538 0.310387 0.171450
0.268064 0.359010 0.175406
0.413005 0.395242 0.182216
0.507291 0.385524 0.157360
0.596882 0.368345 0.146471
0.686994 0.350136 0.149601
0.761104 0.346407 0.167935
0.826973 0.365305 0.196966
0.888879 0.395930 0.236399
0.941497 0.431275 0.276656
0.990048 0.469036 0.333640
0.072021 0.395798 0.265160
0.070386 0.387114 0.269295
0.068070 0.375026 0.256855
0.064851 0.357993 0.225318
0.062956 0.332001 0.194523
0.118618 0.352005 0.187979
0.218064 0.387190 0.212738
0.365629 0.444415 0.222284
0.532459 0.495384 0.227410
0.624261 0.501980 0.204878
0.716631 0.496321 0.190931
0.793142 0.473636 0.176452
0.873644 0.466139 0.201650
0.919873 0.483483 0.241826
0.957918 0.513682 0.288791
0.992583 0.543702 0.353129
0.083472 0.455827 0.306708
0.083755 0.457229 0.306930
0.081794 0.447003 0.288477
0.076602 0.419850 0.273568
0.072992 0.400902 0.243668
0.072844 0.365752 0.207296
0.163244 0.413606 0.225961
0.289007 0.463173 0.235738
0.460487 0.529998 0.265078
0.626602 0.594262 0.273875
0.741003 0.618920 0.262029
0.807775 0.609672 0.238196
0.877427 0.598772 0.226969
0.928772 0.579320 0.249028
0.970700 0.576749 0.298622
0.999021 0.609132 0.362368
0.100387 0.543500 0.372746
0.099274 0.537852 0.363446
0.095874 0.520107 0.349321
0.092321 0.501814 0.319555
0.086292 0.470492 0.292373
0.079791 0.436081 0.259079
0.114053 0.434882 0.236711
0.231333 0.489784 0.255729
0.379634 0.561086 0.288714
0.564213 0.635166 0.305361
0.739802 0.712947 0.337132
0.824141 0.731861 0.327772
0.883570 0.720027 0.303375
0.927559 0.702842 0.294080
0.969760 0.676477 0.325910
0.991101 0.663650 0.372864
0.116285 0.625615 0.425735
0.114976 0.618564 0.399680
0.113083 0.609028 0.399312
0.109412 0.590115 0.371392
0.104518 0.564834 0.355278
0.094208 0.511135 0.296669
0.086552 0.471656 0.261306
0.173896 0.510446 0.263910
0.319274 0.583997 0.292400
0.501188 0.665451 0.332712
0.668566 0.744724 0.375033
0.822650 0.814343 0.424601
0.897344 0.819765 0.428567
0.945423 0.815781 0.412903
0.979155 0.791082 0.415742
0.992810 0.780251 0.442916
0.133128 0.712529 0.475816
0.132359 0.708660 0.460136
0.130415 0.698432 0.463140
0.126722 0.679487 0.432762
0.121062 0.650243 0.403464
0.113696 0.612223 0.361661
0.103594 0.560047 0.306886
0.104505 0.530801 0.273072
0.239005 0.595522 0.297495
0.421821 0.687719 0.341039
0.602895 0.765406 0.387863
0.758566 0.831782 0.437804
0.871315 0.871971 0.492948
0.937608 0.878114 0.514351
0.963240 0.865825 0.507356
0.990802 0.860411 0.521585
0.177372 0.807087 0.532975
0.172986 0.802858 0.527248
0.165921 0.796830 0.509403
0.150013 0.781857 0.493064
0.142421 0.757233 0.464146
0.134971 0.722061 0.423212
0.125933 0.675420 0.371660
0.114775 0.617767 0.321573
0.142872 0.619320 0.294510
0.338969 0.708099 0.336148
0.538935 0.794854 0.403694
0.701806 0.849612 0.454127
0.831946 0.893071 0.520788
0.919569 0.912590 0.588855
0.967524 0.916203 0.620131
0.987485 0.908570 0.630922
0.280211 0.898368 0.606952
0.281886 0.899258 0.613505
0.275019 0.892003 0.599837
0.252961 0.884346 0.571485
0.221627 0.871285 0.552924
0.184133 0.848257 0.506623
0.154653 0.820677 0.464617
0.144999 0.773772 0.393695
0.134585 0.720030 0.317170
0.255001 0.765578 0.345466
0.493261 0.849183 0.423260
0.670849 0.892489 0.483799
0.803900 0.926490 0.566063
0.885446 0.932579 0.646537
0.951753 0.946007 0.723546
0.980856 0.953141 0.764157
0.427372 0.951065 0.691162
0.427109 0.955287 0.698027
0.419836 0.955732 0.688276
0.402476 0.952697 0.672179
0.369424 0.951077 0.646364
0.341486 0.936345 0.616520
0.286724 0.929268 0.571064
0.218314 0.908701 0.503748
0.175887 0.876117 0.443452
0.192908 0.864371 0.382709
0.464542 0.914023 0.445053
0.649699 0.935235 0.534166
0.781729 0.952847 0.621877
0.868003 0.955695 0.695099
0.926865 0.962599 0.768701
0.969614 0.963866 0.828011
0.632869 0.996385 0.795557
0.634652 0.992423 0.802683
0.629513 0.993016 0.806105
0.617780 0.996444 0.791417
0.607518 0.993964 0.784144
0.580001 0.996202 0.749745
0.554974 0.996219 0.721653
0.516012 0.992070 0.696756
0.473898 0.992209 0.639324
0.418696 0.986403 0.568375
0.509402 0.992201 0.575576
0.693913 0.987371 0.675486
0.806589 0.984942 0.740324
0.885832 0.981831 0.804817
0.925259 0.980210 0.844388
0.959010 0.984409 0.872541
0.048902 0.071068 0.081573
0.046802 0.074493 0.078162
0.063277 0.073807 0.079844
0.085466 0.073846 0.078690
0.110339 0.076987 0.081936
0.145857 0.083061 0.079309
0.189722 0.085582 0.091111
0.261759 0.076744 0.095837
0.338661 0.061796 0.102813
0.425852 0.077738 0.129284
0.520619 0.095953 0.140351
0.612223 0.113699 0.160937
0.715793 0.133762 0.192471
0.806173 0.151277 0.223085
0.892041 0.169773 0.259843
0.944264 0.242651 0.303179
0.051209 0.080591 0.086265
0.053523 0.078466 0.080417
0.067501 0.077817 0.082809
0.084886 0.081913 0.081710
0.120232 0.085722 0.087046
0.153689 0.090064 0.083674
0.203735 0.093050 0.092875
0.269566 0.086365 0.093309
0.348114 0.070617 0.111039
0.430942 0.078712 0.121041
0.522831 0.096380 0.140278
0.625401 0.116250 0.162902
0.716002 0.133805 0.188089
0.809417 0.151890 0.222218
0.887613 0.171014 0.257036
0.950216 0.251607 0.301976
0.050176 0.100874 0.098131
0.059380 0.097539 0.097102
0.072636 0.097871 0.088882
0.093297 0.103174 0.088225
0.127307 0.101964 0.087858
0.159188 0.103379 0.083988
0.219816 0.109405 0.092403
0.281660 0.101442 0.097697
0.358867 0.096622 0.106587
0.440400 0.083117 0.119433
0.528225 0.097420 0.140690
0.619466 0.115090 0.159429
0.710372 0.132713 0.187693
0.800734 0.150202 0.212310
0.874732 0.178911 0.248132
0.941759 0.262931 0.299397
0.052146 0.140690 0.123426
0.061425 0.142353 0.121976
0.070325 0.132887 0.106263
0.102132 0.143444 0.108171
0.148143 0.144079 0.104778
0.194822 0.141567 0.097974
0.250141 0.134802 0.099180
0.317056 0.130734 0.093054
0.396894 0.129334 0.111385
0.476555 0.122418 0.124679
0.566552 0.119051 0.143235
0.657992 0.130258 0.165835
0.744042 0.151271 0.191355
0.822045 0.182847 0.218010
0.900402 0.242865 0.262639
0.962037 0.315060 0.312794
0.054796 0.192731 0.152517
0.060621 0.192760 0.158371
0.067000 0.184196 0.137829
0.088314 0.180880 0.126391
0.138458 0.200699 0.128306
0.204072 0.210050 0.121519
0.276003 0.200188 0.115442
0.350395 0.183931 0.106724
0.436583 0.176156 0.112715
0.516207 0.173680 0.125067
0.594233 0.177547 0.142804
0.685365 0.191209 0.167606
0.771189 0.215743 0.197388
0.849084 0.255729 0.227320
0.917096 0.305038 0.268334
0.962378 0.364454 0.316633
0.055388 0.251337 0.195099
0.055843 0.254012 0.194393
0.062440 0.246774 0.170919
0.075208 0.227529 0.154947
0.123279 0.240914 0.150819
0.199566 0.268370 0.152991
0.294108 0.295289 0.154799
0.380533 0.279171 0.138602
0.465316 0.255169 0.129090
0.554673 0.236296 0.126615
0.626189 0.242660 0.139949
0.709875 0.253396 0.166660
0.781168 0.273815 0.186538
0.846885 0.309137 0.217546
0.919250 0.349096 0.264472
0.967798 0.401953 0.318737
0.059857 0.331408 0.246369
0.058651 0.324993 0.235426
0.057422 0.316495 0.221431
0.062069 0.294760 0.199186
0.087958 0.284442 0.177191
0.155357 0.313111 0.184049
0.265995 0.352586 0.193623
0.401773 0.390192 0.190960
0.499530 0.380213 0.175603
0.585076 0.361439 0.160518
0.681770 0.342959 0.154416
0.752542 0.344073 0.166299
0.815978 0.361643 0.190934
0.882907 0.388206 0.228666
0.932496 0.424208 0.270106
0.979588 0.464501 0.326514
0.073081 0.401397 0.291411
0.071876 0.395074 0.279278
0.069546 0.382764 0.265162
0.065982 0.362176 0.238798
0.071463 0.335401 0.209063
0.117102 0.346929 0.204533
0.218271 0.387181 0.215168
0.366278 0.442794 0.233191
0.519585 0.490948 0.232842
0.622926 0.495008 0.223349
0.709865 0.485939 0.209534
0.788155 0.472907 0.187196
0.857915 0.462813 0.195443
0.917771 0.480886 0.239099
0.962586 0.508282 0.284279
0.996263 0.540035 0.351914
0.085517 0.466441 0.326986
0.084166 0.459283 0.325963
0.082221 0.449243 0.306687
0.078762 0.431213 0.285744
0.074963 0.404090 0.254056
0.082350 0.373196 0.218297
0.163327 0.412020 0.228081
0.292986 0.462281 0.252010
0.451309 0.526788 0.268144
0.623989 0.591164 0.286407
0.717812 0.607296 0.267446
0.797505 0.602820 0.248056
0.861786 0.584751 0.226717
0.920098 0.564724 0.238958
0.965932 0.568812 0.284030
0.998233 0.597202 0.351567
0.100105 0.542055 0.375030
0.099787 0.540382 0.372420
0.097081 0.526405 0.361047
0.093582 0.508362 0.332850
0.087842 0.477749 0.302841
0.083467 0.439416 0.267616
0.116718 0.433592 0.241594
0.230950 0.485256 0.264225
0.381765 0.550351 0.292739
0.556381 0.624827 0.316785
0.723706 0.701977 0.340466
0.809509 0.716640 0.330012
0.877091 0.708290 0.315443
0.926567 0.693376 0.297358
0.966043 0.670277 0.312092
0.999014 0.658835 0.369232
0.116446 0.626409 0.435658
0.115630 0.622216 0.421494
0.112731 0.606668 0.418067
0.109073 0.588368 0.387619
0.104517 0.564685 0.359988
0.096915 0.525356 0.313045
0.089766 0.478855 0.271035
0.168267 0.505337 0.271976
0.317003 0.580468 0.299858
0.495555 0.658364 0.335803
0.666112 0.742123 0.384444
0.820498 0.812218 0.427898
0.892591 0.818398 0.431250
0.933124 0.811761 0.409400
0.973352 0.794157 0.400285
1.000020 0.773901 0.440571
0.136469 0.715803 0.484053
0.135821 0.711980 0.473934
0.132796 0.700853 0.464942
0.128125 0.683557 0.444982
0.122179 0.655845 0.408490
0.114393 0.615846 0.372329
0.105154 0.568112 0.323498
0.104442 0.529766 0.283498
0.236063 0.591584 0.298613
0.413514 0.677633 0.340245
0.592677 0.762287 0.391042
0.752901 0.824199 0.438699
0.869494 0.866044 0.493042
0.929871 0.872473 0.511864
0.967548 0.860610 0.502114
0.995532 0.848489 0.522303
0.187367 0.802997 0.543666
0.186532 0.801932 0.534895
0.180151 0.796442 0.519798
0.165919 0.777892 0.503674
0.145454 0.756875 0.469632
0.134348 0.716629 0.433370
0.125682 0.674086 0.381726
0.114057 0.614082 0.320032
0.140821 0.613925 0.301561
0.334700 0.699089 0.335615
0.524895 0.787866 0.388573
0.692784 0.844711 0.450757
0.818361 0.882458 0.514071
0.911976 0.906158 0.583402
0.960625 0.910603 0.611271
0.984582 0.903925 0.612648
0.295437 0.895417 0.615918
0.292416 0.896935 0.616290
0.278877 0.890619 0.603606
0.257558 0.882699 0.582838
0.235987 0.870704 0.557069
0.196470 0.849716 0.512364
0.156444 0.813557 0.461798
0.144527 0.771419 0.401167
0.133591 0.714841 0.327799
0.247535 0.760656 0.345618
0.485348 0.843942 0.415994
0.666789 0.888475 0.484982
0.797538 0.917594 0.570765
0.885878 0.933836 0.649361
0.943669 0.944944 0.722391
0.981991 0.947921 0.767783
0.430237 0.954343 0.701358
0.431884 0.954839 0.696606
0.418394 0.954199 0.687536
0.406064 0.948374 0.678198
0.374283 0.949350 0.651731
0.345303 0.944102 0.618994
0.292967 0.925926 0.570387
0.224029 0.908720 0.514336
0.176183 0.875751 0.441809
0.188589 0.861606 0.378280
0.447246 0.904810 0.439908
0.639536 0.934914 0.528689
0.776144 0.946083 0.610855
0.866797 0.956178 0.697896
0.923059 0.959576 0.763319
0.967861 0.966841 0.817837
0.619635 0.990685 0.799117
0.631708 0.992645 0.802682
0.627941 0.991662 0.804455
0.618714 0.990175 0.795208
0.598645 0.991417 0.777983
0.573888 0.994772 0.753035
0.543416 0.990792 0.723374
0.506413 0.989592 0.692152
0.457912 0.989401 0.634856
0.410739 0.983359 0.572189
0.503136 0.984215 0.565939
0.686579 0.984725 0.650279
0.805537 0.981631 0.736308
0.876232 0.979543 0.800130
0.919536 0.979382 0.846190
0.954587 0.982640 0.879332
0.046876 0.075325 0.095699
0.056602 0.075532 0.095319
0.064623 0.072084 0.091058
0.085157 0.071831 0.088565
0.113301 0.079737 0.090611
0.143409 0.088624 0.091266
0.202512 0.093665 0.105209
0.260856 0.087104 0.099536
0.342962 0.071244 0.109479
0.429632 0.078469 0.125579
0.525356 0.096877 0.144941
0.621364 0.115474 0.164038
0.720989 0.134768 0.192630
0.808239 0.151676 0.220133
0.887026 0.170867 0.255817
0.951327 0.253285 0.312057
0.048228 0.084744 0.110527
0.056038 0.085452 0.102659
0.072014 0.083125 0.100585
0.088146 0.085312 0.099710
0.117468 0.092594 0.098227
0.155743 0.095937 0.101719
0.204146 0.102784 0.108238
0.275500 0.093454 0.104234
0.348658 0.085625 0.106859
0.440392 0.080736 0.120549
0.531976 0.098143 0.144414
0.624455 0.116064 0.160115
0.719573 0.134513 0.188118
0.810183 0.152031 0.220512
0.887168 0.177061 0.255909
0.959111 0.262278 0.307428
0.046069 0.107268 0.120816
0.058843 0.104513 0.115171
0.073816 0.108702 0.115504
0.093309 0.108172 0.108980
0.127254 0.109692 0.112089
0.170396 0.116551 0.118211
0.219681 0.119018 0.112004
0.283390 0.110363 0.104983
0.363411 0.103689 0.110573
0.444541 0.091719 0.121581
0.537368 0.099299 0.140660
0.619880 0.115176 0.158257
0.703152 0.131301 0.184736
0.789326 0.148033 0.206218
0.863590 0.176324 0.243971
0.937198 0.256830 0.294243
0.049068 0.156559 0.146874
0.060591 0.151872 0.146315
0.077691 0.147596 0.138383
0.105566 0.145841 0.136211
0.149301 0.147587 0.132850
0.196486 0.146236 0.127580
0.244561 0.147594 0.121798
0.315719 0.140422 0.122599
0.397580 0.136105 0.118418
0.482930 0.132217 0.123043
0.563558 0.130189 0.139304
0.654050 0.138558 0.164759
0.740029 0.157675 0.185884
0.825183 0.192925 0.219219
0.897527 0.248508 0.260834
0.958332 0.311153 0.308359
0.055420 0.211832 0.184840
0.061498 0.208040 0.180111
0.083960 0.201145 0.170572
0.093534 0.191997 0.156810
0.146210 0.204356 0.154710
0.205824 0.215621 0.157775
0.277133 0.200044 0.142199
0.349845 0.193230 0.140024
0.429655 0.186706 0.131496
0.519614 0.183067 0.132698
0.599003 0.186003 0.143187
0.688790 0.199530 0.168166
0.773419 0.225342 0.195312
0.847183 0.258564 0.225295
0.919136 0.307901 0.271019
0.969736 0.365561 0.316613
0.054294 0.276585 0.224395
0.058782 0.266426 0.221109
0.077143 0.262867 0.210637
0.090732 0.244154 0.187049
0.118811 0.248265 0.173300
0.196679 0.273319 0.175300
0.296334 0.292682 0.179889
0.375310 0.281122 0.170072
0.462323 0.256764 0.156636
0.552075 0.247227 0.151673
0.626841 0.246930 0.147219
0.704779 0.255219 0.162188
0.780497 0.277791 0.187596
0.848586 0.301573 0.218627
0.906422 0.347207 0.256328
0.959805 0.396428 0.306489
0.061859 0.342168 0.274535
0.063479 0.345439 0.270407
0.076489 0.331645 0.253941
0.082913 0.312363 0.227220
0.099356 0.295226 0.197514
0.156319 0.314815 0.201340
0.277634 0.357770 0.218559
0.402809 0.390166 0.219255
0.497498 0.380344 0.206727
0.586484 0.361849 0.195951
0.681203 0.342511 0.182047
0.750993 0.344948 0.172271
0.823252 0.365409 0.194126
0.877495 0.391216 0.226795
0.932652 0.423403 0.270392
0.978089 0.464026 0.320328
0.075721 0.415254 0.326114
0.076380 0.413775 0.309786
0.080649 0.405227 0.298514
0.085999 0.381166 0.265485
0.097567 0.356062 0.246623
0.125677 0.348130 0.222513
0.227502 0.394487 0.235981
0.367278 0.449036 0.256410
0.518573 0.496062 0.267490
0.617842 0.495110 0.251916
0.713695 0.485145 0.234895
0.792275 0.475253 0.217021
0.864257 0.466570 0.203991
0.917566 0.484771 0.239232
0.955516 0.513225 0.283211
0.994150 0.546154 0.340099
0.088692 0.480950 0.365333
0.088792 0.478122 0.357956
0.088816 0.468321 0.337673
0.093676 0.449354 0.315081
0.100348 0.424139 0.284186
0.099717 0.383118 0.237117
0.172724 0.412242 0.249817
0.296115 0.466059 0.277495
0.457814 0.534058 0.288933
0.626003 0.592091 0.313591
0.722132 0.603258 0.297604
0.793918 0.595974 0.277032
0.861297 0.582059 0.248797
0.918576 0.565736 0.238926
0.958392 0.569481 0.281422
0.997472 0.592739 0.350908
0.107387 0.554208 0.408312
0.110322 0.559394 0.406342
0.109618 0.547898 0.384258
0.111491 0.526112 0.367049
0.110264 0.495518 0.330189
0.109932 0.457946 0.289025
0.125540 0.439693 0.261310
0.240284 0.485635 0.282069
0.383752 0.555075 0.312342
0.557115 0.626986 0.337557
0.720316 0.701547 0.360506
0.813789 0.713236 0.356867
0.870518 0.706062 0.336127
0.922416 0.689696 0.312940
0.964475 0.666417 0.312609
0.996311 0.657898 0.366681
0.140512 0.647621 0.446869
0.143434 0.644659 0.452367
0.138212 0.633216 0.438640
0.135886 0.620635 0.418139
0.128659 0.588286 0.381158
0.120457 0.546394 0.343878
0.112050 0.496495 0.291387
0.178252 0.509672 0.289647
0.323812 0.581532 0.314496
0.503796 0.665166 0.362431
0.679783 0.745892 0.404120
0.823994 0.810634 0.447573
0.895083 0.819585 0.451101
0.939436 0.807328 0.430611
0.972814 0.795260 0.416685
0.992640 0.776672 0.453657
0.176567 0.733349 0.508601
0.171719 0.730502 0.499988
0.169600 0.719497 0.488443
0.162057 0.700033 0.468052
0.146237 0.671578 0.430242
0.134531 0.637271 0.396491
0.115906 0.583067 0.341495
0.113645 0.540386 0.287451
0.236289 0.594295 0.311053
0.423687 0.676950 0.357605
0.598754 0.765303 0.403131
0.756168 0.823419 0.455062
0.870417 0.866079 0.511609
0.932441 0.871206 0.531116
0.963945 0.861612 0.515631
0.997317 0.844999 0.523268
0.218833 0.813063 0.555533
0.222565 0.810976 0.554658
0.219514 0.810731 0.544422
0.202741 0.792146 0.520722
0.182894 0.771899 0.488698
0.156860 0.734971 0.453068
0.131433 0.690180 0.402360
0.117623 0.631509 0.334799
0.142130 0.618780 0.312524
0.330730 0.696488 0.345982
0.526101 0.784134 0.403633
0.693055 0.845131 0.462951
0.824816 0.884190 0.529046
0.912497 0.909248 0.593356
0.958782 0.914163 0.629722
0.982464 0.905843 0.626595
0.329700 0.904382 0.644422
0.327029 0.899261 0.639149
0.324865 0.902657 0.622827
0.294911 0.891719 0.606347
0.272085 0.877745 0.577594
0.232620 0.859230 0.532092
0.185793 0.824738 0.479971
0.146748 0.781203 0.424045
0.135817 0.726404 0.343771
0.238717 0.760787 0.356436
0.485382 0.844318 0.415984
0.665256 0.891825 0.491575
0.796613 0.916562 0.578899
0.888930 0.930738 0.664347
0.946577 0.947167 0.734508
0.972840 0.948401 0.777632
0.459544 0.958327 0.711616
0.462232 0.955147 0.717796
0.448317 0.956320 0.706695
0.434528 0.954181 0.694733
0.407027 0.949128 0.671365
0.366341 0.938120 0.630545
0.322349 0.929139 0.590594
0.253996 0.916865 0.532762
0.189236 0.889012 0.460330
0.190708 0.867508 0.397372
0.442289 0.903892 0.446427
0.638740 0.935228 0.537453
0.776171 0.949581 0.624683
0.863067 0.957735 0.707507
0.924402 0.959992 0.777974
0.963636 0.966745 0.828728
0.637627 0.990136 0.803374
0.646557 0.989373 0.814056
0.645064 0.986037 0.799914
0.637666 0.989742 0.800571
0.619370 0.991991 0.786520
0.596518 0.989181 0.767956
0.559970 0.990330 0.737857
0.529873 0.989079 0.708140
0.480247 0.990358 0.648711
0.424098 0.992833 0.583654
0.485782 0.988832 0.560455
0.683588 0.985218 0.658501
0.799278 0.980660 0.736549
0.875060 0.984171 0.800294
0.924824 0.975120 0.845344
0.954751 0.979418 0.869813
0.045222 0.082085 0.130479
0.054184 0.077946 0.128816
0.070636 0.079232 0.125010
0.085819 0.081040 0.122420
0.116274 0.080151 0.121479
0.165421 0.088259 0.126278
0.200663 0.090599 0.120972
0.266795 0.100538 0.131975
0.348806 0.094522 0.130582
0.437769 0.082464 0.136346
0.541128 0.099922 0.144479
0.637174 0.118537 0.165537
0.728642 0.136278 0.188307
0.815749 0.153132 0.217428
0.896951 0.191189 0.263920
0.960795 0.271302 0.324301
0.044660 0.091079 0.138408
0.052586 0.091493 0.136702
0.072493 0.091162 0.141891
0.096527 0.093962 0.135272
0.122293 0.095881 0.133863
0.159434 0.101651 0.133342
0.213702 0.108749 0.137215
0.272995 0.117922 0.139663
0.360031 0.108728 0.140337
0.446002 0.095315 0.141940
0.538333 0.099402 0.146987
0.635713 0.118243 0.166295
0.727291 0.135989 0.187581
0.820276 0.154409 0.221631
0.894856 0.204603 0.261143
0.955416 0.276439 0.316504
0.046759 0.111608 0.149943
0.055276 0.115636 0.159498
0.072931 0.117758 0.154973
0.102219 0.117473 0.153098
0.126629 0.123238 0.147841
0.167233 0.128216 0.150414
0.222886 0.135284 0.149615
0.288891 0.134055 0.146965
0.368725 0.129056 0.146438
0.458098 0.121159 0.144130
0.553692 0.109138 0.146629
0.642271 0.119701 0.165451
0.729658 0.136586 0.184824
0.812804 0.160299 0.216897
0.887934 0.216317 0.255442
0.954995 0.283884 0.307976
0.053084 0.160321 0.187812
0.055151 0.161922 0.191241
0.077892 0.162325 0.182185
0.108471 0.160273 0.178600
0.146019 0.165836 0.174328
0.181245 0.167433 0.164583
0.247789 0.165517 0.170580
0.312854 0.166690 0.160091
0.398414 0.162697 0.157510
0.491056 0.160000 0.163202
0.579644 0.154604 0.164982
0.668693 0.159107 0.168248
0.755864 0.178829 0.189451
0.842089 0.216244 0.224413
0.910147 0.268727 0.269876
0.965670 0.329377 0.315722
0.055766 0.230174 0.218063
0.055862 0.230879 0.223092
0.081253 0.223299 0.223033
0.115206 0.211505 0.207777
0.149106 0.215355 0.198844
0.211010 0.223507 0.200376
0.279287 0.212546 0.188215
0.353654 0.207201 0.185779
0.429305 0.211115 0.184125
0.519477 0.206148 0.177324
0.608599 0.203646 0.176735
0.696435 0.215538 0.178515
0.785533 0.238301 0.196937
0.858315 0.278258 0.230369
0.925363 0.324518 0.270287
0.971587 0.378829 0.328077
0.054286 0.295532 0.255429
0.054260 0.294308 0.263415
0.085331 0.288578 0.258057
0.110609 0.274548 0.238686
0.133391 0.263580 0.214668
0.206334 0.285372 0.223318
0.302605 0.297791 0.235338
0.383623 0.283298 0.212295
0.470467 0.266316 0.205577
0.548443 0.267763 0.202048
0.635591 0.264651 0.195628
0.722854 0.277916 0.195354
0.792911 0.299049 0.197123
0.861411 0.324821 0.221757
0.924739 0.372865 0.268519
0.975690 0.421139 0.327084
0.068426 0.376861 0.317911
0.068027 0.371488 0.310309
0.095618 0.364495 0.305341
0.122596 0.347173 0.286015
0.129019 0.323241 0.251959
0.171539 0.323884 0.241429
0.288015 0.365648 0.257246
0.419742 0.399095 0.271793
0.503253 0.380919 0.252486
0.594113 0.369624 0.242350
0.682328 0.355170 0.228305
0.758276 0.364586 0.218998
0.832746 0.380521 0.215807
0.888760 0.403399 0.231398
0.939016 0.436432 0.273570
0.974930 0.475729 0.330128
0.080914 0.441782 0.360620
0.087225 0.439008 0.355822
0.113356 0.435710 0.341295
0.133606 0.419836 0.329193
0.133118 0.387504 0.294227
0.136785 0.364344 0.255734
0.237937 0.401684 0.275157
0.375150 0.459532 0.295187
