Lukas Eriksen LUT Pack 2.0/Lukas Eriksen LUT 11 - Maffei.cube
LUT_3D_SIZE 16
0.001924 0.010704 0.018375
0.023202 0.014509 0.020545
0.116248 0.028705 0.009224
0.253635 0.051404 0.011893
0.380401 0.072025 0.012222
0.493864 0.090165 0.011470
0.610705 0.107484 0.009878
0.747418 0.122875 0.009775
0.896889 0.137608 0.011391
1.014997 0.156820 0.013528
1.061179 0.181645 0.017287
1.069182 0.205374 0.022895
1.069937 0.227032 0.028249
1.069960 0.245550 0.032902
1.069960 0.261666 0.038734
1.069960 0.275714 0.047302
0.000751 0.036998 0.010035
0.016451 0.041153 0.006038
0.091714 0.053557 0.003865
0.204858 0.071140 0.004575
0.310296 0.089851 0.004529
0.409510 0.107111 0.004562
0.508402 0.122211 0.005740
0.622020 0.136841 0.007429
0.768250 0.150480 0.008452
0.920822 0.164970 0.007956
1.024317 0.184550 0.007891
1.063169 0.210414 0.010394
1.069534 0.235926 0.014046
1.069949 0.257376 0.017031
1.069960 0.276211 0.017942
1.069960 0.293355 0.020121
0.008878 0.105808 0.007938
0.031945 0.110926 0.005095
0.091724 0.119394 0.004000
0.178749 0.129903 0.004593
0.268030 0.141676 0.005687
0.352709 0.151651 0.005918
0.440674 0.160957 0.005807
0.539471 0.170600 0.005845
0.662837 0.180319 0.005598
0.819565 0.189474 0.004268
0.962092 0.201322 0.002891
1.043200 0.222569 0.004260
1.066966 0.250707 0.006691
1.069833 0.274751 0.008467
1.069960 0.294831 0.009499
1.069960 0.313299 0.010874
0.031852 0.201965 0.013672
0.061550 0.204926 0.010190
0.119414 0.206695 0.010222
0.182905 0.208676 0.013767
0.254100 0.212744 0.016112
0.327031 0.217530 0.015732
0.405403 0.221810 0.013660
0.494533 0.225879 0.011306
0.601935 0.230861 0.009797
0.741016 0.235862 0.008660
0.892481 0.242228 0.007477
1.009941 0.255699 0.007723
1.060730 0.278240 0.008958
1.069360 0.299571 0.009643
1.069957 0.318626 0.010051
1.069960 0.337391 0.012483
0.064125 0.280435 0.022209
0.098887 0.285070 0.021208
0.155347 0.286554 0.023091
0.209661 0.285367 0.027537
0.260946 0.285314 0.031986
0.321975 0.286883 0.033322
0.391553 0.288525 0.031083
0.471254 0.289939 0.026842
0.565160 0.291872 0.022133
0.681857 0.293712 0.018346
0.829893 0.294659 0.014813
0.971421 0.299898 0.012623
1.049443 0.313893 0.012198
1.068061 0.331109 0.012727
1.069940 0.348430 0.013457
1.069960 0.366941 0.015670
0.100411 0.347265 0.032162
0.139534 0.353443 0.032393
0.187308 0.356704 0.034696
0.236470 0.354935 0.039106
0.281081 0.353382 0.044392
0.328330 0.352664 0.048474
0.389070 0.352874 0.048549
0.460840 0.352977 0.045624
0.543841 0.353301 0.040767
0.643273 0.353506 0.035130
0.776452 0.352000 0.028676
0.930745 0.350964 0.022589
1.034351 0.356965 0.020006
1.066557 0.369278 0.019763
1.069898 0.383696 0.020577
1.069960 0.401697 0.019892
0.138600 0.410278 0.043074
0.180770 0.416100 0.043820
0.219405 0.420125 0.046897
0.257071 0.418782 0.050704
0.298993 0.417458 0.055344
0.342151 0.416234 0.060093
0.392573 0.415019 0.064337
0.456084 0.414153 0.064907
0.531284 0.412961 0.062395
0.619529 0.411614 0.057557
0.732540 0.408992 0.051289
0.882568 0.405463 0.043663
1.007782 0.406132 0.037718
1.061581 0.413637 0.036187
1.069757 0.425252 0.037655
1.069960 0.440678 0.036699
0.180749 0.471124 0.056296
0.224862 0.474960 0.056408
0.260797 0.478494 0.058832
0.285196 0.477314 0.062300
0.314823 0.475832 0.066965
0.356214 0.474536 0.071937
0.403749 0.473014 0.077700
0.458140 0.471276 0.082471
0.524493 0.469147 0.083656
0.603556 0.466449 0.081594
0.702711 0.463433 0.076409
0.832301 0.460076 0.068574
0.967643 0.458113 0.059682
1.049244 0.461756 0.055468
1.069158 0.470831 0.057695
1.069959 0.484953 0.061370
0.226374 0.528974 0.071810
0.274101 0.530536 0.070096
0.308588 0.532364 0.071924
0.330710 0.531205 0.075327
0.342935 0.529738 0.080332
0.370105 0.528638 0.085424
0.415989 0.527552 0.091059
0.466677 0.525781 0.096719
0.523020 0.523197 0.101386
0.592836 0.520001 0.102306
0.679082 0.516367 0.099277
0.791182 0.512935 0.092361
0.923477 0.509508 0.083461
1.029132 0.510162 0.077456
1.067831 0.517565 0.078544
1.069949 0.533486 0.085022
0.272089 0.583616 0.085509
0.316017 0.584170 0.083743
0.342945 0.583771 0.084636
0.360727 0.582909 0.087653
0.370847 0.581929 0.092257
0.387128 0.580848 0.097252
0.426127 0.579796 0.101971
0.474647 0.578088 0.107288
0.527478 0.576109 0.112758
0.590727 0.573606 0.115071
0.667199 0.570381 0.114028
0.763790 0.566933 0.109684
0.884454 0.562728 0.103627
1.007450 0.560248 0.098400
1.063853 0.565996 0.097054
1.069912 0.583660 0.096346
0.309194 0.634108 0.095705
0.350339 0.634919 0.094229
0.367973 0.633807 0.095633
0.374674 0.632385 0.098977
0.385519 0.631922 0.103889
0.403800 0.631256 0.108535
0.440280 0.630251 0.112496
0.482866 0.628972 0.116777
0.533659 0.627258 0.121600
0.593405 0.625080 0.124642
0.661809 0.622360 0.125692
0.744930 0.619005 0.123985
0.851915 0.614329 0.120733
0.970685 0.610839 0.118658
1.052603 0.614025 0.115085
1.069858 0.631765 0.108616
0.329910 0.678241 0.102680
0.358278 0.678195 0.103176
0.370514 0.677364 0.104943
0.377084 0.676868 0.108883
0.394857 0.678770 0.116984
0.423222 0.680368 0.124717
0.459897 0.680265 0.128383
0.498623 0.678890 0.131551
0.542935 0.675711 0.132476
0.598628 0.673786 0.133676
0.662022 0.671657 0.135088
0.735191 0.668912 0.133502
0.826079 0.665244 0.130615
0.937556 0.661436 0.128833
1.039024 0.662559 0.123671
1.069588 0.677442 0.111546
0.335650 0.718034 0.109413
0.360394 0.718359 0.110375
0.373515 0.718423 0.112107
0.381928 0.718595 0.115132
0.403124 0.721276 0.124447
0.439685 0.724643 0.136387
0.480225 0.726164 0.144154
0.518368 0.725547 0.147016
0.558444 0.722819 0.144757
0.603193 0.720730 0.138224
0.660301 0.719050 0.137345
0.726765 0.717040 0.136113
0.804602 0.714933 0.132461
0.906026 0.711332 0.132187
1.029869 0.710115 0.125600
1.069219 0.721155 0.102326
0.336177 0.754081 0.115738
0.359723 0.754901 0.118698
0.377366 0.755820 0.120142
0.392293 0.756887 0.122559
0.414903 0.759877 0.129972
0.452564 0.763703 0.141199
0.495147 0.765646 0.152133
0.537448 0.767336 0.161984
0.576515 0.765520 0.159415
0.616602 0.763958 0.149629
0.661859 0.762807 0.140893
0.720596 0.761533 0.138048
0.789578 0.760943 0.135355
0.875992 0.759379 0.134068
1.007541 0.757232 0.123444
1.068961 0.764719 0.095202
0.352695 0.789963 0.120983
0.370849 0.791883 0.125837
0.388799 0.793339 0.129946
0.407254 0.794969 0.134024
0.430214 0.797158 0.139732
0.461949 0.799919 0.145652
0.501283 0.803115 0.153931
0.540814 0.806952 0.162010
0.581100 0.808354 0.163237
0.624274 0.807896 0.158458
0.669253 0.807048 0.151535
0.725431 0.806246 0.150700
0.786123 0.807245 0.147463
0.853859 0.809776 0.135565
0.970704 0.809268 0.121492
1.064629 0.811228 0.094604
0.396658 0.833277 0.126237
0.410431 0.835986 0.131004
0.414763 0.839047 0.133430
0.425612 0.841861 0.136886
0.441885 0.844714 0.140438
0.468119 0.848131 0.142484
0.496347 0.851534 0.142581
0.525649 0.854966 0.143538
0.564718 0.858513 0.143141
0.611155 0.862609 0.142936
0.660612 0.866501 0.143577
0.712138 0.868774 0.143111
0.765392 0.870929 0.142599
0.825215 0.873277 0.140509
0.911269 0.870432 0.120393
1.056611 0.859575 0.120614
0.001540 0.008380 0.070145
0.023211 0.010599 0.063739
0.113167 0.026396 0.054663
0.234549 0.048305 0.054336
0.340202 0.066296 0.054933
0.443207 0.082255 0.055985
0.549390 0.097742 0.057360
0.673013 0.112506 0.057957
0.824313 0.126458 0.056460
0.964954 0.143017 0.054219
1.043958 0.165389 0.054540
1.066807 0.191893 0.057800
1.069787 0.216614 0.063054
1.069960 0.237826 0.067586
1.069960 0.255737 0.070843
1.069960 0.270516 0.076739
0.002832 0.030207 0.048953
0.017817 0.031529 0.043140
0.087563 0.044652 0.035802
0.186056 0.063127 0.036834
0.284146 0.079954 0.039416
0.378190 0.095143 0.041261
0.474408 0.109986 0.042638
0.579040 0.125124 0.043486
0.708316 0.140270 0.042954
0.865125 0.154346 0.041117
0.994429 0.170989 0.040230
1.054737 0.194433 0.042223
1.068505 0.220284 0.047237
1.069944 0.243355 0.051954
1.069960 0.264784 0.054732
1.069960 0.284957 0.057271
0.010642 0.100022 0.044816
0.033998 0.098016 0.039556
0.089552 0.103695 0.036347
0.169099 0.112889 0.036549
0.253908 0.122917 0.037592
0.336312 0.132680 0.038129
0.422758 0.142726 0.038151
0.517237 0.154216 0.038044
0.630141 0.167044 0.037940
0.778099 0.179383 0.037055
0.927445 0.191406 0.034852
1.027476 0.209099 0.034757
1.064540 0.234219 0.038178
1.069757 0.258957 0.041476
1.069960 0.280962 0.044264
1.069960 0.302227 0.046719
0.032632 0.189047 0.050467
0.059514 0.183606 0.045886
0.116196 0.184761 0.044519
0.175857 0.187392 0.046924
0.243589 0.191000 0.048610
0.315341 0.195901 0.048786
0.393013 0.200845 0.046891
0.480236 0.206950 0.044494
0.582358 0.216071 0.043264
0.713084 0.223919 0.041837
0.865230 0.229858 0.038443
0.992313 0.240306 0.035797
1.055972 0.259818 0.036565
1.068984 0.281796 0.037897
1.069959 0.302597 0.039466
1.069960 0.324175 0.043622
0.064661 0.267396 0.057152
0.097405 0.262648 0.055123
0.151818 0.263710 0.055335
0.203306 0.263002 0.058382
0.252016 0.262582 0.061586
0.311945 0.264153 0.063170
0.381290 0.266329 0.061715
0.460899 0.268670 0.058180
0.553270 0.272671 0.054897
0.666564 0.276109 0.051763
0.813616 0.277543 0.046736
0.956514 0.282069 0.041499
1.043317 0.294944 0.039343
1.067455 0.312718 0.039295
1.069942 0.331350 0.039864
1.069960 0.351479 0.044563
0.104006 0.334831 0.065113
0.139377 0.332070 0.064663
0.184527 0.334062 0.065989
0.231390 0.332461 0.069309
0.274594 0.331056 0.072853
0.320987 0.330768 0.076089
0.381467 0.331526 0.076840
0.452785 0.332126 0.074634
0.535986 0.332989 0.070698
0.635050 0.333378 0.065905
0.767253 0.332226 0.059825
0.919421 0.332028 0.051982
1.028014 0.338698 0.046998
1.066039 0.351771 0.046029
1.069911 0.367667 0.046811
1.069960 0.385418 0.049641
0.144575 0.398717 0.075792
0.179618 0.396639 0.075492
0.217095 0.399607 0.077536
0.255118 0.398376 0.080091
0.296081 0.396834 0.083006
0.338386 0.396023 0.086710
0.388100 0.395571 0.090658
0.450560 0.395284 0.091567
0.524716 0.395074 0.089572
0.611686 0.394119 0.085652
0.723708 0.392092 0.079906
0.870837 0.389327 0.071006
0.999686 0.390812 0.063096
1.060272 0.398866 0.060953
1.069693 0.411810 0.062168
1.069959 0.427444 0.064105
0.183811 0.458303 0.086257
0.217202 0.456402 0.086343
0.252152 0.459288 0.088065
0.280340 0.458725 0.090387
0.314650 0.457902 0.092940
0.355862 0.457126 0.096288
0.402709 0.456583 0.101393
0.455914 0.456116 0.106082
0.520479 0.455249 0.107063
0.597043 0.453281 0.105276
0.694086 0.450744 0.100478
0.820350 0.447981 0.092611
0.957029 0.446688 0.082827
1.044680 0.450726 0.078485
1.068586 0.460782 0.080294
1.069958 0.475205 0.085214
0.225551 0.515226 0.096555
0.255785 0.513781 0.096931
0.287229 0.515285 0.098208
0.313573 0.515103 0.100451
0.338713 0.515161 0.102895
0.371969 0.515088 0.106406
0.417447 0.514997 0.111634
0.467379 0.514461 0.116806
0.522294 0.513497 0.120371
0.589851 0.511347 0.120360
0.673422 0.508185 0.117639
0.780958 0.505120 0.111731
0.910515 0.502741 0.102238
1.021239 0.503734 0.095908
1.066267 0.511318 0.096525
1.069943 0.525852 0.102406
0.267977 0.571699 0.109599
0.296015 0.570293 0.109318
0.320449 0.569892 0.109832
0.341518 0.569995 0.111802
0.364083 0.570347 0.113967
0.389112 0.570333 0.117225
0.429159 0.569881 0.121186
0.477241 0.569085 0.125656
0.528719 0.568317 0.129938
0.589967 0.566628 0.131507
0.664638 0.563809 0.130559
0.757269 0.560697 0.126611
0.873733 0.557669 0.119294
0.997086 0.556110 0.113181
1.062133 0.561484 0.111524
1.069857 0.576310 0.111880
0.307501 0.624394 0.119521
0.334438 0.623391 0.119134
0.350933 0.622611 0.120171
0.361217 0.621915 0.122586
0.380383 0.622076 0.124584
0.407072 0.622172 0.127165
0.444405 0.621671 0.130619
0.486327 0.621463 0.134956
0.535828 0.621200 0.139022
0.594030 0.619653 0.140851
0.660937 0.617302 0.141260
0.740758 0.614342 0.138977
0.842554 0.610937 0.133878
0.961534 0.607777 0.130654
1.049193 0.610021 0.128889
1.069799 0.624408 0.122811
0.339929 0.673648 0.128571
0.371172 0.672179 0.127500
0.382366 0.671377 0.128965
0.387698 0.670666 0.131473
0.399484 0.671052 0.134738
0.426255 0.671944 0.138535
0.463558 0.672382 0.141863
0.501936 0.672397 0.145275
0.545183 0.671826 0.147554
0.599812 0.670244 0.148518
0.662129 0.668289 0.149783
0.732366 0.665487 0.147897
0.817988 0.661907 0.142821
0.928323 0.657868 0.140709
1.034797 0.658137 0.140605
1.069393 0.670320 0.131447
0.349338 0.716364 0.135384
0.380340 0.715555 0.133740
0.395200 0.715736 0.135067
0.402161 0.715888 0.137513
0.413808 0.716539 0.141003
0.443045 0.718325 0.147677
0.483765 0.719992 0.155073
0.521641 0.721285 0.159620
0.561598 0.721080 0.160407
0.607395 0.718664 0.155939
0.663955 0.717182 0.155848
0.727180 0.714633 0.153372
0.798411 0.710880 0.145219
0.898388 0.707190 0.142208
1.026515 0.705322 0.141381
1.069292 0.714405 0.126978
0.351483 0.754031 0.141791
0.378262 0.754436 0.140187
0.396719 0.755374 0.141029
0.409491 0.756201 0.142440
0.424100 0.757266 0.145330
0.456179 0.759383 0.152761
0.498692 0.764052 0.165731
0.540949 0.767652 0.177240
0.581009 0.767421 0.178297
0.622564 0.764774 0.171437
0.667143 0.761367 0.161514
0.722002 0.759429 0.155203
0.785903 0.757443 0.148404
0.871208 0.755428 0.144880
1.006238 0.752283 0.139664
1.069377 0.757921 0.120366
0.362920 0.789666 0.145367
0.379322 0.791385 0.146161
0.396545 0.793600 0.148053
0.413804 0.795667 0.150200
0.434521 0.797637 0.153137
0.466118 0.800380 0.158541
0.505243 0.804970 0.168137
0.544973 0.808220 0.177883
0.586497 0.808905 0.180641
0.628913 0.808214 0.176025
0.670613 0.807023 0.165795
0.723419 0.805936 0.161395
0.785702 0.805085 0.160628
0.857243 0.805675 0.152867
0.976013 0.803873 0.138257
1.066773 0.805838 0.119269
0.391949 0.832189 0.144961
0.408465 0.835009 0.147780
0.416419 0.837998 0.150511
0.426161 0.841063 0.152937
0.443121 0.844134 0.155200
0.470299 0.847351 0.156478
0.498840 0.850455 0.156903
0.529295 0.853721 0.158341
0.569693 0.856616 0.158597
0.615648 0.860369 0.158385
0.664647 0.864057 0.158685
0.715816 0.865759 0.157340
0.768923 0.867370 0.155677
0.829512 0.869753 0.152951
0.923407 0.867680 0.138756
1.061395 0.863513 0.127468
0.000755 0.009435 0.215403
0.018946 0.012339 0.206710
0.106810 0.024996 0.188033
0.214156 0.044091 0.168734
0.306731 0.061411 0.155690
0.392846 0.076420 0.146511
0.483766 0.091256 0.138114
0.587555 0.106185 0.131029
0.718272 0.120279 0.125917
0.872825 0.134464 0.119675
0.997422 0.153131 0.114710
1.052828 0.178663 0.113395
1.067651 0.206253 0.114173
1.069841 0.229790 0.114390
1.069960 0.249414 0.113539
1.069960 0.265806 0.114345
0.003698 0.034672 0.172667
0.020825 0.036309 0.156710
0.088128 0.044781 0.138599
0.176295 0.059200 0.124686
0.260357 0.074268 0.115386
0.338528 0.087902 0.109351
0.419749 0.101568 0.104139
0.508428 0.116254 0.099412
0.614386 0.131994 0.096073
0.752105 0.145743 0.092792
0.903663 0.159509 0.089718
1.015147 0.178678 0.088263
1.060767 0.204924 0.089839
1.069284 0.230717 0.091849
1.069955 0.254006 0.093191
1.069960 0.275884 0.094234
0.008140 0.093929 0.139374
0.036109 0.092214 0.124458
0.089190 0.094702 0.110993
0.161785 0.101858 0.100692
0.236621 0.110978 0.094957
0.310268 0.119898 0.091362
0.387189 0.130273 0.088538
0.470957 0.143032 0.086041
0.568567 0.157950 0.084107
0.690531 0.171829 0.081828
0.841292 0.182501 0.078802
0.978964 0.195813 0.076169
1.051471 0.217211 0.076322
1.068483 0.242617 0.077215
1.069948 0.266857 0.079671
1.069960 0.290689 0.082998
0.031762 0.176938 0.122378
0.065639 0.172370 0.111541
0.116846 0.171812 0.102064
0.171699 0.174088 0.096918
0.234253 0.177618 0.093745
0.300793 0.181971 0.091052
0.372108 0.187325 0.088159
0.451411 0.194662 0.085370
0.542844 0.204613 0.083400
0.653684 0.215176 0.081368
0.796605 0.221865 0.078056
0.944790 0.229584 0.073936
1.039623 0.245155 0.071864
1.067265 0.266983 0.071115
1.069945 0.289729 0.072349
1.069960 0.312856 0.077372
0.067670 0.255438 0.117008
0.102545 0.250999 0.110381
0.151567 0.249769 0.104152
0.199228 0.249602 0.101950
0.245087 0.249636 0.101351
0.302139 0.250761 0.099907
0.367862 0.252777 0.097034
0.441781 0.255750 0.092868
0.526885 0.260430 0.089390
0.628075 0.266349 0.086596
0.760439 0.269514 0.082884
0.913280 0.272438 0.077397
1.025486 0.282150 0.072636
1.065716 0.299492 0.070232
1.069928 0.319531 0.070655
1.069960 0.340698 0.076059
0.107866 0.326038 0.119982
0.144419 0.322920 0.115339
0.184540 0.321450 0.111560
0.227660 0.320035 0.109835
0.268910 0.319006 0.109887
0.313738 0.318420 0.109911
0.372044 0.318829 0.108391
0.440216 0.319669 0.104870
0.519057 0.320984 0.100433
0.610674 0.322963 0.096208
0.727711 0.323663 0.091714
0.881542 0.323180 0.084232
1.009364 0.328331 0.077024
1.063952 0.341469 0.073304
1.069851 0.358146 0.073861
1.069959 0.375734 0.078489
0.150444 0.392812 0.125034
0.185252 0.390152 0.121213
0.217651 0.389006 0.119217
0.253071 0.387777 0.118475
0.292457 0.386599 0.118023
0.333810 0.385874 0.118267
0.382851 0.385382 0.118834
0.444218 0.385039 0.117371
0.516018 0.384893 0.113833
0.598256 0.384651 0.109592
0.701685 0.383621 0.104217
0.842226 0.381668 0.096293
0.980009 0.383251 0.087569
1.055103 0.392278 0.083245
1.069369 0.405919 0.084038
1.069953 0.420022 0.088456
0.192386 0.454780 0.131005
0.224180 0.452509 0.127931
0.254069 0.451373 0.126564
0.280511 0.451145 0.126512
0.313588 0.450669 0.126276
0.353615 0.449900 0.125983
0.399995 0.449169 0.127519
0.452504 0.448716 0.130031
0.515642 0.448007 0.129043
0.588704 0.446803 0.125902
0.679240 0.444851 0.121120
0.798481 0.442453 0.114230
0.937744 0.441545 0.104641
1.036794 0.446663 0.098572
1.067602 0.457170 0.100150
1.069957 0.469038 0.105603
0.233580 0.513454 0.136485
0.261200 0.511069 0.134118
0.287322 0.510133 0.133094
0.311760 0.510271 0.133746
0.336591 0.510744 0.134676
0.370565 0.510438 0.135115
0.416201 0.509754 0.136659
0.465539 0.509482 0.140297
0.519362 0.509186 0.142774
0.584706 0.507511 0.140647
0.664309 0.504942 0.136603
0.766902 0.501859 0.130913
0.894191 0.499492 0.122066
1.012387 0.501469 0.113834
1.064830 0.508949 0.114081
1.069922 0.519637 0.119364
0.269952 0.569119 0.143497
0.294842 0.567275 0.141375
0.314358 0.566645 0.141101
0.335276 0.567100 0.141662
0.358572 0.567763 0.142310
0.388011 0.567833 0.143142
0.429765 0.567213 0.144456
0.477459 0.566814 0.146991
0.528196 0.566606 0.149777
0.587666 0.564795 0.149181
0.659646 0.562028 0.146399
0.749246 0.558530 0.142016
0.862024 0.555389 0.134723
0.987132 0.554471 0.126422
1.060349 0.559194 0.124498
1.069796 0.569672 0.125897
0.305454 0.622942 0.149849
0.330253 0.621347 0.147836
0.344933 0.621100 0.147924
0.356508 0.621295 0.149743
0.376815 0.621757 0.150627
0.406961 0.621809 0.150870
0.446155 0.621054 0.151935
0.488634 0.620469 0.154082
0.537722 0.619848 0.156256
0.594365 0.617819 0.156296
0.658938 0.615379 0.155667
0.736700 0.612348 0.153198
0.834734 0.609105 0.147542
0.952139 0.606926 0.141822
1.045632 0.608723 0.139525
1.069719 0.617775 0.134310
0.338643 0.674145 0.157039
0.367668 0.671570 0.153869
0.380721 0.671452 0.153857
0.387562 0.671592 0.155920
0.399806 0.671969 0.158165
0.427675 0.672239 0.159957
0.466515 0.672313 0.161768
0.505276 0.672554 0.164762
0.547950 0.672349 0.167013
0.601180 0.670639 0.166711
0.661487 0.668702 0.166825
0.730039 0.665024 0.163454
0.812635 0.660493 0.156206
0.919626 0.657419 0.150773
1.030130 0.657046 0.150075
1.069250 0.664197 0.142131
0.351924 0.718052 0.161549
0.381632 0.715933 0.157645
0.398222 0.716288 0.156549
0.405302 0.716532 0.158020
0.416574 0.717779 0.162059
0.446079 0.721624 0.170478
0.486590 0.724784 0.177464
0.524733 0.725640 0.180423
0.564605 0.725060 0.180551
0.610771 0.722707 0.177146
0.666187 0.720415 0.176005
0.727837 0.716086 0.171437
0.795992 0.709301 0.159916
0.891505 0.704858 0.151894
1.021120 0.703171 0.151745
1.069238 0.709307 0.144325
0.353920 0.756432 0.166900
0.379388 0.754909 0.162127
0.399435 0.756024 0.160264
0.413157 0.757423 0.161268
0.428508 0.759746 0.165386
0.461089 0.763856 0.173678
0.502660 0.768014 0.184084
0.543640 0.773008 0.197180
0.583574 0.773516 0.198760
0.626149 0.769934 0.192115
0.672289 0.764715 0.182938
0.725921 0.760584 0.174872
0.786307 0.756245 0.164584
0.866572 0.752328 0.154511
1.003145 0.749114 0.150767
1.069492 0.753274 0.142403
0.369270 0.793868 0.171873
0.385423 0.795342 0.171479
0.404112 0.797421 0.169998
0.420784 0.799526 0.170265
0.440689 0.801718 0.171708
0.471687 0.804302 0.175321
0.509309 0.807645 0.182881
0.547773 0.814409 0.196100
0.588890 0.815787 0.199078
0.631678 0.813253 0.193563
0.674689 0.808631 0.183037
0.726042 0.806556 0.176944
0.786085 0.804879 0.174544
0.857616 0.803055 0.167377
0.977829 0.800321 0.154364
1.067748 0.801599 0.139602
0.391837 0.834362 0.167736
0.407573 0.837195 0.168666
0.422381 0.840241 0.169736
0.432527 0.843189 0.170996
0.448130 0.846125 0.172068
0.474037 0.848993 0.172288
0.502547 0.851740 0.172481
0.533056 0.854414 0.173665
0.573793 0.856632 0.173724
0.620716 0.859488 0.173537
0.669168 0.862632 0.173381
0.720022 0.863869 0.171759
0.772481 0.865531 0.169368
0.833345 0.867420 0.166119
0.930697 0.865217 0.153626
1.063056 0.864499 0.142812
0.003248 0.018503 0.373199
0.024578 0.022700 0.358759
0.103076 0.034393 0.339744
0.201803 0.048010 0.322724
0.286473 0.063114 0.303182
0.362980 0.077622 0.285545
0.440513 0.092041 0.268350
0.527241 0.106540 0.252571
0.633283 0.121213 0.239629
0.766557 0.135289 0.227348
0.911295 0.150483 0.213518
1.016124 0.171736 0.199872
1.059925 0.198842 0.190542
1.069083 0.223894 0.182648
1.069946 0.244488 0.175976
1.069960 0.262352 0.170182
0.003087 0.044158 0.309167
0.022083 0.045595 0.290267
0.086221 0.051925 0.265942
0.165072 0.061592 0.246709
0.239960 0.073864 0.229748
0.311421 0.087804 0.218169
0.384343 0.101863 0.207170
0.464772 0.115680 0.195104
0.557544 0.129744 0.183667
0.671056 0.143417 0.174368
0.812258 0.156536 0.166001
0.952500 0.172429 0.158193
1.039243 0.195702 0.152658
1.065778 0.221110 0.147686
1.069791 0.244905 0.142855
1.069960 0.268798 0.137890
0.007862 0.103615 0.259468
0.035677 0.100249 0.239460
0.090325 0.101563 0.218154
0.156451 0.105097 0.201425
0.224232 0.112442 0.189317
0.291402 0.121288 0.180152
0.360634 0.131362 0.172258
0.436485 0.142302 0.164194
0.522778 0.154779 0.155598
0.624211 0.168228 0.147319
0.753147 0.179527 0.140820
0.904421 0.190556 0.134287
1.018831 0.208270 0.128844
1.062602 0.232029 0.123008
1.069634 0.256455 0.120348
1.069960 0.282015 0.120350
0.028212 0.173203 0.229211
0.067393 0.168004 0.211484
0.119120 0.167320 0.194269
0.167899 0.168230 0.182705
0.227647 0.171100 0.171365
0.290631 0.175248 0.162281
0.355976 0.180373 0.155410
0.426932 0.187007 0.149360
0.508487 0.196138 0.143033
0.604184 0.207293 0.136652
0.724720 0.216143 0.131066
0.877315 0.223596 0.124668
1.005872 0.236859 0.118054
1.061417 0.257742 0.110837
1.069794 0.281936 0.107275
1.069960 0.306285 0.110352
0.065817 0.246372 0.210144
0.103596 0.241749 0.197209
0.152126 0.240777 0.184462
0.195465 0.240703 0.176414
0.239975 0.241103 0.169903
0.295314 0.242542 0.162418
0.356952 0.244126 0.155801
0.424075 0.246448 0.149209
0.501479 0.250747 0.142107
0.591472 0.257545 0.135751
0.703150 0.263250 0.130258
0.851823 0.267269 0.123253
0.989206 0.275725 0.114904
1.059558 0.291958 0.105736
1.069752 0.313415 0.102227
1.069959 0.335790 0.105981
0.107492 0.318451 0.199509
0.145580 0.315183 0.189493
0.185152 0.313890 0.181241
0.224407 0.312567 0.174223
0.263986 0.312025 0.169404
0.307800 0.311981 0.164944
0.363635 0.312205 0.159534
0.427270 0.312193 0.153011
0.500521 0.313114 0.145070
0.583983 0.315667 0.138223
0.685634 0.318414 0.132445
0.826730 0.319816 0.124727
0.970160 0.324340 0.115663
1.053640 0.336294 0.107232
1.069415 0.353966 0.103585
1.069953 0.372503 0.106496
0.150633 0.387466 0.193872
0.186606 0.385018 0.185958
0.218163 0.383793 0.180252
0.250404 0.382742 0.175506
0.287918 0.381940 0.170774
0.328499 0.381602 0.167117
0.376574 0.380731 0.163156
0.435794 0.379633 0.157561
0.504528 0.378847 0.150029
0.581689 0.378639 0.143349
0.675370 0.378772 0.137367
0.801234 0.378580 0.129682
0.944451 0.380273 0.120102
1.041831 0.388793 0.112599
1.068230 0.403178 0.110096
1.069935 0.417822 0.113443
0.193587 0.452133 0.192013
0.225238 0.449957 0.185476
0.254243 0.449052 0.180953
0.277987 0.448973 0.178050
0.309490 0.448790 0.174881
0.348596 0.448219 0.170950
0.394770 0.447025 0.167349
0.447073 0.445648 0.164300
