Lukas Eriksen LUT Pack 2.0/Lukas Eriksen LUT 5 - Circinus.CUBE
LUT_3D_SIZE 6
0.010225 0.031168 0.047634
0.171707 0.093214 0.068090
0.436680 0.149925 0.073972
0.646332 0.207695 0.149689
0.801703 0.270001 0.237745
0.916445 0.330947 0.283953
0.037472 0.209264 0.059773
0.194490 0.215267 0.068558
0.498386 0.223961 0.065080
0.692329 0.270371 0.127938
0.835605 0.325879 0.185362
0.938320 0.374354 0.229335
0.058290 0.387898 0.071688
0.206173 0.433863 0.066691
0.563753 0.382703 0.082463
0.778756 0.354714 0.127540
0.895458 0.415178 0.160861
0.968826 0.481417 0.170738
0.082225 0.524040 0.092950
0.275966 0.572114 0.093823
0.627360 0.628525 0.113954
0.810928 0.580870 0.140687
0.923446 0.523122 0.159017
0.972077 0.564217 0.173222
0.124024 0.630140 0.139570
0.324703 0.662910 0.139759
0.607102 0.721361 0.136308
0.817965 0.812180 0.166638
0.925557 0.794371 0.186315
0.967844 0.701955 0.185650
0.166296 0.857623 0.168341
0.254201 0.883397 0.174555
0.552394 0.901598 0.184165
0.746447 0.913504 0.192585
0.886233 0.926081 0.200903
0.972225 0.925736 0.211963
0.028216 0.115506 0.160486
0.255302 0.143330 0.194448
0.506528 0.173283 0.169917
0.682573 0.213577 0.183468
0.813513 0.276167 0.249840
0.916661 0.330890 0.295118
0.038842 0.202518 0.214861
0.171279 0.240449 0.254943
0.498697 0.263180 0.199576
0.702878 0.237783 0.163269
0.825812 0.291893 0.216954
0.933070 0.352772 0.253824
0.063974 0.425399 0.227849
0.086326 0.473509 0.145667
0.563107 0.435599 0.182942
0.772964 0.387471 0.117600
0.879386 0.438647 0.144980
0.958568 0.508195 0.165674
0.078220 0.502547 0.208393
0.172084 0.592632 0.118094
0.593233 0.635747 0.179198
0.810741 0.616265 0.143935
0.923487 0.542032 0.160567
0.972002 0.591549 0.175590
0.089638 0.556286 0.273655
0.257097 0.668751 0.179883
0.588703 0.717142 0.223095
0.806208 0.817336 0.166739
0.925120 0.793382 0.186100
0.966840 0.706992 0.186150
0.169693 0.869029 0.171764
0.199167 0.888478 0.175727
0.513446 0.908167 0.185361
0.730202 0.923685 0.195129
0.881955 0.933662 0.202988
0.972262 0.935653 0.213184
0.047083 0.232103 0.308497
0.165916 0.243079 0.330818
0.577524 0.291566 0.313711
0.758623 0.304219 0.296226
0.865322 0.345132 0.320978
0.946414 0.376259 0.331236
0.049199 0.257374 0.323282
0.091760 0.311263 0.390925
0.569996 0.348275 0.374355
0.758536 0.346625 0.342460
0.865809 0.373933 0.352565
0.945676 0.404694 0.359683
0.065329 0.412520 0.428793
0.076572 0.474572 0.482026
0.476960 0.521735 0.527230
0.741040 0.529297 0.501850
0.866356 0.516787 0.464436
0.957310 0.537606 0.445047
0.115296 0.654718 0.555892
0.107304 0.625788 0.482439
0.455609 0.668045 0.414685
0.788306 0.682187 0.415107
0.905220 0.638419 0.408191
0.972167 0.673850 0.416836
0.118960 0.674022 0.512515
0.109620 0.637548 0.461717
0.508342 0.741930 0.382685
0.772480 0.812569 0.439582
0.920453 0.804821 0.242720
0.971066 0.732779 0.349759
0.174983 0.883133 0.424278
0.176711 0.891151 0.299670
0.374245 0.972871 0.215616
0.701787 0.951527 0.341761
0.875944 0.944575 0.423545
0.972565 0.944918 0.433394
0.059326 0.338956 0.437824
0.137314 0.336279 0.429739
0.520842 0.401956 0.441217
0.798881 0.384340 0.350827
0.883077 0.403268 0.360919
0.940247 0.492268 0.468666
0.061644 0.352382 0.449366
0.071045 0.382662 0.494099
0.489651 0.411463 0.517136
0.792639 0.424608 0.406952
0.880323 0.449038 0.424381
0.936013 0.536981 0.530481
0.074702 0.426892 0.510205
0.086309 0.478078 0.568348
0.378259 0.530866 0.636095
0.769543 0.563225 0.582771
0.872449 0.589437 0.601191
0.937107 0.622148 0.623413
0.103950 0.581924 0.623036
0.112902 0.625789 0.653794
0.245675 0.679023 0.712612
0.744419 0.732799 0.729206
0.878864 0.747129 0.728033
0.957218 0.748604 0.712624
0.149597 0.779840 0.741072
0.157034 0.805506 0.758581
0.150096 0.780412 0.694178
0.731894 0.821788 0.664351
0.906254 0.847684 0.635521
0.972678 0.824886 0.669962
0.188774 0.913415 0.747344
0.187364 0.915908 0.636985
0.189012 0.925005 0.555150
0.666933 0.973018 0.565537
0.868675 0.954180 0.654548
0.972593 0.955084 0.645949
0.077777 0.422152 0.541578
0.102672 0.422345 0.525254
0.436084 0.462693 0.544842
0.754886 0.497130 0.489303
0.893954 0.531323 0.537272
0.931328 0.587520 0.611445
0.080783 0.433233 0.558340
0.085897 0.448994 0.587959
0.355492 0.467064 0.580383
0.736668 0.533557 0.565781
0.888493 0.560609 0.599016
0.932709 0.613648 0.658428
0.091814 0.485560 0.606929
0.100741 0.517389 0.649891
0.266951 0.542651 0.708774
0.727417 0.582186 0.730052
0.892313 0.624509 0.710995
0.941047 0.679848 0.744288
0.112858 0.571960 0.694853
0.123763 0.613062 0.737173
0.185517 0.640656 0.773995
0.673647 0.720436 0.825004
0.895480 0.742088 0.811572
0.947856 0.779458 0.820331
0.142473 0.702886 0.789554
0.147834 0.728691 0.803397
0.156038 0.757706 0.830197
0.615572 0.821967 0.858964
0.885004 0.870305 0.861036
0.963294 0.876064 0.861866
0.174981 0.843676 0.875368
0.186946 0.900405 0.897392
0.197405 0.934068 0.895708
0.454895 0.957179 0.814796
0.856933 0.973172 0.802630
0.973078 0.964507 0.820298
0.100921 0.512203 0.654671
0.097932 0.513050 0.632404
0.360619 0.534184 0.605386
0.731487 0.593573 0.673275
0.876569 0.620987 0.716450
0.956398 0.667308 0.800333
0.105325 0.517941 0.681477
0.108875 0.525617 0.701145
0.298265 0.542076 0.678957
0.690876 0.575502 0.746051
0.884606 0.614581 0.762876
0.962141 0.673654 0.829413
0.112563 0.546559 0.710351
0.118995 0.564142 0.739721
0.135608 0.572798 0.783293
0.568244 0.595901 0.812931
0.874281 0.645732 0.856501
0.968462 0.704877 0.875024
0.131294 0.614544 0.782112
0.139996 0.644527 0.813764
0.143612 0.651060 0.829641
0.568053 0.711777 0.882675
0.845605 0.739952 0.896086
0.970807 0.772440 0.911016
0.149860 0.685724 0.842866
0.156484 0.710515 0.863277
0.160156 0.722821 0.875238
0.546720 0.775773 0.895368
0.859834 0.858311 0.917787
0.970828 0.862938 0.932891
0.171664 0.778883 0.900921
0.176740 0.803495 0.911769
0.181399 0.826907 0.920800
0.426550 0.866992 0.933704
0.827768 0.929631 0.943448
0.971041 0.971174 0.947634
