Lukas Eriksen LUT Pack 2.0/Lukas Eriksen LUT 11 - Maffei.cube
LUT_3D_SIZE 6
0.001924 0.010704 0.018375
0.253635 0.051404 0.011893
0.610705 0.107484 0.009878
1.014997 0.156820 0.013528
1.069937 0.227032 0.028249
1.069960 0.275714 0.047302
0.031852 0.201965 0.013672
0.182905 0.208676 0.013767
0.405403 0.221810 0.013660
0.741016 0.235862 0.008660
1.060730 0.278240 0.008958
1.069960 0.337391 0.012483
0.138600 0.410278 0.043074
0.257071 0.418782 0.050704
0.392573 0.415019 0.064337
0.619529 0.411614 0.057557
1.007782 0.406132 0.037718
1.069960 0.440678 0.036699
0.272089 0.583616 0.085509
0.360727 0.582909 0.087653
0.426127 0.579796 0.101971
0.590727 0.573606 0.115071
0.884454 0.562728 0.103627
1.069912 0.583660 0.096346
0.335650 0.718034 0.109413
0.381928 0.718595 0.115132
0.480225 0.726164 0.144154
0.603193 0.720730 0.138224
0.804602 0.714933 0.132461
1.069219 0.721155 0.102326
0.396658 0.833277 0.126237
0.425612 0.841861 0.136886
0.496347 0.851534 0.142581
0.611155 0.862609 0.142936
0.765392 0.870929 0.142599
1.056611 0.859575 0.120614
0.003248 0.018503 0.373199
0.201803 0.048010 0.322724
0.440513 0.092041 0.268350
0.766557 0.135289 0.227348
1.059925 0.198842 0.190542
1.069960 0.262352 0.170182
0.028212 0.173203 0.229211
0.167899 0.168230 0.182705
0.355976 0.180373 0.155410
0.604184 0.207293 0.136652
1.005872 0.236859 0.118054
1.069960 0.306285 0.110352
0.150633 0.387466 0.193872
0.250404 0.382742 0.175506
0.376574 0.380731 0.163156
0.581689 0.378639 0.143349
0.944451 0.380273 0.120102
1.069935 0.417822 0.113443
0.274391 0.572686 0.193648
0.335456 0.570276 0.184417
0.427700 0.569332 0.179542
0.583940 0.564983 0.174926
0.847964 0.555659 0.156024
1.069687 0.567205 0.142310
0.353018 0.726890 0.200034
0.405367 0.724776 0.189383
0.487459 0.732219 0.207423
0.612322 0.728099 0.200653
0.794674 0.710383 0.176697
1.068988 0.706250 0.161758
0.395318 0.842603 0.195760
0.438205 0.851095 0.196164
0.505774 0.858814 0.194268
0.623599 0.862928 0.191837
0.775321 0.865313 0.185973
1.064425 0.865517 0.164124
0.019830 0.090299 0.591201
0.182344 0.095604 0.570314
0.368444 0.116878 0.569596
0.584343 0.156466 0.532998
0.926668 0.205400 0.471323
1.069862 0.268416 0.423201
0.057498 0.221050 0.503499
0.173205 0.206649 0.462211
0.319713 0.205635 0.430504
0.517646 0.224097 0.397721
0.821922 0.246531 0.361785
1.068769 0.300891 0.316090
0.146535 0.378681 0.445927
0.245933 0.374527 0.414286
0.355968 0.373832 0.384189
0.530679 0.374452 0.348329
0.793198 0.380672 0.313239
1.068352 0.413802 0.276117
0.277040 0.573153 0.406297
0.333895 0.571611 0.390242
0.417571 0.570692 0.369785
0.563910 0.567533 0.332858
0.783914 0.561396 0.293096
1.067618 0.573565 0.255980
0.362769 0.740948 0.388266
0.408711 0.745262 0.372396
0.482178 0.743759 0.357375
0.604853 0.740888 0.330254
0.777942 0.734636 0.297961
1.064080 0.725049 0.263285
0.406492 0.880087 0.360637
0.457893 0.890899 0.350662
0.531315 0.898594 0.330540
0.609061 0.904225 0.309903
0.775464 0.900661 0.276470
1.065652 0.879285 0.247818
0.072821 0.177382 0.772981
0.172756 0.164647 0.763818
0.333033 0.169589 0.752136
0.488779 0.191146 0.744925
0.709886 0.241008 0.718567
1.030638 0.284257 0.674994
0.097784 0.285046 0.717756
0.187155 0.259771 0.695788
0.303920 0.254469 0.677278
0.472040 0.266176 0.649982
0.691004 0.285812 0.622871
1.013192 0.317803 0.580429
0.151042 0.401455 0.679943
0.258360 0.398062 0.646219
0.348803 0.399958 0.624578
0.496286 0.403420 0.596217
0.695379 0.403931 0.565286
1.030928 0.424550 0.521340
0.288125 0.572215 0.631566
0.339969 0.572384 0.618133
0.417571 0.571418 0.598203
0.541480 0.572832 0.567833
0.723120 0.574889 0.528792
1.038231 0.582349 0.477874
0.370284 0.734059 0.610223
0.418296 0.739290 0.598306
0.491632 0.739777 0.583739
0.601161 0.741934 0.556092
0.752248 0.745791 0.519128
1.045647 0.740589 0.455868
0.420178 0.878049 0.573600
0.469887 0.889275 0.565230
0.554262 0.899408 0.546231
0.649900 0.914957 0.513922
0.772067 0.931532 0.490001
1.059485 0.939627 0.415862
0.060162 0.215761 0.961615
0.164226 0.191032 0.956915
0.281257 0.195796 0.948451
0.435234 0.222250 0.924107
0.631542 0.265377 0.888599
0.842554 0.310887 0.886941
0.186034 0.357443 0.869823
0.219070 0.311834 0.876498
0.313804 0.315620 0.866168
0.455755 0.327379 0.844991
0.625717 0.342738 0.818882
0.851945 0.352633 0.805366
0.187241 0.429049 0.865998
0.282578 0.435353 0.840064
0.360696 0.438698 0.825472
0.483576 0.441979 0.805642
0.642712 0.447961 0.784652
0.890240 0.455749 0.750965
0.308882 0.592372 0.830259
0.356677 0.590529 0.816613
0.430308 0.592150 0.799674
0.534813 0.594714 0.778041
0.678529 0.599360 0.752630
0.935817 0.607396 0.709702
0.389414 0.742393 0.809798
0.437255 0.745839 0.802490
0.503995 0.748058 0.786176
0.601726 0.751370 0.764247
0.733623 0.758020 0.736980
1.000983 0.759969 0.683911
0.425058 0.882384 0.789383
0.481087 0.892437 0.773715
0.565074 0.903254 0.753951
0.666968 0.918447 0.733895
0.775700 0.940951 0.729995
1.067693 0.964466 0.598984
0.083549 0.257596 1.057056
0.162387 0.230370 1.057901
0.261455 0.230383 1.057004
0.398993 0.248662 1.052363
0.561093 0.287023 1.034689
0.736955 0.337566 1.016554
0.114835 0.373008 1.035076
0.225440 0.352415 1.021387
0.394060 0.419984 0.986899
0.527656 0.441858 0.987246
0.579579 0.375682 0.994653
0.747176 0.397238 0.982107
0.219618 0.485347 0.999266
0.309852 0.499849 0.988106
0.388787 0.496547 0.981076
0.503287 0.499794 0.983821
0.596115 0.480325 0.985625
0.780048 0.494002 0.972972
0.330262 0.629803 0.973461
0.386060 0.616968 0.975239
0.446335 0.621405 0.973098
0.526884 0.623428 0.969379
0.631898 0.612165 0.978825
0.825278 0.651071 0.961895
0.379690 0.762374 0.979056
0.443079 0.764453 0.978758
0.509919 0.764490 0.980131
0.593358 0.769050 0.979017
0.705888 0.785549 0.974703
0.900260 0.792136 0.986100
0.425823 0.894723 0.981407
0.492018 0.905996 0.982482
0.579466 0.922764 0.986686
0.687025 0.955714 1.001611
0.794770 0.986658 1.016057
1.054385 1.052688 1.049008
