Lukas Eriksen LUT Pack 2.0/Lukas Eriksen LUT 14 - Messier.cube
LUT_3D_SIZE 16
0.000000 0.010451 0.009242
0.000718 0.010659 0.000487
0.013493 0.019003 0.000000
0.052765 0.032219 0.000000
0.105715 0.048741 0.000000
0.163609 0.066853 0.001049
0.221310 0.084046 0.008039
0.279601 0.100103 0.026955
0.341817 0.115822 0.050152
0.407604 0.131077 0.072355
0.470610 0.145369 0.092118
0.525504 0.157784 0.108201
0.577463 0.170289 0.122601
0.624742 0.182232 0.134796
0.669995 0.194176 0.145510
0.720650 0.208417 0.157238
0.000000 0.030734 0.000875
0.001619 0.032026 0.000000
0.016485 0.035034 0.000000
0.051027 0.046001 0.000000
0.093844 0.059922 0.000062
0.144657 0.075785 0.000954
0.200871 0.092340 0.006717
0.262639 0.109371 0.027417
0.331254 0.126081 0.052373
0.401275 0.141978 0.075677
0.469979 0.157214 0.096377
0.539586 0.172634 0.115768
0.604191 0.187045 0.132373
0.658486 0.199537 0.145188
0.706294 0.210923 0.155729
0.754706 0.222811 0.165752
0.000254 0.055077 0.000000
0.003009 0.056126 0.000000
0.017954 0.059397 0.000000
0.050671 0.068523 0.000000
0.090374 0.080981 0.000134
0.135587 0.094367 0.001534
0.188866 0.108948 0.009613
0.252193 0.125225 0.031455
0.324644 0.142223 0.058403
0.399160 0.158295 0.082696
0.469775 0.173122 0.102773
0.542402 0.189035 0.121883
0.618446 0.205798 0.140362
0.683432 0.219838 0.154730
0.739822 0.232624 0.166503
0.798446 0.246358 0.177768
0.002612 0.079828 0.000000
0.007198 0.081960 0.000000
0.025833 0.086861 0.000000
0.054227 0.094641 0.000010
0.091518 0.105196 0.000269
0.135538 0.117440 0.002682
0.187224 0.130500 0.015622
0.250071 0.145565 0.038824
0.323470 0.162167 0.066670
0.400717 0.178360 0.091462
0.472667 0.192732 0.110624
0.547076 0.207780 0.129010
0.626738 0.223977 0.147268
0.695419 0.237234 0.161439
0.758122 0.250141 0.173501
0.827037 0.265395 0.186157
0.012780 0.107602 0.000010
0.018592 0.111613 0.000025
0.039865 0.116933 0.000048
0.067174 0.123669 0.000219
0.097040 0.131357 0.001504
0.138287 0.141629 0.007023
0.190470 0.153860 0.024653
0.253306 0.168157 0.049522
0.325869 0.184008 0.076602
0.404368 0.200190 0.100771
0.479616 0.214842 0.119789
0.557020 0.229191 0.137519
0.637451 0.243832 0.154517
0.709074 0.256524 0.168512
0.776964 0.269184 0.180815
0.856201 0.285457 0.194657
0.024837 0.136669 0.000210
0.036897 0.141985 0.000344
0.054959 0.146984 0.000624
0.081482 0.152556 0.001551
0.109889 0.159119 0.006613
0.143749 0.167211 0.015742
0.194089 0.178484 0.036357
0.258427 0.192754 0.062467
0.332423 0.208620 0.088780
0.411112 0.224678 0.111394
0.489318 0.239498 0.130087
0.570470 0.253568 0.147396
0.654656 0.267241 0.163535
0.730459 0.279786 0.177439
0.802103 0.292393 0.189895
0.886681 0.308674 0.203753
0.041950 0.168908 0.003733
0.055502 0.173857 0.005376
0.074163 0.179300 0.008380
0.094193 0.182683 0.011279
0.122503 0.188615 0.020447
0.154184 0.195508 0.032112
0.199990 0.205728 0.052536
0.263018 0.219430 0.077190
0.338938 0.235404 0.102204
0.419742 0.251466 0.123374
0.500315 0.266150 0.141131
0.583764 0.279873 0.157800
0.670430 0.292889 0.173063
0.751289 0.305698 0.186908
0.828672 0.319216 0.199937
0.919097 0.337163 0.214056
0.061423 0.204783 0.016058
0.079899 0.209113 0.021107
0.098157 0.213759 0.026748
0.113489 0.216134 0.031921
0.134400 0.219822 0.040058
0.166769 0.226335 0.053439
0.212620 0.237275 0.073899
0.272930 0.251603 0.095780
0.347077 0.266435 0.117901
0.428659 0.281257 0.136754
0.510320 0.295453 0.153128
0.593745 0.308999 0.168500
0.680738 0.321740 0.182896
0.765321 0.334594 0.196601
0.849941 0.348031 0.209794
0.939938 0.365807 0.223714
0.085468 0.245945 0.042403
0.108321 0.248031 0.048135
0.131238 0.252668 0.056959
0.146416 0.254457 0.062308
0.156786 0.257571 0.066963
0.183569 0.265566 0.079121
0.231398 0.277490 0.098866
0.293599 0.292834 0.119589
0.365776 0.308336 0.138936
0.448786 0.323360 0.155987
0.533382 0.337411 0.170910
0.617762 0.350403 0.184945
0.704519 0.363644 0.198532
0.791059 0.377141 0.211783
0.880720 0.390528 0.224516
0.963426 0.409733 0.239915
0.112506 0.292675 0.071817
0.138697 0.291511 0.077986
0.156899 0.293262 0.083684
0.172795 0.296605 0.089790
0.185359 0.302677 0.096068
0.204494 0.309764 0.104636
0.247760 0.319704 0.120627
0.310771 0.334361 0.140200
0.383280 0.349647 0.157283
0.465026 0.364491 0.173904
0.551320 0.379120 0.187850
0.637898 0.393199 0.201128
0.725076 0.407363 0.214283
0.812001 0.421678 0.226984
0.898930 0.434388 0.238853
0.971374 0.453784 0.255350
0.140455 0.338325 0.099081
0.166504 0.337853 0.105045
0.182976 0.340178 0.110324
0.191362 0.343680 0.113939
0.204899 0.350016 0.119894
0.225771 0.356389 0.127782
0.269382 0.365210 0.141665
0.326071 0.376542 0.158295
0.398547 0.390353 0.174504
0.480344 0.404412 0.190249
0.565236 0.419233 0.204277
0.651700 0.433690 0.216701
0.738622 0.448324 0.228962
0.829417 0.466776 0.242463
0.911821 0.478989 0.253913
0.977168 0.498004 0.271513
0.159427 0.380322 0.119741
0.178452 0.382138 0.124473
0.191062 0.384498 0.128360
0.199209 0.388587 0.131753
0.219286 0.399058 0.140026
0.251264 0.410096 0.151146
0.299985 0.419306 0.165825
0.354508 0.428212 0.180374
0.419023 0.435182 0.192863
0.496956 0.446301 0.206497
0.579515 0.460152 0.220991
0.661268 0.473625 0.232246
0.744414 0.487429 0.243105
0.833489 0.505215 0.255467
0.915695 0.519530 0.267855
0.983700 0.541864 0.289240
0.170084 0.422860 0.137021
0.186153 0.425423 0.140941
0.199081 0.428143 0.144694
0.207644 0.431516 0.147646
0.229568 0.442378 0.155780
0.273874 0.460184 0.170928
0.331835 0.475375 0.188289
0.391744 0.484570 0.202713
0.452239 0.487468 0.214191
0.511581 0.488322 0.222471
0.589849 0.501201 0.235892
0.670445 0.515434 0.248280
0.749448 0.529962 0.258363
0.833600 0.545076 0.268906
0.920102 0.562897 0.283873
0.982225 0.588258 0.313114
0.178201 0.463909 0.152365
0.190237 0.467623 0.155514
0.207051 0.471039 0.159889
0.221207 0.474963 0.163904
0.243392 0.483608 0.170901
0.290517 0.499292 0.185297
0.354597 0.519066 0.203971
0.429411 0.536269 0.223508
0.493262 0.541105 0.235400
0.547500 0.538642 0.242346
0.608593 0.544103 0.250716
0.685347 0.557736 0.263150
0.762905 0.573274 0.274090
0.842860 0.589762 0.285224
0.927595 0.609917 0.304738
0.975846 0.639880 0.349877
0.192098 0.506206 0.167952
0.205273 0.511475 0.171881
0.221648 0.516061 0.176260
0.238261 0.520480 0.180588
0.261298 0.525988 0.186549
0.302938 0.537387 0.197971
0.363757 0.554354 0.214715
0.432711 0.569827 0.232252
0.504065 0.579696 0.247251
0.573211 0.585771 0.258762
0.636458 0.590438 0.267205
0.713852 0.603915 0.279712
0.793773 0.622530 0.293552
0.870088 0.643718 0.308539
0.946946 0.668642 0.343254
0.967026 0.692883 0.397106
0.234720 0.560311 0.192256
0.245538 0.565089 0.195505
0.249157 0.568991 0.197406
0.260640 0.573325 0.200899
0.280161 0.578559 0.206180
0.313453 0.585728 0.214512
0.357104 0.593675 0.224840
0.410634 0.603083 0.237240
0.493241 0.616744 0.255153
0.587822 0.634404 0.274432
0.679526 0.653439 0.291136
0.761102 0.670981 0.305544
0.836739 0.690086 0.321656
0.904102 0.710440 0.346568
0.946692 0.729118 0.399077
0.959213 0.742053 0.448901
0.000013 0.020842 0.044900
0.001201 0.023589 0.032467
0.013892 0.031209 0.006895
0.049973 0.041477 0.001353
0.099338 0.055691 0.001681
0.159427 0.072679 0.005524
0.225174 0.090622 0.016873
0.293022 0.107666 0.039812
0.362879 0.123616 0.062486
0.431867 0.138858 0.083023
0.496744 0.153421 0.101328
0.558456 0.167629 0.117985
0.615325 0.181050 0.132497
0.664333 0.193547 0.144357
0.705491 0.204506 0.153793
0.751522 0.217731 0.164022
0.000179 0.042942 0.032079
0.001587 0.044285 0.020147
0.015280 0.046203 0.003701
0.049962 0.054491 0.001327
0.094850 0.067016 0.001332
0.149943 0.082235 0.004095
0.214687 0.099762 0.015985
0.284748 0.117821 0.039261
0.359173 0.135830 0.064630
0.433563 0.152633 0.087752
0.504188 0.167891 0.107538
0.572636 0.182502 0.125111
0.635571 0.195746 0.140031
0.688526 0.207487 0.151924
0.735882 0.218997 0.162255
0.783719 0.231096 0.171848
0.001816 0.071881 0.017424
0.004012 0.072288 0.007239
0.017913 0.073169 0.002288
0.052347 0.078349 0.001198
0.095230 0.088459 0.001105
0.144618 0.100856 0.003973
0.203836 0.115783 0.017275
0.274173 0.133296 0.041488
0.351768 0.151539 0.068903
0.430905 0.168650 0.093453
0.503967 0.183700 0.113304
0.576553 0.198494 0.131114
0.650422 0.213678 0.147758
0.711335 0.226579 0.160524
0.764902 0.239133 0.171469
0.821899 0.252951 0.182252
0.008095 0.101995 0.009079
0.011639 0.101560 0.005048
0.028795 0.102195 0.002433
0.056457 0.105593 0.001210
0.096143 0.113098 0.001335
0.144230 0.124024 0.006103
0.200850 0.136995 0.022755
0.268919 0.152612 0.047638
0.346560 0.170040 0.075484
0.427786 0.186751 0.100022
0.502283 0.201200 0.119232
0.575802 0.215148 0.136435
0.652234 0.229454 0.152709
0.716683 0.241820 0.165632
0.774841 0.253856 0.176736
0.842202 0.269216 0.188957
0.020311 0.131478 0.007797
0.024375 0.130874 0.005841
0.043829 0.130646 0.002973
0.070752 0.133951 0.002103
0.101136 0.139078 0.003295
0.146163 0.148443 0.012218
0.202559 0.160159 0.031806
0.269793 0.174061 0.057138
0.346175 0.189947 0.083757
0.426968 0.205744 0.106986
0.503733 0.220059 0.125811
0.578580 0.233174 0.142295
0.654658 0.245944 0.157616
0.722390 0.257732 0.170729
0.786113 0.269780 0.182329
0.864007 0.286045 0.195742
0.033407 0.161919 0.010545
0.043087 0.160396 0.007759
0.059436 0.160687 0.005669
0.086854 0.163503 0.006667
0.116208 0.168073 0.012394
0.152842 0.175543 0.023791
0.207382 0.186363 0.045160
0.275369 0.199574 0.070535
0.352213 0.214354 0.095496
0.431448 0.228913 0.116493
0.510030 0.242683 0.134450
0.587594 0.255273 0.150414
0.666440 0.267443 0.165179
0.736718 0.277997 0.177870
0.802917 0.288915 0.189244
0.886358 0.305345 0.202883
0.051841 0.193459 0.018917
0.061297 0.191657 0.016031
0.080032 0.194204 0.018105
0.101780 0.195693 0.020852
0.132196 0.200387 0.030551
0.166768 0.207191 0.043565
0.216761 0.218236 0.064782
0.284650 0.231438 0.088434
0.363828 0.245849 0.111392
0.445602 0.259969 0.130610
0.526785 0.273209 0.147499
0.607905 0.285357 0.162742
0.690445 0.297251 0.176782
0.768507 0.308774 0.189734
0.838158 0.319058 0.200902
0.914340 0.330881 0.212243
0.069986 0.228880 0.035513
0.083018 0.227420 0.034941
0.101837 0.229426 0.038413
0.119830 0.231833 0.043900
0.146899 0.236221 0.054037
0.182728 0.242849 0.067856
0.232196 0.254650 0.088314
0.296589 0.268702 0.108938
0.375436 0.282922 0.129602
0.460841 0.297180 0.147023
0.545092 0.310344 0.162901
0.628484 0.322272 0.177172
0.711756 0.333506 0.190256
0.795033 0.345536 0.203204
0.876320 0.357442 0.215059
0.952823 0.371732 0.227495
0.092635 0.269759 0.059205
0.107098 0.267798 0.060163
0.125955 0.269249 0.064782
0.146543 0.272432 0.072275
0.166448 0.275891 0.079613
0.199303 0.282777 0.092106
0.249836 0.294322 0.110939
0.314658 0.309112 0.130546
0.388108 0.323625 0.148495
0.472524 0.337682 0.164293
0.559547 0.351140 0.178762
0.644616 0.363149 0.191976
0.727098 0.374131 0.204103
0.811682 0.386322 0.216567
0.897201 0.398051 0.228354
0.969388 0.413590 0.242465
0.118955 0.315991 0.085646
0.134716 0.313863 0.087788
0.153013 0.313962 0.092386
0.169131 0.316236 0.097491
0.190226 0.320182 0.104770
0.217757 0.326661 0.114976
0.264453 0.336208 0.130788
0.330220 0.350464 0.149629
0.403826 0.364926 0.165749
0.486434 0.378717 0.181726
0.574444 0.392551 0.195140
0.659952 0.405176 0.207398
0.741914 0.417241 0.219047
0.827725 0.431417 0.231390
0.910442 0.442838 0.242708
0.972867 0.454378 0.256396
0.146253 0.360238 0.109589
0.165240 0.358538 0.113180
0.177120 0.359043 0.116049
0.186869 0.361914 0.119489
0.207563 0.366105 0.126333
0.237372 0.371861 0.136041
0.285000 0.380820 0.150378
0.344721 0.392567 0.167049
0.419173 0.406362 0.182924
0.502529 0.419669 0.198346
0.589202 0.434197 0.211965
0.674020 0.447463 0.223437
0.756173 0.460430 0.234492
0.844714 0.477410 0.247299
0.927151 0.490463 0.259511
0.977248 0.498300 0.272737
0.172824 0.406307 0.131854
0.197579 0.404095 0.136440
0.209626 0.406265 0.139995
0.215842 0.409378 0.142494
0.229129 0.413785 0.146992
0.260275 0.420293 0.156374
0.312332 0.429342 0.171474
0.369608 0.439808 0.186525
0.437926 0.451183 0.200590
0.519461 0.463625 0.214932
0.605190 0.477854 0.229572
0.683997 0.488790 0.239360
0.758844 0.498400 0.247898
0.847140 0.515736 0.260112
0.933881 0.532932 0.275080
0.983580 0.540810 0.289784
0.183671 0.448036 0.147949
0.209062 0.446260 0.152494
0.224318 0.448700 0.156524
0.231803 0.451943 0.159095
0.244473 0.457016 0.163328
0.282254 0.469055 0.175144
0.342765 0.484186 0.192810
0.404891 0.495113 0.207844
0.471478 0.504178 0.221675
0.539263 0.509355 0.232229
0.618296 0.519926 0.244902
0.690528 0.527877 0.254026
0.751397 0.530441 0.258790
0.835894 0.546697 0.269770
0.928281 0.567783 0.287496
0.982744 0.580577 0.309024
0.190106 0.486870 0.161681
0.209093 0.485532 0.164723
0.226952 0.488248 0.169048
0.239536 0.491436 0.172434
0.255012 0.496924 0.177054
0.299303 0.510654 0.190156
0.364671 0.529393 0.208672
0.438767 0.547201 0.227908
0.510395 0.557719 0.242320
0.577726 0.561003 0.252251
0.634129 0.559851 0.258173
0.695429 0.562948 0.265800
0.759059 0.569435 0.272669
0.837989 0.584902 0.283048
0.926925 0.604771 0.302112
0.977130 0.631774 0.343632
0.198983 0.522328 0.174374
0.212477 0.525187 0.177581
0.228594 0.530001 0.181868
0.244777 0.534999 0.186210
0.268032 0.541498 0.192446
0.311772 0.552095 0.203947
0.373501 0.567349 0.220122
0.443677 0.583931 0.237896
0.520963 0.595049 0.253948
0.592794 0.600196 0.265212
0.649881 0.600566 0.271595
0.720033 0.609405 0.282038
0.801500 0.626580 0.295656
0.875824 0.643153 0.309136
0.947942 0.663536 0.340778
0.968122 0.687711 0.393403
0.228196 0.563267 0.192273
0.241037 0.567837 0.195811
0.247657 0.573382 0.198809
0.257119 0.578887 0.202298
0.279098 0.585312 0.208347
0.314310 0.591685 0.216666
0.360337 0.598760 0.227001
0.422579 0.610442 0.241337
0.510104 0.624073 0.259725
0.604945 0.641259 0.278582
0.695749 0.659885 0.294984
0.773996 0.675687 0.308688
0.845231 0.692313 0.323642
0.909244 0.711565 0.349657
0.950271 0.731010 0.407225
0.958995 0.747746 0.456729
0.000033 0.042940 0.144417
0.002341 0.043712 0.130368
0.018057 0.047590 0.094476
0.048989 0.055854 0.064904
0.090873 0.066360 0.049991
0.144106 0.079226 0.048906
0.210023 0.094879 0.061529
0.283314 0.111666 0.078031
0.359441 0.127166 0.093555
0.433304 0.141762 0.106681
0.503387 0.156526 0.119196
0.572924 0.172909 0.132365
0.641150 0.189934 0.145761
0.695602 0.203571 0.155832
0.739552 0.215168 0.163419
0.781854 0.227106 0.171253
0.000661 0.065097 0.144682
0.003025 0.065495 0.128033
0.017896 0.067240 0.094447
0.047941 0.072782 0.065057
0.086952 0.081010 0.043970
0.138429 0.092817 0.041584
0.203393 0.108004 0.054094
0.279699 0.125677 0.071810
0.361743 0.143501 0.090223
0.442592 0.159921 0.106964
0.519098 0.175499 0.122413
0.593323 0.190875 0.137399
0.665449 0.206247 0.151299
0.724124 0.219007 0.161959
0.774287 0.230993 0.170988
0.821980 0.242508 0.179699
0.004551 0.093828 0.133814
0.008112 0.093852 0.112785
0.020812 0.094156 0.087696
0.049993 0.095859 0.059350
0.088223 0.101565 0.037853
0.138550 0.111506 0.037675
0.200798 0.124973 0.049473
0.276527 0.141612 0.068192
0.360929 0.159819 0.088980
0.445934 0.177603 0.108123
0.525128 0.193379 0.125479
0.603429 0.208513 0.141757
0.680482 0.223562 0.156689
0.745455 0.236711 0.168515
0.803748 0.250016 0.179300
0.865321 0.264461 0.189947
0.013479 0.126341 0.118648
0.017544 0.126263 0.100011
0.032254 0.125389 0.076177
0.055487 0.125591 0.053634
0.091877 0.128633 0.034138
0.141867 0.137118 0.037270
0.202763 0.148700 0.051062
0.276630 0.163348 0.070546
0.361475 0.180597 0.092704
0.448399 0.198055 0.113151
0.529261 0.213534 0.131016
0.608543 0.227856 0.146963
0.687072 0.241918 0.161784
0.755534 0.254007 0.174279
0.816315 0.265796 0.185009
0.884790 0.280968 0.196542
0.026374 0.159412 0.104826
0.030339 0.159170 0.091532
0.046001 0.156708 0.067845
0.069667 0.155713 0.049361
0.097833 0.156297 0.037009
0.144714 0.162338 0.041191
0.205888 0.172753 0.056871
0.279419 0.186166 0.077296
0.363472 0.202096 0.099299
0.450609 0.218623 0.119172
0.533719 0.233584 0.136904
0.614663 0.247260 0.152742
0.693921 0.260316 0.167206
0.765423 0.271812 0.179950
0.828321 0.282486 0.190655
0.901679 0.297183 0.202579
0.041115 0.194955 0.100199
0.049553 0.192973 0.085643
0.061993 0.190508 0.068835
0.086403 0.187588 0.054656
0.114431 0.187503 0.048981
0.152208 0.190890 0.052238
0.210993 0.199788 0.067232
0.285086 0.212175 0.087564
0.369001 0.226509 0.108322
0.455198 0.241519 0.126947
0.539501 0.255956 0.144294
0.622681 0.269270 0.160067
0.704350 0.281905 0.174293
0.780526 0.293432 0.187256
0.847454 0.303809 0.198066
0.919539 0.316534 0.209401
0.061431 0.232778 0.099134
0.068386 0.229862 0.085920
0.083327 0.226924 0.075961
0.102563 0.223825 0.067693
0.132494 0.223524 0.066598
0.167826 0.225287 0.069891
0.220682 0.233058 0.083826
0.293177 0.244125 0.101974
0.377595 0.257128 0.121166
0.464215 0.270870 0.138358
0.549176 0.284411 0.154750
0.634338 0.297142 0.170047
0.719056 0.309541 0.183967
0.800562 0.321648 0.197038
0.876132 0.333203 0.208582
0.946511 0.345584 0.219772
0.080339 0.273911 0.103621
0.091638 0.269340 0.093248
0.106137 0.265460 0.086242
0.122342 0.264289 0.084438
0.149393 0.263855 0.086060
0.185726 0.264677 0.090564
0.237848 0.271701 0.104645
0.305360 0.283262 0.121718
0.387739 0.295465 0.138804
0.475248 0.308624 0.153947
0.562006 0.321986 0.169144
0.648616 0.334295 0.183295
0.734567 0.346144 0.196504
0.819179 0.358128 0.209206
0.901225 0.370145 0.221058
0.967779 0.382713 0.233110
0.104244 0.315358 0.109522
0.115114 0.309449 0.102009
0.129196 0.305867 0.098484
0.148787 0.305152 0.100352
0.168799 0.304933 0.102721
0.203484 0.306711 0.109805
0.256843 0.312762 0.123840
0.324620 0.325434 0.141657
0.400286 0.338733 0.158207
0.486388 0.351062 0.172028
0.575461 0.363739 0.185117
0.663465 0.376172 0.198137
0.748469 0.387896 0.210461
0.833468 0.399753 0.222510
0.917881 0.411659 0.234386
0.976181 0.424234 0.248130
0.126773 0.353757 0.116609
0.137750 0.347929 0.112418
0.152435 0.345884 0.113184
0.168419 0.345356 0.115201
0.188114 0.345728 0.118576
0.221840 0.349177 0.127727
0.272842 0.355186 0.141472
0.341238 0.366856 0.158782
0.416831 0.379735 0.173904
0.500670 0.391889 0.188649
0.589939 0.404863 0.201326
0.678382 0.417898 0.213663
0.761342 0.430243 0.225046
0.843815 0.442562 0.236209
0.925638 0.453926 0.247730
0.977700 0.463510 0.261676
0.149188 0.392285 0.128042
0.166449 0.387265 0.127874
0.176999 0.386573 0.129225
0.185857 0.388714 0.131971
0.207361 0.391008 0.137469
0.242075 0.393495 0.146113
0.293735 0.399084 0.159225
0.356361 0.408351 0.174879
0.433114 0.420739 0.190050
0.517724 0.433214 0.204939
0.605178 0.446981 0.218163
0.692014 0.460375 0.229519
0.773584 0.472957 0.240107
0.855952 0.486425 0.251242
0.936842 0.498797 0.263467
0.980039 0.504775 0.277063
0.177132 0.437473 0.146230
0.197242 0.430548 0.146304
0.210851 0.431094 0.149270
0.218501 0.434076 0.152187
0.232249 0.437519 0.156413
0.264655 0.440715 0.164281
0.320565 0.446800 0.178618
0.381107 0.455498 0.193223
0.452111 0.466539 0.207448
0.536023 0.478635 0.221845
0.622524 0.492300 0.236096
0.702873 0.502951 0.245730
0.776900 0.511532 0.253671
0.856973 0.524219 0.263778
0.941500 0.540148 0.278707
0.984505 0.545613 0.293619
0.190423 0.478542 0.160335
0.212631 0.472386 0.161646
0.230653 0.472787 0.165268
0.238066 0.475076 0.167535
0.249949 0.479556 0.171344
0.287360 0.488774 0.181898
0.348049 0.499816 0.198098
0.413078 0.509440 0.213230
0.482952 0.518728 0.227554
0.559053 0.527494 0.240106
0.641616 0.538673 0.253091
0.715476 0.546203 0.261951
0.773034 0.545803 0.265421
0.845199 0.554149 0.273070
0.935864 0.574343 0.291558
0.983156 0.583208 0.311966
0.196777 0.514338 0.172003
0.211436 0.510351 0.172826
0.232351 0.511196 0.176918
0.246487 0.513557 0.180248
0.262473 0.518446 0.184692
0.306833 0.529117 0.196780
0.370470 0.543506 0.213572
0.445879 0.559466 0.232373
0.520400 0.570115 0.247096
0.593906 0.576884 0.258642
0.660875 0.580450 0.267001
0.724052 0.582534 0.274261
0.778590 0.582702 0.278574
0.842184 0.588232 0.284728
0.931041 0.608290 0.305351
0.977523 0.630929 0.344316
0.207803 0.550822 0.185110
0.219300 0.552399 0.187475
0.237328 0.553738 0.190891
0.253164 0.556240 0.194369
0.276083 0.560369 0.199768
0.319476 0.568223 0.210219
0.379653 0.580621 0.225088
0.450541 0.595721 0.242179
0.530417 0.606438 0.258453
0.606731 0.613535 0.270711
0.671395 0.616428 0.278567
0.743199 0.624460 0.289204
0.818588 0.638347 0.301418
0.887544 0.650778 0.314434
0.951713 0.668760 0.348130
0.968440 0.687394 0.394070
0.231250 0.586758 0.201294
0.243391 0.589361 0.203997
0.254483 0.592430 0.206669
0.263578 0.596214 0.209386
0.284281 0.600787 0.214538
0.319347 0.605437 0.222092
0.372915 0.613897 0.233946
0.437731 0.624865 0.248113
0.529112 0.638020 0.266480
0.627623 0.655178 0.285624
0.717703 0.672990 0.301688
0.793549 0.687387 0.315160
0.860439 0.702142 0.330477
0.917897 0.718962 0.360375
0.952418 0.733492 0.415317
0.958497 0.750993 0.461021
0.000010 0.072170 0.247034
0.003402 0.070719 0.237027
0.022876 0.070192 0.213997
0.054688 0.072545 0.184375
0.092749 0.079612 0.161031
0.139524 0.090152 0.147737
0.198573 0.103507 0.144814
0.268233 0.118158 0.147954
0.345650 0.132590 0.152786
0.423076 0.146079 0.156549
0.498013 0.159944 0.159501
0.574327 0.177094 0.165443
0.650797 0.195578 0.173797
0.710605 0.210080 0.178726
0.756281 0.221476 0.181570
0.802995 0.234145 0.185309
0.000375 0.095039 0.249691
0.003464 0.093984 0.240057
0.021131 0.093228 0.220482
0.051026 0.095136 0.194331
0.085105 0.099181 0.166209
0.130186 0.107354 0.147360
0.189958 0.119554 0.140010
0.264602 0.134016 0.140974
0.349145 0.150077 0.147075
0.435389 0.166035 0.154610
0.518453 0.181608 0.162062
0.600004 0.197314 0.169451
0.680527 0.213820 0.177153
0.745383 0.227643 0.181800
0.797553 0.238993 0.184605
0.847037 0.250455 0.188631
0.005048 0.124661 0.246996
0.009328 0.123455 0.234367
0.024189 0.123164 0.217213
0.051516 0.123231 0.193697
0.085326 0.125148 0.164975
0.130579 0.130243 0.142939
0.190411 0.139932 0.133609
0.265492 0.152924 0.134526
0.352779 0.169025 0.141244
0.443662 0.186376 0.149654
0.530122 0.202569 0.158957
0.615686 0.217865 0.168709
0.699925 0.233543 0.177771
0.771008 0.247154 0.182815
0.830203 0.259477 0.188451
0.893371 0.273662 0.197000
0.014289 0.153122 0.236721
0.018521 0.152469 0.222220
0.035323 0.151850 0.202433
0.056904 0.151451 0.182719
0.090360 0.151609 0.154667
0.136781 0.154957 0.133333
0.197294 0.163196 0.127538
0.271439 0.175225 0.130393
0.359030 0.190720 0.138699
0.451214 0.207606 0.148276
0.539152 0.223427 0.158625
0.625202 0.237970 0.169031
0.708454 0.252190 0.178068
0.780071 0.264288 0.183789
0.846264 0.276846 0.192787
0.915578 0.292306 0.203354
0.027281 0.185531 0.221612
0.033012 0.184989 0.207329
0.048159 0.184073 0.187348
0.070430 0.182337 0.168007
0.097433 0.181142 0.148383
0.143654 0.181908 0.128839
0.205189 0.189002 0.124630
0.278480 0.200262 0.130134
0.365141 0.214572 0.138801
0.456952 0.230161 0.148677
0.546029 0.245099 0.159706
0.632862 0.258799 0.170836
0.716096 0.271898 0.180581
0.789908 0.283084 0.187927
0.860620 0.294900 0.198093
0.932365 0.310265 0.209518
0.043637 0.222499 0.207473
0.052185 0.221589 0.192469
0.065412 0.220160 0.176192
0.086727 0.217067 0.158216
0.113779 0.214892 0.142677
0.151932 0.213661 0.128775
0.211799 0.218728 0.126285
0.286104 0.228493 0.132490
0.372930 0.241355 0.141146
0.463908 0.255233 0.151076
0.553382 0.269380 0.163034
0.641790 0.282641 0.175033
0.727049 0.295208 0.185800
0.805483 0.306420 0.194883
0.879615 0.317728 0.205518
0.947795 0.331229 0.216747
0.064960 0.263835 0.195213
0.071669 0.262786 0.181219
0.086422 0.260191 0.167868
0.102964 0.257222 0.154043
0.131468 0.254126 0.140524
0.167875 0.251510 0.130186
0.222306 0.254272 0.130690
0.296219 0.261929 0.136855
0.383184 0.273240 0.147128
0.473701 0.285934 0.157435
0.562901 0.298830 0.169583
0.651957 0.311118 0.181727
0.739782 0.323055 0.193157
0.823682 0.334873 0.204075
0.901538 0.346148 0.214863
0.963329 0.359039 0.226336
0.085915 0.310245 0.188087
0.096975 0.306556 0.173998
0.109473 0.303342 0.161361
0.123622 0.301228 0.152957
0.148815 0.298047 0.143599
0.185868 0.294515 0.136703
0.239896 0.295141 0.138730
0.309926 0.302257 0.147254
