Lukas Eriksen LUT Pack 2.0/Lukas Eriksen LUT 12 - Lundmark.cube
LUT_3D_SIZE 6
0.001924 0.010704 0.018375
0.340980 0.065699 0.012307
0.831995 0.131312 0.010862
1.069518 0.211748 0.024458
1.069960 0.267006 0.041832
1.069960 0.275714 0.047302
0.039508 0.197350 0.140792
0.137571 0.186258 0.087699
0.492481 0.177325 0.054049
1.069092 0.205126 0.026609
1.069960 0.265278 0.040807
1.069960 0.275714 0.047302
0.166130 0.410400 0.254520
0.165878 0.410137 0.228821
0.341040 0.389824 0.173392
0.700422 0.357902 0.122173
1.069384 0.336409 0.076842
1.069960 0.323911 0.012301
0.296538 0.607827 0.329834
0.296275 0.607346 0.316633
0.292673 0.601015 0.279256
0.529577 0.576509 0.224979
0.947728 0.531691 0.165474
1.069872 0.503040 0.144939
0.366448 0.769312 0.411033
0.366090 0.769127 0.402648
0.365118 0.766624 0.385375
0.407162 0.763239 0.366549
0.715356 0.744141 0.292740
1.064447 0.701385 0.242442
0.409160 0.880628 0.436384
0.409104 0.880646 0.434974
0.409086 0.880652 0.434525
0.419003 0.877928 0.560079
0.659807 0.916016 0.532341
0.898992 0.936179 0.489517
0.003632 0.023593 0.410163
0.244443 0.059733 0.365400
0.553173 0.113854 0.283244
1.029791 0.176070 0.193011
1.069960 0.251963 0.138027
1.069960 0.271923 0.068560
0.037345 0.195135 0.289355
0.145418 0.179263 0.244200
0.420769 0.157791 0.195780
1.006212 0.170704 0.213464
1.069957 0.249322 0.153667
1.069960 0.268313 0.090617
0.163060 0.405512 0.313099
0.162141 0.404018 0.301059
0.339717 0.384450 0.237131
0.666439 0.351745 0.176167
1.066097 0.329535 0.120295
1.069960 0.294112 0.104810
0.295388 0.605911 0.367352
0.294993 0.605234 0.357748
0.291906 0.599913 0.326367
0.529110 0.576295 0.260302
0.928066 0.532097 0.195819
1.069723 0.504112 0.167727
0.367373 0.768522 0.436601
0.367073 0.768348 0.429912
0.366209 0.765918 0.416079
0.415434 0.763516 0.400175
0.714944 0.745217 0.319613
1.062861 0.705468 0.265773
0.409716 0.880440 0.450444
0.409657 0.880460 0.448958
0.409553 0.880495 0.446325
0.419498 0.877949 0.566049
0.663784 0.916312 0.546533
0.899928 0.937599 0.504310
0.141661 0.090237 0.559728
0.253189 0.098562 0.561832
0.472470 0.133541 0.543010
0.838135 0.191162 0.473954
1.068908 0.251902 0.378758
1.069955 0.263526 0.320334
0.059092 0.224575 0.499586
0.190560 0.202255 0.454517
0.393716 0.176448 0.435932
0.806382 0.187744 0.481834
1.068290 0.249881 0.387058
1.069952 0.263816 0.329483
0.161356 0.400209 0.469449
0.159040 0.396869 0.468812
0.345944 0.377396 0.407941
0.615357 0.347416 0.352574
1.022856 0.326338 0.292860
1.069793 0.285932 0.271212
0.296660 0.600161 0.487862
0.295743 0.598848 0.485406
0.291669 0.593057 0.474157
0.529318 0.574075 0.395905
0.860114 0.535134 0.323470
1.066934 0.505004 0.284222
0.371022 0.764978 0.522833
0.370840 0.764604 0.519447
0.370090 0.761781 0.512374
0.444700 0.760108 0.509277
0.715856 0.748242 0.427301
1.059013 0.715177 0.355619
0.412866 0.878827 0.500226
0.412757 0.878869 0.498840
0.411942 0.879181 0.488483
0.420993 0.878027 0.583942
0.675839 0.917916 0.597913
0.906129 0.943306 0.553891
0.242624 0.152354 0.725723
0.297688 0.155340 0.722576
0.438318 0.172539 0.714550
0.678659 0.222780 0.689395
1.021403 0.267578 0.614830
1.066541 0.275988 0.563610
0.200153 0.240393 0.666888
0.246368 0.230260 0.663346
0.396150 0.204504 0.660953
0.664683 0.220316 0.692819
1.009253 0.265998 0.621065
1.066219 0.276236 0.568485
0.160719 0.413622 0.662766
0.168462 0.409248 0.659924
0.372177 0.393830 0.603864
0.589524 0.367846 0.565496
0.922814 0.340109 0.522527
1.051261 0.286316 0.518545
0.303662 0.598021 0.644876
0.302656 0.596334 0.644402
0.313249 0.589281 0.639189
0.537958 0.574055 0.576237
0.804139 0.548509 0.514208
1.040191 0.510849 0.464410
0.375994 0.764859 0.658336
0.375787 0.764512 0.656147
0.375129 0.762204 0.648076
0.449787 0.758473 0.635608
0.723020 0.751016 0.576138
1.036740 0.720373 0.500117
0.421447 0.878123 0.589476
0.421282 0.878096 0.586896
0.420737 0.878073 0.580333
0.422486 0.878362 0.607658
0.691115 0.922358 0.680826
0.925277 0.954698 0.625147
0.285641 0.191645 0.917788
0.320437 0.196547 0.912243
0.440239 0.216214 0.896225
0.645342 0.260549 0.855076
0.893146 0.298894 0.826110
0.949462 0.293521 0.775422
0.269228 0.262861 0.863368
0.301484 0.254494 0.864106
0.427077 0.214196 0.899985
0.634552 0.258555 0.858417
0.884856 0.298372 0.828989
0.945947 0.293925 0.778958
0.268276 0.430848 0.822132
0.305835 0.429219 0.813592
0.419342 0.419601 0.794099
0.595994 0.396077 0.775555
0.838969 0.358633 0.736277
0.925260 0.295871 0.777881
0.318496 0.609497 0.818314
0.317117 0.607291 0.818363
0.376080 0.597846 0.800724
0.558988 0.586893 0.757751
0.779296 0.562435 0.705586
0.959696 0.522614 0.654386
0.393432 0.768417 0.818962
0.393333 0.767748 0.818810
0.392847 0.764499 0.817978
0.491870 0.762566 0.797320
0.733166 0.758252 0.739140
0.991765 0.737020 0.676499
0.425310 0.882576 0.794060
0.425162 0.882463 0.791315
0.424464 0.881932 0.778348
0.424085 0.880781 0.742224
0.609184 0.909479 0.768082
0.955915 0.980348 0.739796
0.336342 0.233889 1.044447
0.363840 0.238000 1.041875
0.470075 0.260521 1.026933
0.621622 0.296335 1.013499
0.746257 0.332983 0.995628
0.799198 0.323241 0.936725
0.318747 0.231755 1.046390
0.347402 0.235687 1.043798
0.455430 0.257025 1.030312
0.613000 0.294329 1.014368
0.745937 0.333140 0.996348
0.798132 0.323443 0.937840
0.366652 0.469767 0.970579
0.398215 0.471571 0.967748
0.510659 0.472715 0.967560
0.595406 0.394120 0.968272
0.744837 0.333842 0.998712
0.793077 0.324396 0.943126
0.328809 0.622205 0.964003
0.328842 0.622111 0.963653
0.449234 0.617954 0.957407
0.567853 0.586546 0.958755
0.790321 0.564471 0.943084
0.833510 0.491785 0.867273
0.381991 0.766672 0.978348
0.381320 0.765004 0.978232
0.379624 0.759951 0.977281
0.494894 0.761666 0.972954
0.739279 0.775848 0.958030
0.907851 0.748386 0.886643
0.425874 0.894651 0.981080
0.425875 0.894647 0.981074
0.425876 0.894628 0.981043
0.425868 0.894528 0.980949
0.622633 0.933962 0.991101
1.052141 1.050927 1.047577
