Lukas Eriksen LUT Pack 2.0/Lukas Eriksen LUT 9 - Lacertae.CUBE
LUT_3D_SIZE 6
0.014114 0.026885 0.035651
0.234501 0.050004 0.049739
0.447225 0.077607 0.064306
0.626531 0.122464 0.109898
0.770467 0.149539 0.143618
0.897564 0.182232 0.179722
0.043924 0.254290 0.081812
0.208764 0.260891 0.089984
0.431647 0.250488 0.093643
0.625279 0.238159 0.124723
0.771060 0.246823 0.160840
0.899724 0.255355 0.190152
0.072798 0.476583 0.153860
0.158130 0.476958 0.162392
0.419742 0.480666 0.169983
0.619001 0.456207 0.184621
0.770157 0.421879 0.199980
0.900432 0.396444 0.214974
0.109789 0.647866 0.209147
0.165566 0.645555 0.222610
0.375782 0.652699 0.247448
0.609678 0.660091 0.257839
0.779720 0.635716 0.269860
0.909987 0.596298 0.281325
0.148806 0.794312 0.263156
0.226037 0.796180 0.274217
0.379344 0.800199 0.306558
0.582977 0.802423 0.315540
0.776075 0.809538 0.319481
0.918353 0.771395 0.329080
0.242163 0.921446 0.305685
0.321146 0.923282 0.337729
0.414207 0.926480 0.354045
0.574098 0.931320 0.356753
0.752101 0.935406 0.363002
0.930305 0.940126 0.369081
0.041951 0.178164 0.286950
0.230861 0.105919 0.320315
0.452457 0.136535 0.294318
0.634543 0.172977 0.280826
0.774907 0.193227 0.277882
0.900362 0.209435 0.282097
0.052783 0.298509 0.302184
0.214665 0.294608 0.311858
0.442263 0.295363 0.318542
0.629527 0.294659 0.315676
0.774147 0.306752 0.317693
0.900704 0.317099 0.328539
0.078167 0.492104 0.336328
0.205572 0.494914 0.349789
0.431875 0.496949 0.352329
0.627260 0.476607 0.345527
0.774330 0.453568 0.349295
0.903472 0.439136 0.356416
0.123003 0.660724 0.357366
0.229934 0.662103 0.370122
0.401731 0.662542 0.378849
0.625796 0.672399 0.391983
0.782209 0.647530 0.391820
0.910778 0.616157 0.388269
0.201930 0.803225 0.386539
0.282863 0.803137 0.402672
0.423753 0.802881 0.420468
0.603250 0.808843 0.424775
0.785701 0.811170 0.429196
0.920520 0.777564 0.426192
0.293748 0.927643 0.415724
0.366394 0.930333 0.439449
0.481404 0.933713 0.470148
0.601877 0.935281 0.457906
0.763218 0.938637 0.455512
0.933747 0.943413 0.453599
0.066161 0.344556 0.516011
0.061224 0.270547 0.520327
0.458733 0.230125 0.544922
0.644895 0.250406 0.515746
0.780161 0.263356 0.476813
0.903033 0.272510 0.452590
0.103609 0.445258 0.510246
0.175110 0.412207 0.526858
0.450069 0.360621 0.547181
0.637331 0.356441 0.521113
0.779233 0.362514 0.497635
0.907493 0.363523 0.479837
0.161903 0.534786 0.530118
0.282628 0.531938 0.535425
0.457336 0.533061 0.559380
0.638783 0.531114 0.551958
0.783071 0.521850 0.539998
0.909708 0.507431 0.530843
0.129205 0.681186 0.513214
0.263157 0.683753 0.542360
0.474540 0.686208 0.573749
0.646953 0.691183 0.572136
0.791247 0.675039 0.569253
0.917112 0.658519 0.559887
0.309030 0.810779 0.553511
0.372633 0.811087 0.563650
0.504904 0.815881 0.588503
0.636171 0.817323 0.584660
0.796898 0.821019 0.583890
0.926711 0.797617 0.580084
0.378098 0.931107 0.559458
0.433628 0.934577 0.570336
0.541908 0.938905 0.597826
0.652091 0.942570 0.606027
0.783047 0.945889 0.597777
0.944357 0.951083 0.596105
0.098867 0.482665 0.676826
0.096588 0.445451 0.684994
0.353660 0.386672 0.701188
0.648616 0.348791 0.713808
0.796750 0.362344 0.685005
0.910118 0.374233 0.653039
0.109529 0.555966 0.680139
0.131032 0.529877 0.683338
0.345215 0.455476 0.705553
0.658419 0.434675 0.713331
0.794896 0.437479 0.686861
0.908758 0.448383 0.662674
0.329888 0.658666 0.678941
0.387852 0.657126 0.684824
0.481081 0.631457 0.705599
0.661792 0.583069 0.723059
0.795559 0.577711 0.706223
0.914240 0.570543 0.691716
0.363510 0.713123 0.680325
0.421187 0.713363 0.693713
0.542585 0.716388 0.711990
0.675063 0.718348 0.727481
0.803877 0.716685 0.728520
0.923317 0.712713 0.721802
0.340439 0.822798 0.668536
0.404158 0.822940 0.677634
0.539023 0.830799 0.699157
0.693945 0.830411 0.736442
0.811345 0.836232 0.730436
0.933437 0.826769 0.731208
0.378928 0.936630 0.659241
0.453374 0.941929 0.678399
0.604544 0.943056 0.726078
0.720785 0.948648 0.747058
0.811129 0.953999 0.737912
0.960470 0.957439 0.733663
0.131233 0.605988 0.803129
0.129330 0.582400 0.806654
0.229343 0.499868 0.819189
0.608018 0.508083 0.827362
0.812410 0.466619 0.833179
0.918521 0.486464 0.812387
0.231121 0.663038 0.802118
0.268780 0.646196 0.809671
0.369687 0.594788 0.818946
0.616089 0.568305 0.835459
0.810178 0.526212 0.839817
0.918441 0.543361 0.821835
0.487419 0.761093 0.802442
0.511988 0.759296 0.811190
0.547667 0.727576 0.822979
0.638010 0.668572 0.837908
0.818006 0.641281 0.846238
0.924411 0.638181 0.830071
0.540221 0.817264 0.813755
0.572942 0.817705 0.814084
0.646939 0.817530 0.818807
0.703388 0.792357 0.837966
0.823845 0.749405 0.850788
0.933908 0.753318 0.846623
0.563224 0.851074 0.808820
0.587805 0.853449 0.809765
0.659488 0.853451 0.824746
0.748719 0.853312 0.840302
0.835046 0.852524 0.854907
0.945092 0.853160 0.855707
0.544671 0.946454 0.803406
0.575810 0.949344 0.808937
0.649750 0.955560 0.822856
0.751525 0.960523 0.848588
0.857746 0.964416 0.871820
0.967871 0.970102 0.856363
0.462811 0.759220 0.915755
0.495819 0.752884 0.918905
0.537740 0.719979 0.932519
0.638182 0.681742 0.940065
0.799863 0.648253 0.938631
0.939016 0.627548 0.945627
0.559216 0.801479 0.918320
0.568674 0.793356 0.920315
0.594815 0.768376 0.928671
0.659401 0.721822 0.939320
0.806180 0.690324 0.946250
0.943364 0.663207 0.948940
0.664703 0.862011 0.919995
0.669709 0.859604 0.925102
0.682218 0.841703 0.930169
0.707159 0.794617 0.944062
0.813401 0.766825 0.949893
0.946140 0.732131 0.955497
0.726967 0.913337 0.920130
0.743572 0.917338 0.925244
0.762977 0.910351 0.933906
0.781615 0.881788 0.945116
0.820815 0.836156 0.958725
0.954416 0.810278 0.967887
0.733026 0.950126 0.933523
0.750546 0.950934 0.938390
0.794412 0.954626 0.938538
0.844756 0.951752 0.950202
0.879776 0.928527 0.962207
0.966365 0.891252 0.978472
0.749048 0.974585 0.929677
0.762428 0.974806 0.930484
0.807334 0.983331 0.948955
0.860746 0.988888 0.959361
0.923481 0.998766 0.987151
0.991614 0.996199 0.997568
