my luts/kk1.cube
LUT_3D_SIZE 6
0.061801 0.061580 0.061787
0.118373 0.088330 0.087522
0.323476 0.105197 0.097479
0.523218 0.114776 0.086410
0.763537 0.138757 0.085967
0.931960 0.214143 0.092053
0.092177 0.118868 0.092691
0.173846 0.130847 0.101069
0.411960 0.148041 0.087861
0.645388 0.194956 0.076742
0.869513 0.277221 0.078918
0.991655 0.365104 0.085445
0.094284 0.203579 0.094522
0.178598 0.265356 0.072975
0.505470 0.209025 0.075053
0.735141 0.265058 0.073024
0.914425 0.359022 0.079041
1.002183 0.464709 0.157090
0.069162 0.300553 0.072381
0.219336 0.385884 0.050478
0.552989 0.446494 0.049837
0.801569 0.380260 0.066835
0.948582 0.465309 0.079985
1.000256 0.574479 0.163513
0.040895 0.437120 0.067325
0.319999 0.561479 0.045699
0.605367 0.664044 0.054290
0.802284 0.727515 0.074043
0.957166 0.671468 0.086030
1.000035 0.709333 0.174773
-0.063287 0.651592 0.079963
0.494742 0.793487 0.060128
0.710592 0.877460 0.064692
0.875429 0.940830 0.079126
0.972594 0.979326 0.096398
1.011351 0.919903 0.199574
0.079807 -0.276480 -0.040870
-0.125303 -0.330032 0.104853
-0.102697 -0.350963 0.123752
0.346328 -0.370307 0.145212
0.751269 -0.364732 0.114795
0.954856 -0.270432 0.080725
0.093813 0.111707 0.138161
0.096495 0.150088 0.173492
0.329498 0.209897 0.181284
0.658722 0.226006 0.108684
0.895915 0.310423 0.096628
1.002412 0.407503 0.150774
0.071458 0.275682 0.250519
0.066176 0.289749 0.195477
0.448816 0.279472 0.082124
0.712733 0.343094 0.094398
0.909281 0.474251 0.101067
1.001572 0.579196 0.181728
0.048013 0.424239 0.305311
0.055514 0.405098 0.189010
0.405891 0.501284 0.075445
0.775476 0.492670 0.082729
0.937531 0.593084 0.110556
1.000759 0.680019 0.215385
0.045975 0.561031 0.333458
0.017664 0.574864 0.202282
0.466555 0.688779 0.147967
0.788386 0.772032 0.087472
0.960142 0.751847 0.111813
1.000049 0.779346 0.222937
0.059302 0.740099 0.428430
0.208957 0.838514 0.230732
0.631517 0.905114 0.260442
0.842864 0.969546 0.212187
0.970377 1.001063 0.120348
1.008849 0.953420 0.227586
0.098199 -0.319766 -0.161097
0.088115 -0.323464 -0.048016
-0.201692 -0.360511 0.134308
0.252190 -0.372054 0.128510
0.674891 -0.358021 0.177619
0.915665 -0.171251 0.247073
0.099664 0.148303 0.241875
0.096400 0.182249 0.296233
0.150397 0.219394 0.279764
0.509645 0.296290 0.277313
0.820110 0.421307 0.329599
0.989820 0.507105 0.342625
0.090685 0.201095 0.271770
0.084022 0.250966 0.330028
0.136672 0.322789 0.383524
0.620104 0.450289 0.382083
0.887003 0.563263 0.418812
1.001304 0.641058 0.449504
0.051588 0.395600 0.438819
0.054886 0.479104 0.504418
0.044019 0.532165 0.440244
0.738626 0.593865 0.247215
0.915449 0.697142 0.426281
1.001564 0.765088 0.455854
0.062170 0.651647 0.655540
0.077693 0.671269 0.609212
0.205928 0.717723 0.462949
0.730901 0.810146 0.391643
0.959476 0.808006 0.123867
1.000126 0.835465 0.356842
0.078128 0.839097 0.751247
0.111032 0.851569 0.628615
0.560445 0.940768 0.480467
0.827971 0.986531 0.487496
0.970630 1.024088 0.344745
1.015592 0.978924 0.241862
0.102373 -0.316307 -0.136538
0.097172 -0.329805 -0.169423
-0.081416 -0.344011 0.104200
-0.274567 -0.369075 0.125080
0.599165 -0.344443 0.138931
0.874296 -0.125110 0.306285
0.094597 0.201713 0.374136
0.091290 0.236564 0.437095
0.101565 0.254268 0.425797
0.329424 0.320517 0.381781
0.755785 0.435898 0.401094
0.949976 0.561068 0.504231
0.087069 0.240089 0.411031
0.083593 0.287194 0.476095
0.104722 0.345826 0.553470
0.429338 0.471909 0.520994
0.819820 0.610553 0.578136
0.982960 0.690635 0.632054
0.071452 0.312061 0.452494
0.072299 0.370222 0.521604
0.105287 0.456822 0.610548
0.558455 0.664136 0.673587
0.884552 0.764503 0.695031
1.002243 0.814281 0.716246
0.064062 0.551862 0.661262
0.084842 0.626231 0.730125
0.128801 0.713429 0.797248
0.699440 0.833026 0.683959
0.938052 0.863818 0.581133
1.000682 0.888995 0.683222
0.092362 0.820033 0.891191
0.112433 0.863122 0.918971
0.163360 0.917549 0.885101
0.848563 1.011299 0.720888
0.965382 1.040127 0.707703
1.020910 1.009773 0.443889
0.095411 -0.207712 0.413326
0.091633 -0.227828 0.366419
0.083129 -0.263114 0.309330
-0.219345 -0.315667 0.325231
0.468910 -0.288649 0.093288
0.833671 0.103670 0.291163
0.085860 0.280082 0.549622
0.087747 0.319732 0.615069
0.094364 0.327964 0.602378
0.119362 0.357105 0.590202
0.687308 0.496344 0.528383
0.918030 0.584921 0.592879
0.080238 0.321339 0.585734
0.084889 0.371353 0.653381
0.100653 0.419271 0.718918
0.184529 0.468976 0.715503
0.775992 0.633517 0.676553
0.953473 0.712931 0.734267
0.075718 0.372379 0.629499
0.084267 0.429590 0.695588
0.108588 0.497119 0.764976
0.358232 0.627548 0.820402
0.854490 0.773580 0.794154
0.985831 0.827146 0.824569
0.070894 0.479428 0.689764
0.086930 0.536822 0.749456
0.130805 0.611373 0.817017
0.415618 0.741164 0.857513
0.903755 0.897560 0.850001
1.003614 0.923977 0.866283
0.092618 0.706142 0.856344
0.114443 0.755823 0.902670
0.142938 0.806166 0.946408
0.305090 0.940957 1.009574
0.974896 1.046569 0.899104
1.027450 1.034752 0.829658
0.087481 0.200981 0.635446
0.087755 0.187967 0.606785
0.084450 0.159408 0.582055
-0.123197 -0.056236 0.552614
-0.215914 0.161500 0.567434
0.767732 0.352439 0.506893
0.083757 0.363105 0.707848
0.091455 0.399297 0.759195
0.099312 0.410158 0.762816
0.125867 0.435123 0.761979
0.436985 0.557976 0.769442
0.874404 0.621777 0.716020
0.082126 0.401982 0.737095
0.092338 0.444308 0.786534
0.105547 0.478090 0.828488
0.139213 0.514394 0.844519
0.634406 0.685750 0.854462
0.924487 0.708976 0.807324
0.082346 0.445675 0.768700
0.095742 0.491365 0.817600
0.111636 0.534216 0.858420
0.214975 0.623114 0.908359
0.795517 0.814925 0.910479
0.965120 0.820796 0.885672
0.084841 0.515887 0.809344
0.101929 0.564664 0.853453
0.125415 0.614398 0.892658
0.243901 0.706105 0.933703
0.878579 0.908866 0.940031
0.998611 0.918018 0.924976
0.094598 0.620483 0.855581
0.113216 0.662754 0.891985
0.148376 0.711638 0.929225
0.291778 0.795261 0.960898
0.890351 0.972780 0.968125
1.003947 1.000880 0.938837
