my luts/kk1.cube
LUT_3D_SIZE 16
0.061801 0.061580 0.061787
0.057998 0.059178 0.059733
0.067003 0.068884 0.069977
0.118373 0.088330 0.087522
0.184099 0.101786 0.098705
0.253453 0.104894 0.099444
0.323476 0.105197 0.097479
0.383484 0.106241 0.094682
0.447502 0.109265 0.090776
0.523218 0.114776 0.086410
0.605253 0.120857 0.083874
0.686081 0.128068 0.083833
0.763537 0.138757 0.085967
0.828972 0.156079 0.088735
0.882873 0.182756 0.090653
0.931960 0.214143 0.092053
0.066449 0.064216 0.066467
0.066963 0.067619 0.068966
0.076333 0.079822 0.077635
0.129438 0.099790 0.092514
0.203035 0.113890 0.101225
0.278816 0.115520 0.097429
0.351208 0.118172 0.094978
0.415876 0.121975 0.091153
0.487731 0.130614 0.086399
0.568752 0.143877 0.082034
0.658158 0.162076 0.079955
0.740990 0.184159 0.079533
0.814440 0.208987 0.080363
0.876585 0.234811 0.081707
0.927172 0.260008 0.083297
0.968929 0.283286 0.085315
0.083156 0.092018 0.083724
0.084774 0.101465 0.087530
0.085727 0.098515 0.085940
0.157847 0.113579 0.098030
0.235894 0.123810 0.100039
0.311710 0.126837 0.095306
0.381761 0.131713 0.091707
0.448639 0.140392 0.087131
0.525885 0.153809 0.082166
0.608920 0.170813 0.078836
0.695374 0.193070 0.077562
0.777462 0.219479 0.077849
0.847899 0.247900 0.079246
0.903491 0.275393 0.081016
0.947081 0.302705 0.083137
0.982919 0.329524 0.085628
0.092177 0.118868 0.092691
0.094833 0.136176 0.097726
0.090780 0.145847 0.098206
0.173846 0.130847 0.101069
0.273359 0.131590 0.095898
0.346599 0.138377 0.092357
0.411960 0.148041 0.087861
0.484223 0.159931 0.082983
0.561522 0.175295 0.078905
0.645388 0.194956 0.076742
0.731607 0.220515 0.076288
0.806571 0.248256 0.077230
0.869513 0.277221 0.078918
0.920022 0.307187 0.081039
0.960022 0.336289 0.083440
0.991655 0.365104 0.085445
0.098388 0.147639 0.098713
0.098272 0.165887 0.100943
0.077761 0.187905 0.097804
0.184866 0.180016 0.095191
0.289801 0.152797 0.091605
0.377344 0.153483 0.088634
0.449431 0.165176 0.083679
0.518975 0.179373 0.079314
0.595469 0.196699 0.076422
0.676396 0.218051 0.075276
0.759836 0.244996 0.075528
0.829917 0.273859 0.076970
0.887792 0.304361 0.078972
0.933694 0.335412 0.081238
0.970733 0.366668 0.081851
1.000639 0.396845 0.082954
0.098618 0.174975 0.098945
0.096023 0.188871 0.098739
0.061716 0.221531 0.090601
0.181290 0.229706 0.083325
0.310494 0.206865 0.080109
0.400256 0.175709 0.083739
0.480232 0.184078 0.079724
0.553599 0.199147 0.076209
0.628795 0.217977 0.074493
0.706676 0.241510 0.074081
0.784224 0.269626 0.074945
0.848228 0.299831 0.076622
0.902157 0.331236 0.078965
0.945758 0.363583 0.081666
0.980173 0.395369 0.076060
1.001688 0.430991 0.122785
0.094284 0.203579 0.094522
0.089314 0.218054 0.092631
0.051322 0.245820 0.083307
0.178598 0.265356 0.072975
0.317378 0.267814 0.065904
0.422986 0.238114 0.071453
0.505470 0.209025 0.075053
0.583737 0.220429 0.073265
0.661142 0.240325 0.072682
0.735141 0.265058 0.073024
0.805476 0.294279 0.074408
0.865255 0.326222 0.076420
0.914425 0.359022 0.079041
0.954931 0.393050 0.081843
0.987824 0.425981 0.068451
1.002183 0.464709 0.157090
0.086787 0.232840 0.087189
0.078841 0.250297 0.083582
0.043525 0.273214 0.075071
0.186432 0.300142 0.065212
0.325884 0.313221 0.055430
0.427560 0.312820 0.058340
0.529750 0.277387 0.064418
0.610402 0.250507 0.069076
0.689958 0.265521 0.070428
0.762965 0.290530 0.072072
0.827631 0.320220 0.074027
0.881732 0.355053 0.076362
0.926282 0.389891 0.079434
0.962223 0.426228 0.081540
0.994996 0.460791 0.063345
1.001469 0.498581 0.162718
0.077290 0.264866 0.078437
0.067392 0.285509 0.074634
0.040700 0.308803 0.067609
0.199044 0.340615 0.057555
0.334707 0.360898 0.047643
0.447028 0.372800 0.049693
0.531935 0.372363 0.054112
0.636027 0.335774 0.060383
0.714326 0.305998 0.066441
0.786555 0.322281 0.070183
0.849548 0.351021 0.073657
0.898405 0.386819 0.076855
0.937016 0.426027 0.079677
0.970287 0.465851 0.078901
1.001344 0.501456 0.074412
1.000782 0.534778 0.162987
0.069162 0.300553 0.072381
0.054223 0.324967 0.067361
0.050052 0.352374 0.059683
0.219336 0.385884 0.050478
0.344770 0.414443 0.043294
0.467344 0.431159 0.042376
0.552989 0.446494 0.049837
0.631349 0.453597 0.055280
0.730439 0.418177 0.061109
0.801569 0.380260 0.066835
0.865888 0.394137 0.072593
0.912147 0.427953 0.076917
0.948582 0.465309 0.079985
0.978898 0.507419 0.072126
1.002292 0.545675 0.127463
1.000256 0.574479 0.163513
0.060398 0.343761 0.067841
0.027972 0.371974 0.060147
0.084085 0.403274 0.052365
0.249494 0.441131 0.045036
0.363421 0.474056 0.041359
0.478558 0.498742 0.038850
0.580648 0.516304 0.047774
0.649949 0.539788 0.056621
0.715827 0.553113 0.063632
0.806419 0.517522 0.068825
0.870039 0.474991 0.071824
0.917872 0.488786 0.076276
0.954463 0.520072 0.080251
0.986802 0.555809 0.064559
1.002543 0.592890 0.169959
1.000102 0.615886 0.164846
0.052303 0.389184 0.066128
-0.048213 0.426864 0.052939
0.132098 0.460281 0.047272
0.281543 0.500263 0.043253
0.392008 0.536228 0.042986
0.492836 0.567740 0.044512
0.591935 0.593804 0.047565
0.674628 0.611544 0.058447
0.732659 0.637990 0.065596
0.788742 0.653404 0.072481
0.862241 0.613149 0.077201
0.914995 0.578558 0.078184
0.955979 0.588499 0.081444
0.991210 0.614079 0.061722
1.002114 0.644285 0.174378
1.000044 0.662139 0.169034
0.040895 0.437120 0.067325
-0.063452 0.485210 0.048745
0.188028 0.522142 0.046075
0.319999 0.561479 0.045699
0.425047 0.599663 0.048996
0.515776 0.632505 0.051683
0.605367 0.664044 0.054290
0.686712 0.683395 0.058457
0.753585 0.701876 0.068000
0.802284 0.727515 0.074043
0.851529 0.741526 0.080325
0.910415 0.699287 0.085165
0.957166 0.671468 0.086030
0.994258 0.674067 0.063348
1.001783 0.693346 0.179377
1.000035 0.709333 0.174773
-0.027661 0.489685 0.070509
0.042914 0.550232 0.047833
0.247651 0.584872 0.049421
0.365221 0.625699 0.052306
0.464855 0.661564 0.055465
0.547709 0.693215 0.058015
0.624914 0.723111 0.060201
0.698466 0.745756 0.063473
0.765390 0.762213 0.068578
0.824378 0.784069 0.076942
0.867229 0.808243 0.082399
0.909612 0.818193 0.088243
0.953947 0.779253 0.092287
0.993749 0.751269 0.068172
1.001897 0.750807 0.185991
1.000035 0.752631 0.178029
-0.066187 0.542772 0.074594
0.160381 0.614677 0.050814
0.309081 0.646420 0.056393
0.416602 0.686290 0.058829
0.506579 0.718957 0.061672
0.580567 0.746930 0.064050
0.648601 0.772200 0.066112
0.713316 0.796242 0.068678
0.776014 0.813955 0.072932
0.834644 0.833106 0.077814
0.882565 0.851546 0.084868
0.918672 0.870771 0.089886
0.946860 0.877472 0.094754
0.989714 0.842158 0.073680
1.002752 0.815633 0.194598
1.000042 0.801936 0.185112
-0.063287 0.651592 0.079963
0.255146 0.735398 0.058870
0.393518 0.756351 0.060406
0.494742 0.793487 0.060128
0.579644 0.824068 0.060499
0.649467 0.851756 0.061925
0.710592 0.877460 0.064692
0.766136 0.901439 0.068564
0.822728 0.924462 0.073073
0.875429 0.940830 0.079126
0.919223 0.954421 0.084910
0.951193 0.965547 0.091042
0.972594 0.979326 0.096398
0.991693 0.984336 0.086616
1.018819 0.955625 0.193867
1.011351 0.919903 0.199574
0.039216 -0.270922 0.064919
-0.093251 -0.289212 0.065771
-0.149075 -0.305118 0.074453
-0.177673 -0.315693 0.091519
-0.174975 -0.324980 0.105896
-0.138108 -0.334628 0.111443
0.113440 -0.345098 0.109217
0.243547 -0.355040 0.105081
0.350423 -0.364064 0.097930
0.442512 -0.370534 0.092086
0.543310 -0.374418 0.089551
0.644216 -0.375740 0.089243
0.735383 -0.372599 0.089366
0.813544 -0.360037 0.084433
0.875319 -0.335494 0.070362
0.929815 -0.304511 0.060668
0.064551 0.060589 0.065466
0.069330 0.068145 0.075207
0.076955 0.083166 0.087397
0.123076 0.102412 0.099673
0.191894 0.117251 0.107293
0.266201 0.121759 0.104078
0.343964 0.124631 0.098670
0.423936 0.125870 0.092147
0.498936 0.128833 0.087022
0.576977 0.137976 0.084288
0.665657 0.151728 0.084089
0.748209 0.170712 0.084522
0.819023 0.193870 0.085055
0.879195 0.219034 0.085856
0.927580 0.243699 0.086878
0.968771 0.268749 0.088010
0.085822 0.095803 0.099224
0.086189 0.100439 0.099276
0.086093 0.107693 0.096615
0.137539 0.121996 0.106047
0.208533 0.136381 0.111715
0.289039 0.143444 0.102464
0.368758 0.148420 0.094527
0.449274 0.152084 0.087374
0.529062 0.159428 0.082392
0.614455 0.174413 0.079806
0.705659 0.197058 0.078880
0.790235 0.224649 0.079262
0.857363 0.253428 0.080295
0.911811 0.282368 0.081878
0.953458 0.311862 0.083822
0.987816 0.340460 0.086277
0.097575 0.139461 0.117462
0.096750 0.138528 0.110065
0.088428 0.151940 0.108750
0.156805 0.140726 0.103153
0.247636 0.147329 0.102115
0.324978 0.157283 0.094636
0.402555 0.164158 0.087935
0.479874 0.171283 0.082525
0.560470 0.184170 0.078825
0.648953 0.204276 0.077009
0.736628 0.230818 0.076709
0.814394 0.261464 0.077328
0.876078 0.294195 0.079021
0.923434 0.329028 0.081167
0.961560 0.362920 0.083517
0.993438 0.394354 0.085492
0.098673 0.176107 0.118832
0.098909 0.167655 0.109789
0.083386 0.190927 0.107933
0.144862 0.197497 0.094529
0.277590 0.166061 0.089629
0.370126 0.166049 0.086823
0.441570 0.177454 0.082571
0.510648 0.189732 0.079082
0.590186 0.206191 0.076611
0.678237 0.228866 0.075586
0.763577 0.257778 0.075815
0.835450 0.291413 0.076993
0.892170 0.326375 0.079012
0.936180 0.362944 0.081655
0.971638 0.398445 0.081446
1.001061 0.431808 0.090329
0.093368 0.207533 0.113679
0.095210 0.196996 0.105775
0.077146 0.222741 0.101687
0.103136 0.245434 0.084018
0.286864 0.229326 0.075301
0.387769 0.192604 0.081216
0.473325 0.194354 0.078637
0.546944 0.209330 0.076027
0.623414 0.229046 0.074626
0.706472 0.253987 0.074376
0.785610 0.284961 0.075059
0.851790 0.320504 0.076662
0.903862 0.357290 0.079213
0.945444 0.395768 0.082219
0.979869 0.431484 0.075408
1.002083 0.467784 0.131185
0.085787 0.236610 0.105712
0.087946 0.226900 0.100026
0.068792 0.252817 0.094803
0.086462 0.282366 0.073175
0.278195 0.281547 0.062733
0.400232 0.264290 0.068024
0.495656 0.227389 0.072854
0.580015 0.231004 0.072940
0.658987 0.251611 0.072810
0.734314 0.279981 0.073213
0.805490 0.313889 0.074395
0.866507 0.351049 0.076582
0.914360 0.389498 0.079859
0.953186 0.430127 0.082941
0.987269 0.465308 0.068696
1.002308 0.504430 0.165366
0.077253 0.265861 0.098796
0.078892 0.257337 0.093486
0.058164 0.282629 0.088907
0.088989 0.318610 0.065178
0.274957 0.325455 0.056550
0.402402 0.330543 0.056238
0.507123 0.307215 0.062333
0.602077 0.271475 0.067634
0.689907 0.278928 0.070245
0.763530 0.306389 0.072133
0.826128 0.343358 0.074051
0.879743 0.385312 0.076954
0.923865 0.426104 0.080826
0.960424 0.466545 0.083842
0.995322 0.501416 0.065613
1.001476 0.538829 0.170121
0.069818 0.298511 0.095343
0.070749 0.291092 0.087972
0.042225 0.318925 0.081824
0.105406 0.356853 0.058044
0.278865 0.371477 0.051023
0.411482 0.386403 0.046543
0.510651 0.392661 0.054122
0.615607 0.369112 0.060093
0.708740 0.333752 0.065607
0.788162 0.342628 0.070213
0.848312 0.376228 0.074042
0.893817 0.422879 0.078094
0.932762 0.467858 0.082228
0.969235 0.507032 0.083163
1.001423 0.541187 0.078741
1.000764 0.574826 0.173018
0.062301 0.336176 0.095516
0.063137 0.328271 0.083472
-0.029208 0.365193 0.069802
0.133976 0.399641 0.052239
0.291229 0.420335 0.046986
0.418012 0.444171 0.041362
0.529794 0.461487 0.048291
0.613330 0.474795 0.056769
0.712082 0.454674 0.063519
0.797188 0.415700 0.068171
0.864586 0.425878 0.074048
0.908177 0.464761 0.079110
0.943565 0.509568 0.084081
0.979346 0.549510 0.078660
1.002173 0.585829 0.134063
1.000274 0.613692 0.175624
0.054961 0.378576 0.098463
0.054461 0.370364 0.079746
-0.055789 0.415979 0.057350
0.169814 0.450015 0.048762
0.311638 0.476607 0.045111
0.425333 0.508727 0.042977
0.542551 0.533534 0.044546
0.635184 0.554032 0.057654
0.705925 0.577350 0.066653
0.792503 0.557061 0.074107
0.864089 0.513107 0.075859
0.914568 0.526665 0.080203
0.953937 0.558932 0.085875
0.988609 0.593939 0.072637
1.002204 0.630410 0.176052
1.000114 0.652065 0.178975
0.049213 0.422401 0.106074
0.041756 0.418085 0.081241
-0.051001 0.476418 0.050770
0.211620 0.505573 0.047705
0.341617 0.537575 0.046673
0.446773 0.572693 0.048541
0.550385 0.606377 0.050994
0.650052 0.629370 0.057256
0.724294 0.651374 0.068044
0.781273 0.675156 0.075574
0.853915 0.648747 0.083200
0.912795 0.614041 0.084822
0.959158 0.622182 0.088827
0.994035 0.646527 0.069906
1.001789 0.675852 0.188984
1.000048 0.691983 0.183492
0.045887 0.466171 0.121665
-0.019375 0.469461 0.085642
0.055230 0.543244 0.048473
0.261893 0.568512 0.050410
0.381985 0.601892 0.052717
0.480430 0.636204 0.055754
0.569430 0.671482 0.058285
0.660724 0.698102 0.061309
0.740820 0.715635 0.069274
0.799923 0.740022 0.077634
0.851373 0.761393 0.084882
0.910348 0.732463 0.091737
0.959944 0.701916 0.093684
0.997156 0.703084 0.071316
1.001422 0.720640 0.192763
1.000035 0.734060 0.188703
0.045161 0.510762 0.140342
-0.058187 0.529027 0.094714
0.141614 0.619289 0.052006
0.313544 0.640392 0.059952
0.425159 0.667075 0.061478
0.517260 0.696320 0.063606
0.597380 0.726849 0.065366
0.675226 0.754924 0.067547
0.751419 0.774992 0.071424
0.819780 0.796071 0.080000
0.867568 0.818422 0.086466
0.909119 0.835063 0.093363
0.954167 0.805527 0.098414
0.996379 0.774752 0.074765
1.001721 0.771594 0.198164
1.000035 0.772517 0.191556
0.046766 0.548885 0.160922
-0.081841 0.601169 0.101845
0.220716 0.691290 0.065558
0.368314 0.703619 0.074025
0.469994 0.729090 0.073801
0.553729 0.751235 0.076039
0.626259 0.776452 0.078778
0.694710 0.802457 0.077209
0.763059 0.824448 0.077031
0.827511 0.844114 0.081591
0.879040 0.861098 0.088270
0.915496 0.877126 0.093676
0.945583 0.888056 0.100017
0.987308 0.862007 0.078908
1.002852 0.832145 0.204762
1.000043 0.816966 0.196059
0.051391 0.637668 0.191185
-0.036891 0.737925 0.099274
0.316230 0.800178 0.089718
0.447222 0.816767 0.096610
0.541892 0.837398 0.098782
0.620630 0.858768 0.098271
0.689875 0.883749 0.093922
0.753306 0.909656 0.085370
0.811658 0.935258 0.080749
0.865839 0.950841 0.081599
0.911911 0.963392 0.086738
0.947958 0.974085 0.094052
0.970240 0.985671 0.100430
0.989091 0.994009 0.092826
1.017066 0.969447 0.198471
1.009646 0.932186 0.209852
0.071037 -0.266923 0.058294
0.016447 -0.292336 0.072739
-0.113769 -0.315375 0.083684
-0.158092 -0.326315 0.095600
-0.164158 -0.331813 0.108395
-0.149916 -0.338511 0.118708
-0.104635 -0.346942 0.124421
0.133611 -0.355518 0.129688
0.273962 -0.363847 0.126627
0.416084 -0.370750 0.115699
0.543110 -0.374969 0.102557
0.651307 -0.373589 0.097786
0.750669 -0.366984 0.095831
0.830860 -0.352138 0.088681
0.893039 -0.324991 0.073695
0.942551 -0.291567 0.060870
0.073694 0.073170 0.090368
0.077201 0.078164 0.098595
0.077663 0.086469 0.103756
0.101928 0.102141 0.114516
0.164368 0.119783 0.124742
0.223794 0.132104 0.130916
0.287363 0.142661 0.133513
0.368317 0.147929 0.128127
0.468581 0.149088 0.114467
0.574913 0.151403 0.099137
0.666681 0.163006 0.092232
0.752955 0.183879 0.090874
0.828098 0.208155 0.090798
0.888532 0.233807 0.090962
0.936483 0.258992 0.091300
0.974277 0.282178 0.091525
0.081535 0.082631 0.099029
0.085734 0.092311 0.110485
0.084754 0.103503 0.119220
0.111385 0.127164 0.131635
0.188557 0.145703 0.137016
0.263131 0.154193 0.134258
0.349150 0.159271 0.124152
0.439662 0.160994 0.109178
0.536740 0.161854 0.093513
0.630110 0.168883 0.085862
0.715467 0.187537 0.084233
0.797968 0.213660 0.084519
0.863288 0.240826 0.085097
0.916723 0.268798 0.085846
0.957875 0.296813 0.087029
0.991108 0.325357 0.088763
0.097421 0.128508 0.137475
0.099276 0.143314 0.147075
0.094283 0.152963 0.146264
0.124318 0.157539 0.129345
0.211148 0.166767 0.136126
0.282345 0.181303 0.137416
0.367410 0.191166 0.123785
0.459033 0.197075 0.104405
0.555947 0.204690 0.089374
0.654452 0.218225 0.081557
0.743624 0.242187 0.078919
0.820322 0.274150 0.079031
0.880336 0.309169 0.080791
0.927677 0.346193 0.083388
0.963534 0.380243 0.086515
0.996571 0.410912 0.089826
0.097467 0.185749 0.170522
0.095468 0.196111 0.166572
0.091374 0.194494 0.145421
0.089370 0.207771 0.131124
0.247110 0.185052 0.104524
0.332667 0.191973 0.114276
0.406505 0.206656 0.106958
0.492499 0.215713 0.091450
0.584125 0.227208 0.081360
0.675542 0.248032 0.077296
0.761551 0.279794 0.076597
0.834091 0.318297 0.078025
0.889653 0.359160 0.080775
0.934135 0.400418 0.085043
0.969617 0.436761 0.087436
0.999519 0.470262 0.088629
0.085874 0.231693 0.184190
0.084875 0.235950 0.168053
0.085293 0.227253 0.137983
0.047416 0.246975 0.124256
0.220871 0.254799 0.082430
0.368730 0.214071 0.082468
0.456927 0.216849 0.082947
0.531536 0.231809 0.080473
0.613631 0.250419 0.077156
0.700385 0.275897 0.075483
0.781948 0.311313 0.075991
0.848646 0.352160 0.078124
0.900139 0.394673 0.081879
0.941959 0.435837 0.086202
0.978892 0.470813 0.083541
1.001360 0.507240 0.125950
0.074618 0.270457 0.190492
0.074744 0.271009 0.162969
0.077810 0.258038 0.133368
0.030473 0.281354 0.116810
0.178431 0.305350 0.078603
0.365139 0.289201 0.065368
0.473505 0.252661 0.072723
0.566825 0.251093 0.073671
0.646125 0.273151 0.073879
0.723512 0.305535 0.074321
0.798546 0.344475 0.075991
0.860807 0.387589 0.079284
0.909181 0.431270 0.083998
0.950677 0.471782 0.088666
0.986157 0.505201 0.077716
1.002155 0.542371 0.164348
0.066867 0.308054 0.191996
0.067888 0.303592 0.157692
0.071355 0.289440 0.129449
0.016298 0.317643 0.110593
0.161975 0.346352 0.072396
0.353823 0.348736 0.055176
0.478874 0.338553 0.061849
0.583880 0.300599 0.068458
0.680549 0.300946 0.071122
0.753896 0.334577 0.073377
0.816315 0.380050 0.076789
0.872254 0.427964 0.081896
0.918430 0.470645 0.086944
0.959773 0.508372 0.091752
0.992618 0.541969 0.075319
1.001777 0.578345 0.185176
0.060097 0.344578 0.191554
0.061467 0.337222 0.154111
0.064948 0.324766 0.127017
-0.032218 0.358315 0.104811
0.162557 0.391855 0.065476
0.345596 0.404091 0.052592
0.481115 0.411943 0.052299
0.589306 0.404348 0.062156
0.693905 0.367002 0.067718
0.781180 0.372615 0.072101
0.839668 0.416308 0.077824
0.885545 0.469169 0.084706
0.928703 0.511899 0.090655
0.967815 0.548269 0.094136
0.999532 0.580515 0.073292
1.000971 0.612842 0.189334
0.054254 0.381237 0.186961
0.055267 0.375705 0.152298
0.058354 0.363960 0.126414
-0.048058 0.405476 0.092824
0.180320 0.443433 0.060111
0.348237 0.460403 0.051937
0.483682 0.478556 0.045327
0.593094 0.497149 0.057686
0.691461 0.491800 0.068375
0.787142 0.454898 0.073733
0.857832 0.464435 0.079237
0.901779 0.509686 0.086822
0.941155 0.554026 0.094491
0.977250 0.590724 0.093364
1.001465 0.623497 0.128181
1.000422 0.649085 0.194032
0.049123 0.420887 0.183003
0.050226 0.418287 0.158246
0.051175 0.407659 0.126040
-0.062247 0.464985 0.074490
0.208453 0.502219 0.059661
0.362903 0.520585 0.054382
0.484012 0.547979 0.051046
0.606012 0.574125 0.056341
0.692133 0.598462 0.069173
0.777007 0.592499 0.080024
0.857596 0.551461 0.084066
0.913261 0.564132 0.088929
0.954972 0.597046 0.096795
0.986543 0.632018 0.088696
1.001867 0.665085 0.173302
1.000183 0.685512 0.198551
0.045197 0.464342 0.188263
0.047252 0.464274 0.170847
0.040641 0.456897 0.129577
-0.048410 0.531280 0.068900
0.243577 0.565027 0.066381
0.387894 0.585622 0.063405
0.498938 0.614579 0.062597
0.611834 0.646324 0.060583
0.710427 0.667824 0.069321
0.776428 0.694915 0.079597
0.847901 0.684183 0.089848
0.913626 0.647382 0.094127
0.961158 0.654619 0.099057
0.992641 0.677832 0.082804
1.002036 0.706062 0.208143
1.000065 0.720671 0.202194
0.043693 0.512197 0.209225
0.047632 0.508115 0.189348
-0.018719 0.518385 0.138364
0.080376 0.601178 0.074828
0.293143 0.628108 0.079259
0.422920 0.649610 0.078314
0.526975 0.676198 0.078424
0.624717 0.708250 0.075014
0.719501 0.732917 0.072389
0.796204 0.754270 0.080861
0.852072 0.780962 0.089674
0.910520 0.762284 0.098771
0.961637 0.729899 0.103025
0.995829 0.729435 0.080716
1.001564 0.745485 0.208619
1.000034 0.757973 0.205067
0.045692 0.560569 0.238131
0.049825 0.548896 0.204626
-0.056351 0.595728 0.141489
0.171767 0.672024 0.090554
0.350881 0.690060 0.099932
0.464046 0.708807 0.102359
0.559808 0.732763 0.102134
0.645255 0.761450 0.100730
0.732182 0.789521 0.086952
0.809557 0.809170 0.081845
0.865361 0.829149 0.090229
0.907668 0.848823 0.098132
0.952705 0.827586 0.105268
0.995683 0.796317 0.081676
1.001878 0.791955 0.211719
1.000035 0.792541 0.205969
0.051512 0.606928 0.271429
0.051999 0.589997 0.224782
-0.064959 0.669451 0.149745
0.260514 0.731201 0.117462
0.407408 0.745142 0.130825
0.508047 0.761472 0.137079
0.593239 0.782518 0.135489
0.670988 0.808513 0.127117
0.745749 0.836143 0.111293
0.816110 0.856659 0.093864
0.872995 0.870655 0.090868
0.913260 0.885570 0.097647
0.944714 0.899132 0.105420
0.985022 0.877971 0.085357
1.002987 0.847186 0.215758
1.000043 0.830940 0.208858
0.057364 0.693986 0.314827
0.061959 0.692113 0.258881
0.114763 0.788917 0.160429
0.359929 0.839120 0.156458
0.489684 0.854296 0.172264
0.579918 0.872571 0.179838
0.660697 0.892808 0.173528
0.732537 0.917029 0.154490
0.797078 0.942360 0.140167
0.854824 0.961639 0.124730
0.905427 0.973745 0.100057
0.945413 0.983254 0.094984
0.969417 0.993327 0.103391
0.989506 1.003629 0.096237
1.015863 0.981438 0.206251
1.008149 0.943227 0.220235
0.079807 -0.276480 -0.040870
0.075652 -0.286827 0.056398
-0.031456 -0.310248 0.092961
-0.125303 -0.330032 0.104853
-0.149724 -0.338957 0.110749
-0.134406 -0.344374 0.114959
-0.102697 -0.350963 0.123752
0.090870 -0.358068 0.134683
0.214406 -0.364393 0.144877
0.346328 -0.370307 0.145212
0.497852 -0.374949 0.134518
0.637654 -0.373505 0.123637
0.751269 -0.364732 0.114795
0.839327 -0.346744 0.103947
0.901556 -0.313877 0.087794
0.954856 -0.270432 0.080725
0.082198 0.084924 0.119911
0.085950 0.091720 0.131963
0.085723 0.095158 0.130519
0.088212 0.106479 0.133516
0.140765 0.118705 0.138267
0.210068 0.131173 0.142340
0.262081 0.143099 0.149456
0.320208 0.157198 0.157382
0.404595 0.169330 0.159063
0.521088 0.175620 0.145917
0.645372 0.184608 0.126299
0.753075 0.207742 0.114822
0.836541 0.235585 0.108457
0.896378 0.265958 0.107242
0.947007 0.295159 0.108292
0.986173 0.321363 0.108185
0.087306 0.095888 0.129704
0.091200 0.105565 0.143670
0.092270 0.112863 0.152943
0.093530 0.124870 0.155231
0.149051 0.147249 0.160913
0.226136 0.164187 0.166906
0.290873 0.178853 0.171823
0.366596 0.192053 0.173504
0.473334 0.198020 0.158748
0.597694 0.203229 0.132272
0.711107 0.216820 0.113395
0.802787 0.242239 0.105453
0.869476 0.269268 0.101698
0.925188 0.295077 0.100502
0.968382 0.320791 0.096518
0.999410 0.347128 0.100048
0.093813 0.111707 0.138161
0.097380 0.124677 0.153106
0.098697 0.136418 0.165954
0.096495 0.150088 0.173492
0.152243 0.177335 0.182179
0.250323 0.197395 0.184672
0.329498 0.209897 0.181284
0.427328 0.216267 0.165371
0.544169 0.218095 0.134265
0.658722 0.226006 0.108684
0.756699 0.248145 0.099313
0.834771 0.277901 0.096034
0.895915 0.310423 0.096628
0.943588 0.342396 0.098044
0.982003 0.371571 0.091579
1.002412 0.407503 0.150774
0.101031 0.158048 0.177020
0.098777 0.176830 0.192677
0.094003 0.195104 0.203597
0.081628 0.208064 0.201615
0.173103 0.213667 0.166733
0.284093 0.219374 0.174286
0.352827 0.238153 0.182759
0.449539 0.250506 0.161941
0.560181 0.261187 0.132071
0.667342 0.280522 0.110468
0.762094 0.312009 0.102751
0.837895 0.350991 0.103540
0.896509 0.390347 0.107728
0.944793 0.425086 0.110152
0.981497 0.455167 0.104830
1.001286 0.491233 0.169254
0.087112 0.222893 0.222797
0.082691 0.237108 0.232585
0.077833 0.253482 0.229922
0.067295 0.255181 0.203282
0.111470 0.266166 0.168102
0.330292 0.241244 0.111215
0.410974 0.249622 0.143518
0.490730 0.268292 0.138604
0.592066 0.285017 0.114110
0.691811 0.311615 0.099023
0.778409 0.348979 0.094523
0.846805 0.394932 0.098747
0.901254 0.438358 0.105089
0.947105 0.475769 0.108910
0.982706 0.509692 0.104994
1.000810 0.544048 0.173575
0.071458 0.275682 0.250519
0.069179 0.285811 0.254190
0.068189 0.297724 0.236763
0.066176 0.289749 0.195477
0.043151 0.308505 0.163461
0.284413 0.317616 0.091824
0.448816 0.279472 0.082124
0.542543 0.282430 0.095546
0.626563 0.307750 0.097750
0.712733 0.343094 0.094398
0.793633 0.385027 0.092908
0.858061 0.431925 0.098167
0.909281 0.474251 0.101067
0.951013 0.511314 0.104515
0.985838 0.544499 0.095358
1.001572 0.579196 0.181728
0.061884 0.324892 0.272756
0.060447 0.333226 0.269415
0.061431 0.339383 0.237048
0.063970 0.324353 0.192292
-0.017626 0.348969 0.159090
