my luts/kk2.cube
LUT_3D_SIZE 6
0.031364 0.031358 0.038479
0.134479 0.077799 0.078663
0.327792 0.098241 0.089942
0.490106 0.115806 0.097203
0.650975 0.130810 0.104109
0.849605 0.169487 0.124873
0.176222 0.164244 0.089882
0.283073 0.150839 0.086399
0.429251 0.147456 0.093060
0.581143 0.172462 0.098116
0.733637 0.191901 0.106012
0.880579 0.238822 0.127426
0.394980 0.310729 0.093391
0.462160 0.324723 0.092725
0.588596 0.303758 0.085637
0.745893 0.266746 0.101543
0.853690 0.299182 0.111609
0.971796 0.366919 0.136706
0.618413 0.482581 0.121104
0.648431 0.492369 0.119456
0.709964 0.512376 0.122120
0.843117 0.494024 0.111058
0.955277 0.446505 0.116846
1.005677 0.475332 0.136522
0.782329 0.664218 0.181430
0.790402 0.666297 0.176732
0.855803 0.688378 0.169485
0.910908 0.707556 0.172153
1.001694 0.683774 0.160263
1.000653 0.634318 0.143984
1.014904 0.954464 0.302924
1.016561 0.954068 0.295994
1.055820 0.954917 0.294560
1.057701 0.956409 0.300064
1.042913 0.977631 0.274076
1.025584 0.919909 0.290565
-0.408759 -0.385851 -0.064744
-0.405797 -0.382371 0.075242
-0.204133 -0.376629 -0.032132
0.400127 -0.373945 -0.032740
0.630820 -0.369834 0.102975
0.812380 -0.331237 0.142459
0.085693 0.187658 0.228850
0.072215 0.197386 0.227207
0.332999 0.195588 0.184517
0.557913 0.180757 0.120034
0.709585 0.189120 0.143625
0.857486 0.235214 0.185815
0.308180 0.318600 0.143844
0.367954 0.338943 0.140008
0.547695 0.332349 0.091919
0.697804 0.299337 0.104388
0.811365 0.341844 0.134695
0.938179 0.406880 0.184144
0.589798 0.483314 0.150707
0.610277 0.498425 0.157576
0.700882 0.522405 0.155438
0.818459 0.508148 0.132906
0.935274 0.461254 0.152607
1.007921 0.504808 0.213204
0.762986 0.653223 0.206076
0.770852 0.666013 0.217605
0.834168 0.689403 0.214270
0.903827 0.712078 0.208640
1.002402 0.693846 0.159089
1.000460 0.640835 0.157530
0.997210 0.952254 0.320486
1.002511 0.956682 0.337672
1.036853 0.958223 0.341514
1.056025 0.960546 0.346377
1.039733 0.979139 0.320207
1.025479 0.922621 0.330314
-0.392327 -0.376607 0.102201
-0.395237 -0.368980 0.175384
-0.297369 -0.359289 0.153304
0.505950 -0.363496 -0.036201
0.672160 -0.357158 0.121585
0.813605 -0.304236 0.192923
0.087329 0.195923 0.274190
0.088905 0.220248 0.314844
0.313704 0.222245 0.270830
0.620618 0.219373 0.189293
0.748817 0.237450 0.213343
0.865481 0.282339 0.259697
0.073464 0.356008 0.432180
0.024216 0.379883 0.460976
0.342990 0.376552 0.387388
0.543003 0.385731 0.379904
0.727599 0.398092 0.334981
0.886700 0.427578 0.324334
0.449552 0.490981 0.304432
0.467339 0.501019 0.324555
0.612492 0.528819 0.276826
0.766725 0.535894 0.221011
0.873762 0.514305 0.269777
0.984942 0.580504 0.326161
0.703112 0.650622 0.315499
0.712029 0.663825 0.327935
0.769124 0.687877 0.346984
0.883275 0.721651 0.316178
0.996763 0.709680 0.252405
1.000629 0.667312 0.307262
0.961806 0.957983 0.407536
0.965511 0.963183 0.427906
1.007996 0.962852 0.437034
1.054155 0.967583 0.449568
1.036068 0.981276 0.435409
1.023864 0.930529 0.427497
-0.369444 -0.365366 0.186392
-0.372779 -0.361892 0.203621
-0.395720 -0.347921 0.289919
0.278310 -0.331411 0.158959
0.735514 -0.332798 -0.033387
0.828156 -0.290509 0.182699
0.088435 0.215642 0.304227
0.089111 0.232769 0.330649
0.053650 0.253222 0.407570
0.474087 0.272221 0.307218
0.774821 0.278010 0.268551
0.858622 0.316237 0.318344
0.088179 0.331998 0.451959
0.088721 0.348164 0.480506
0.038480 0.385057 0.568638
0.501991 0.368935 0.450042
0.711814 0.402853 0.440895
0.840761 0.446660 0.467367
0.048085 0.531203 0.646895
-0.044154 0.538251 0.652469
0.305165 0.548449 0.630391
0.582417 0.562956 0.564965
0.728167 0.582377 0.573334
0.891459 0.611357 0.560393
0.541720 0.671904 0.471981
0.564805 0.677654 0.472567
0.675447 0.691365 0.500898
0.798142 0.717959 0.478218
0.961800 0.738717 0.389751
1.003844 0.722521 0.470273
0.891616 0.988792 0.532467
0.899639 0.990410 0.540045
0.946814 0.981144 0.559597
1.009994 0.969206 0.588433
1.037652 0.977924 0.601894
1.022096 0.952505 0.558261
-0.298621 -0.358423 0.232924
-0.303356 -0.350797 0.252798
-0.345790 -0.338398 0.276839
-0.252552 -0.320963 0.275131
0.524078 -0.277357 0.240421
0.790782 -0.229261 0.333593
0.089306 0.245564 0.348360
0.089415 0.258343 0.365043
0.091051 0.279704 0.413818
0.209210 0.275697 0.462942
0.617296 0.317816 0.414102
0.831858 0.355909 0.467617
0.089035 0.332539 0.462284
0.089284 0.346919 0.484552
0.092637 0.381971 0.560150
0.073243 0.373321 0.623613
0.631524 0.390516 0.568132
0.849941 0.437037 0.593936
0.092803 0.484515 0.655939
0.093800 0.492669 0.668206
0.069465 0.519561 0.736380
0.360674 0.551643 0.729892
0.686281 0.549454 0.670494
0.861297 0.590065 0.676391
0.164868 0.690808 0.820393
0.182832 0.694222 0.824591
0.376865 0.709300 0.813730
0.587989 0.728695 0.771821
0.793477 0.752413 0.735519
0.911460 0.775735 0.755090
0.648548 1.011208 0.678157
0.653409 1.012714 0.695350
0.765817 1.007407 0.684799
0.920341 0.996248 0.718898
1.011979 0.980583 0.734844
1.032712 0.984733 0.695951
-0.171195 -0.292206 -0.203699
-0.179110 -0.263942 -0.035291
-0.231997 -0.269424 0.123765
-0.291992 -0.261387 0.327813
0.362356 -0.261121 0.406011
0.688535 -0.179118 0.479627
0.089690 0.296426 0.419000
0.089669 0.310481 0.438179
0.090151 0.320999 0.458049
0.095201 0.327887 0.520193
0.366066 0.332996 0.595882
0.731919 0.367495 0.632253
0.088728 0.349307 0.481385
0.088966 0.364571 0.503971
0.091131 0.392854 0.558385
0.099274 0.412822 0.646933
0.243293 0.399006 0.742010
0.706178 0.439574 0.743105
0.092102 0.479055 0.645986
0.092711 0.482966 0.652991
0.097621 0.499417 0.697955
0.098020 0.550306 0.841007
0.426016 0.540351 0.824929
0.780699 0.565290 0.800120
0.112685 0.623108 0.825568
0.113742 0.629414 0.833454
0.080286 0.652913 0.886589
0.372670 0.681218 0.885270
0.679673 0.729916 0.834385
0.873855 0.735977 0.842174
0.440393 0.854417 0.954175
0.439242 0.850843 0.954932
0.550955 0.860342 0.945057
0.692485 0.880831 0.920018
0.825974 0.911150 0.878667
0.955512 0.930471 0.876275
