my luts/kk2.cube
LUT_3D_SIZE 16
0.031364 0.031358 0.038479
-0.032409 0.029535 0.036240
0.038848 0.055053 0.058422
0.134479 0.077799 0.078663
0.215317 0.088637 0.085665
0.277729 0.093668 0.086428
0.327792 0.098241 0.089942
0.384522 0.103944 0.092859
0.438871 0.110167 0.095179
0.490106 0.115806 0.097203
0.541886 0.120833 0.099270
0.595179 0.124788 0.101594
0.650975 0.130810 0.104109
0.701697 0.138699 0.107393
0.760942 0.146911 0.112117
0.849605 0.169487 0.124873
0.061346 0.082110 0.070046
0.094085 0.081039 0.073591
0.156009 0.088035 0.082748
0.215853 0.096353 0.086767
0.260075 0.101531 0.086084
0.308611 0.106786 0.088600
0.361607 0.111443 0.091523
0.421043 0.113204 0.094295
0.476807 0.113738 0.096726
0.520545 0.117159 0.098491
0.569310 0.122543 0.100450
0.625294 0.129652 0.102887
0.670209 0.135954 0.104915
0.726677 0.143853 0.109070
0.783972 0.151769 0.113348
0.862500 0.178731 0.125331
0.128065 0.124748 0.083859
0.149728 0.132289 0.087337
0.205738 0.124261 0.087525
0.255046 0.108265 0.086318
0.294452 0.113433 0.087634
0.338403 0.123294 0.090009
0.385184 0.131410 0.091943
0.438806 0.137143 0.093988
0.492916 0.137916 0.096265
0.551036 0.138481 0.098807
0.610589 0.140235 0.101592
0.661678 0.142687 0.104234
0.711623 0.148955 0.106881
0.752987 0.152531 0.110345
0.808571 0.160078 0.115081
0.861594 0.193921 0.127677
0.176222 0.164244 0.089882
0.205277 0.169201 0.091449
0.240408 0.171246 0.089013
0.283073 0.150839 0.086399
0.335623 0.136730 0.089525
0.383619 0.138191 0.091613
0.429251 0.147456 0.093060
0.477665 0.156821 0.094493
0.529259 0.165794 0.096120
0.581143 0.172462 0.098116
0.635747 0.180270 0.100498
0.685599 0.186436 0.103137
0.733637 0.191901 0.106012
0.775465 0.193875 0.109385
0.824617 0.200522 0.115235
0.880579 0.238822 0.127426
0.237594 0.208548 0.089596
0.269540 0.217460 0.089996
0.300250 0.220639 0.090364
0.329279 0.219855 0.088941
0.375380 0.192406 0.087879
0.432191 0.177936 0.091121
0.493320 0.172033 0.094086
0.539534 0.176638 0.095784
0.583052 0.187216 0.097090
0.636623 0.196960 0.099303
0.685167 0.208140 0.101561
0.727820 0.219656 0.103781
0.768842 0.233392 0.106091
0.806817 0.241586 0.109905
0.852265 0.248950 0.116197
0.906941 0.285963 0.130558
0.310252 0.259294 0.090236
0.339794 0.268828 0.092095
0.361601 0.272627 0.092532
0.392109 0.272936 0.090810
0.424643 0.274817 0.088592
0.479539 0.242417 0.086792
0.549104 0.227710 0.091554
0.602570 0.216222 0.095609
0.653434 0.215043 0.098840
0.692496 0.225484 0.100682
0.734322 0.239029 0.102873
0.776297 0.249540 0.105660
0.815186 0.263225 0.109210
0.854469 0.279695 0.114325
0.892013 0.294045 0.120758
0.936482 0.331546 0.134989
0.394980 0.310729 0.093391
0.418431 0.320688 0.094339
0.435673 0.323177 0.094256
0.462160 0.324723 0.092725
0.488994 0.330793 0.091429
0.530514 0.335254 0.088685
0.588596 0.303758 0.085637
0.653978 0.286496 0.091642
0.701200 0.273883 0.096932
0.745893 0.266746 0.101543
0.783649 0.269640 0.104938
0.815094 0.283991 0.107207
0.853690 0.299182 0.111609
0.893898 0.314171 0.116171
0.928897 0.328878 0.122260
0.971796 0.366919 0.136706
0.483105 0.367513 0.097137
0.499832 0.378177 0.098188
0.512165 0.380043 0.098291
0.539330 0.385518 0.097901
0.558491 0.387381 0.096870
0.590708 0.400123 0.097198
0.624425 0.402068 0.094931
0.688694 0.363200 0.088328
0.738058 0.348435 0.092827
0.782377 0.332093 0.099523
0.819563 0.322208 0.104770
0.854601 0.319851 0.109210
0.889857 0.332639 0.113273
0.923545 0.351145 0.119999
0.960806 0.369027 0.127298
1.001509 0.402307 0.141478
0.558992 0.428370 0.104965
0.569385 0.433877 0.106256
0.575554 0.435311 0.106888
0.598009 0.442158 0.107293
0.623387 0.447218 0.107024
0.638011 0.449683 0.106897
0.677629 0.469168 0.110132
0.703271 0.461959 0.106125
0.771482 0.428002 0.096944
0.812194 0.408214 0.098677
0.851758 0.392415 0.104291
0.886939 0.383018 0.110160
0.925074 0.377712 0.115889
0.962267 0.386751 0.121632
0.996291 0.408331 0.130041
1.009559 0.441255 0.144253
0.618413 0.482581 0.121104
0.624032 0.485373 0.119731
0.631660 0.487324 0.119458
0.648431 0.492369 0.119456
0.673716 0.500141 0.119819
0.693647 0.505378 0.120516
0.709964 0.512376 0.122120
0.752509 0.534490 0.126772
0.778344 0.524780 0.122186
0.843117 0.494024 0.111058
0.884161 0.472754 0.109385
0.915323 0.457984 0.111511
0.955277 0.446505 0.116846
0.999999 0.434258 0.123816
1.008848 0.440682 0.124229
1.005677 0.475332 0.136522
0.681037 0.538894 0.137333
0.684331 0.539746 0.134292
0.690132 0.543221 0.135667
0.701905 0.547167 0.135395
0.722741 0.554671 0.135588
0.749951 0.564317 0.135551
0.766804 0.570768 0.137107
0.782797 0.579356 0.139276
0.822480 0.602167 0.143534
0.850441 0.590839 0.139136
0.912393 0.562313 0.126989
0.956222 0.544022 0.122767
0.985877 0.522458 0.121555
1.007516 0.501300 0.122772
1.005591 0.486014 0.121861
1.004619 0.509724 0.122437
0.741985 0.598777 0.158303
0.744397 0.598262 0.153097
0.747935 0.600688 0.154418
0.757133 0.604532 0.154355
0.775219 0.611492 0.152673
0.797628 0.619920 0.150770
0.821218 0.630234 0.151570
0.836991 0.636473 0.153407
0.851001 0.643922 0.155419
0.888106 0.665577 0.158400
0.915844 0.657468 0.156093
0.979655 0.624229 0.142169
1.006263 0.605017 0.136837
1.003956 0.578189 0.130345
1.003629 0.553971 0.126144
1.003210 0.567233 0.128075
0.782329 0.664218 0.181430
0.780460 0.658770 0.173909
0.783398 0.661305 0.175978
0.790402 0.666297 0.176732
0.804921 0.672229 0.175351
0.827450 0.679673 0.172427
0.855803 0.688378 0.169485
0.882206 0.697915 0.168259
0.897116 0.701403 0.169289
0.910908 0.707556 0.172153
0.951764 0.729445 0.173361
0.983051 0.714840 0.169150
1.001694 0.683774 0.160263
0.999502 0.670166 0.155747
1.000489 0.638516 0.145487
1.000653 0.634318 0.143984
0.832402 0.743941 0.192805
0.827378 0.732174 0.182254
0.833219 0.738062 0.186419
0.836673 0.739873 0.188580
0.847962 0.741876 0.190763
0.862347 0.744913 0.192277
0.882860 0.749187 0.194069
0.909414 0.757312 0.195914
0.941348 0.766267 0.191015
0.958312 0.769094 0.191248
0.975867 0.774806 0.194001
1.001268 0.793333 0.189462
0.998600 0.774349 0.179725
0.997770 0.750348 0.178403
0.997969 0.730980 0.173109
0.998207 0.718987 0.170904
0.885934 0.826812 0.188379
0.877489 0.819057 0.174128
0.882847 0.820486 0.178869
0.885167 0.820424 0.179502
0.894989 0.821115 0.182650
0.908484 0.822362 0.187413
0.925346 0.823893 0.192951
0.945885 0.824142 0.200592
0.969502 0.823513 0.205633
0.997260 0.828252 0.204545
1.001634 0.830805 0.200863
0.999366 0.842108 0.197166
0.998584 0.858385 0.185013
0.998372 0.838311 0.164948
0.997950 0.798602 0.168145
0.997878 0.789121 0.201930
1.014904 0.954464 0.302924
1.010787 0.953234 0.290083
1.014626 0.953886 0.293883
1.016561 0.954068 0.295994
1.027908 0.953964 0.295164
1.039804 0.954394 0.294487
1.055820 0.954917 0.294560
1.070186 0.955444 0.296669
1.063937 0.955768 0.296505
1.057701 0.956409 0.300064
1.052248 0.957359 0.304147
1.047589 0.967453 0.294411
1.042913 0.977631 0.274076
1.037430 0.954399 0.236241
1.030921 0.922156 0.273052
1.025584 0.919909 0.290565
-0.414371 -0.389416 -0.105320
-0.414378 -0.388902 -0.095991
-0.407477 -0.386482 -0.081925
-0.392328 -0.384251 -0.067785
-0.356145 -0.383037 -0.067008
-0.309019 -0.382296 -0.061929
-0.244977 -0.381064 -0.054482
-0.123101 -0.380195 -0.048894
0.235970 -0.379624 -0.028957
0.347377 -0.378884 -0.023043
0.442680 -0.379054 0.016332
0.524288 -0.380288 0.044974
0.595369 -0.378601 0.071267
0.661305 -0.369334 0.087196
0.726499 -0.356785 0.088272
0.817698 -0.342132 0.105868
0.063688 0.073931 0.095514
0.059002 0.092948 0.114521
0.095746 0.102651 0.108317
0.163236 0.112622 0.107360
0.238105 0.113188 0.091596
0.301715 0.112809 0.087392
0.365196 0.118757 0.091355
0.424181 0.119608 0.094158
0.480996 0.117397 0.096747
0.533387 0.117983 0.099029
0.595310 0.122151 0.101663
0.652077 0.127933 0.104742
0.696820 0.134742 0.108450
0.745162 0.141392 0.113751
0.801444 0.147672 0.117357
0.858740 0.179169 0.133876
0.097678 0.142683 0.094475
0.090729 0.154150 0.102298
0.143360 0.138942 0.096755
0.199323 0.132110 0.100680
0.249979 0.139442 0.093933
0.304433 0.143055 0.089876
0.370563 0.142423 0.090681
0.432606 0.143114 0.093405
0.491944 0.141325 0.096031
0.546714 0.141296 0.098454
0.603574 0.143272 0.101026
0.658196 0.145639 0.104287
0.706609 0.153379 0.109550
0.754861 0.159199 0.116713
0.806498 0.166399 0.123213
0.859591 0.200434 0.138560
0.152869 0.176378 0.095101
0.146841 0.191901 0.099587
0.205280 0.186421 0.090682
0.265518 0.168121 0.084527
0.313580 0.148762 0.086782
0.362690 0.154734 0.089440
0.408953 0.164748 0.091066
0.464308 0.174411 0.092695
0.517114 0.180614 0.094474
0.571501 0.182604 0.096877
0.625893 0.187796 0.099347
0.678632 0.190385 0.102142
0.722690 0.194203 0.106623
0.772714 0.199332 0.113665
0.822584 0.205910 0.121314
0.873258 0.239012 0.138268
0.221780 0.211325 0.092455
0.218705 0.224613 0.097255
0.263391 0.229962 0.088973
0.318830 0.230352 0.090293
0.362189 0.209797 0.087263
0.422513 0.187173 0.089979
0.477360 0.181746 0.092642
0.520742 0.189582 0.093887
0.571490 0.199633 0.095479
0.620900 0.208267 0.097456
0.672033 0.220325 0.099635
0.718339 0.232043 0.101857
0.758786 0.243001 0.105571
0.804134 0.250286 0.111391
0.850649 0.255619 0.118569
0.903245 0.288782 0.134366
0.304372 0.258842 0.088833
0.306659 0.272003 0.091278
0.334952 0.278011 0.090324
0.389003 0.279587 0.091794
0.419429 0.281641 0.089818
0.470383 0.253814 0.086023
0.536036 0.232491 0.090356
0.589508 0.222746 0.094257
0.640032 0.222452 0.097327
0.677261 0.234218 0.098819
0.723503 0.248821 0.101015
0.767958 0.261113 0.104676
0.808298 0.274902 0.110521
0.845531 0.288069 0.117194
0.885924 0.304372 0.126773
0.932252 0.339389 0.144599
0.394352 0.309513 0.093237
0.403336 0.325525 0.092794
0.423941 0.329766 0.094400
0.458014 0.331845 0.094150
0.485620 0.333920 0.092280
0.525725 0.339986 0.089753
0.582014 0.308891 0.085145
0.645006 0.292133 0.090156
0.691371 0.277588 0.095683
0.738010 0.271690 0.100338
0.773237 0.276192 0.103789
0.808406 0.291338 0.108639
0.846382 0.305898 0.115782
0.884958 0.321000 0.122632
0.922275 0.336684 0.130459
0.964291 0.373809 0.148102
0.487508 0.366368 0.096937
0.491906 0.380156 0.097791
0.505868 0.384277 0.098375
0.530825 0.388073 0.098474
0.556380 0.389923 0.097246
0.586602 0.400606 0.097815
0.622286 0.402999 0.097161
0.680189 0.367435 0.088425
0.734508 0.355629 0.091851
0.776809 0.336884 0.098557
0.814913 0.325515 0.104356
0.849732 0.323684 0.109738
0.882841 0.338118 0.116799
0.917952 0.357792 0.126186
0.956626 0.374821 0.133759
0.995710 0.409494 0.153515
0.563189 0.426139 0.104572
0.562578 0.436889 0.108412
0.570430 0.439275 0.108990
0.589726 0.444477 0.110688
0.620039 0.450278 0.110202
0.633717 0.450878 0.109359
0.671019 0.469199 0.111047
0.700379 0.463682 0.108275
0.763757 0.429122 0.096664
0.808706 0.413100 0.098413
0.847879 0.396114 0.103389
0.883606 0.386764 0.109787
0.922168 0.381015 0.116455
0.955495 0.392164 0.125453
0.992544 0.415994 0.138102
1.009957 0.448029 0.156439
0.620654 0.478034 0.118797
0.617808 0.488007 0.126124
0.624620 0.489412 0.126460
0.642018 0.494645 0.125982
0.667957 0.501838 0.124343
0.691421 0.507992 0.123849
0.707049 0.513921 0.125270
0.747962 0.535188 0.127452
0.776166 0.528201 0.123253
0.839514 0.496315 0.111474
0.879314 0.475772 0.109329
0.912188 0.461562 0.111128
0.954886 0.449075 0.116343
0.995519 0.436999 0.123520
1.009157 0.446001 0.128228
1.005867 0.480600 0.145977
0.679365 0.532658 0.133328
0.681133 0.543611 0.142549
0.687808 0.545125 0.142413
0.697827 0.548024 0.141775
0.718639 0.555429 0.140755
0.747151 0.565749 0.139676
0.766638 0.573292 0.140752
0.781257 0.580579 0.143019
0.819621 0.603010 0.144569
0.848734 0.592817 0.139416
0.911512 0.564227 0.127400
0.952483 0.546181 0.123059
0.982452 0.524295 0.121399
1.007273 0.504086 0.122470
1.005762 0.490496 0.120845
1.004585 0.512722 0.126847
0.741909 0.592016 0.151690
0.740196 0.600330 0.161819
0.744364 0.600960 0.161833
0.752542 0.604308 0.160810
0.771327 0.611631 0.158464
0.794879 0.620833 0.156317
0.820054 0.631674 0.155549
0.836838 0.638159 0.157155
0.849054 0.644470 0.159753
0.886000 0.666700 0.160583
0.914249 0.658580 0.155837
0.979145 0.625298 0.142301
1.006172 0.607824 0.137544
1.004100 0.579344 0.130592
1.003605 0.555584 0.126189
1.003154 0.569059 0.127969
0.779418 0.652624 0.173088
0.778456 0.661263 0.182231
0.781190 0.661921 0.182817
0.787697 0.665201 0.182908
0.802673 0.672831 0.182867
0.823003 0.679751 0.180234
0.851691 0.689048 0.176205
0.880701 0.699212 0.173279
0.898571 0.705071 0.174332
0.910864 0.709457 0.177616
0.948948 0.729767 0.177322
0.981979 0.716030 0.168723
1.001822 0.684619 0.160268
0.999530 0.667486 0.154857
1.000502 0.638119 0.145310
1.000556 0.636930 0.144593
0.826944 0.728031 0.185558
0.822776 0.734157 0.192282
0.829504 0.738606 0.192960
0.834837 0.739834 0.195792
0.844692 0.742720 0.198216
0.859690 0.745885 0.200190
0.880755 0.749805 0.202374
0.906308 0.757257 0.202811
0.938307 0.766801 0.197159
0.957963 0.770640 0.196784
0.974525 0.774979 0.199782
1.000897 0.793865 0.194659
0.998724 0.775267 0.178825
0.997736 0.754057 0.178689
0.997966 0.731084 0.172547
0.998199 0.719441 0.171745
0.879183 0.814913 0.178391
0.878594 0.821240 0.185111
0.881099 0.821079 0.185561
0.884056 0.821028 0.186400
0.893762 0.821992 0.189331
0.907009 0.822947 0.193747
0.923215 0.824491 0.198869
0.943241 0.824712 0.206319
0.968952 0.824059 0.212413
0.996824 0.828808 0.209697
1.001696 0.832129 0.207404
0.999481 0.841526 0.202744
0.998556 0.858427 0.191607
0.998418 0.840590 0.162116
0.997943 0.798178 0.169944
0.997822 0.784776 0.207399
1.013177 0.950155 0.281807
1.007294 0.954479 0.299854
1.011262 0.954718 0.301546
1.013057 0.954620 0.304548
1.022632 0.954639 0.304913
1.036024 0.954842 0.303671
1.051307 0.955564 0.304141
1.065504 0.955961 0.306048
1.063380 0.956501 0.306348
1.056685 0.956797 0.308285
1.050976 0.957950 0.312213
1.046082 0.967168 0.304404
1.041234 0.977879 0.284256
1.035586 0.954585 0.244835
1.029550 0.922951 0.279762
1.025335 0.920656 0.297117
-0.412421 -0.387196 -0.087258
-0.411226 -0.386683 -0.066435
-0.412260 -0.386305 -0.059409
-0.382396 -0.382710 -0.037653
-0.351925 -0.381903 -0.045831
-0.295656 -0.380111 -0.053992
-0.208771 -0.379026 -0.060773
0.111127 -0.378650 -0.049469
0.265850 -0.377560 -0.044402
0.377416 -0.376447 -0.035784
0.469304 -0.376121 0.012047
0.550611 -0.376914 0.055732
0.619582 -0.375244 0.084631
0.685875 -0.366131 0.101093
0.751742 -0.354753 0.101083
0.813007 -0.340251 0.117837
0.078794 0.096224 0.138088
0.081549 0.112100 0.158567
0.056889 0.111258 0.145778
0.188597 0.117210 0.131478
0.251649 0.115995 0.123835
0.311087 0.113813 0.105898
0.376490 0.114009 0.093469
0.437507 0.116294 0.093673
0.494588 0.120190 0.097729
0.549841 0.124783 0.101657
0.602999 0.128850 0.105357
0.655436 0.135211 0.111436
0.704056 0.141185 0.118686
0.754001 0.146080 0.122976
0.802616 0.147257 0.122686
0.855606 0.173820 0.140907
0.082916 0.138507 0.174861
0.081199 0.147894 0.189336
0.054249 0.151084 0.180342
0.146133 0.149111 0.158785
0.209910 0.153000 0.154666
0.280690 0.146935 0.133866
0.358204 0.144117 0.110123
0.428983 0.139981 0.096858
0.490976 0.134681 0.097546
0.548159 0.136120 0.101000
0.605722 0.143940 0.106368
0.655343 0.147778 0.112620
0.701685 0.151912 0.120438
0.755740 0.159933 0.129183
0.805286 0.165372 0.132769
0.860189 0.197107 0.152833
0.085281 0.195006 0.117433
0.073552 0.208174 0.129160
0.110934 0.203036 0.127239
0.210901 0.188993 0.119726
0.251156 0.178167 0.142987
0.300242 0.185977 0.135313
0.367564 0.192412 0.119508
0.438397 0.194053 0.105047
0.503454 0.194976 0.100714
0.564735 0.191205 0.098805
0.621399 0.194354 0.103350
0.669172 0.194847 0.111206
0.712518 0.194795 0.119661
0.764345 0.203158 0.128748
0.813622 0.206930 0.138691
0.868020 0.238369 0.159745
0.174149 0.231794 0.107508
0.166934 0.246492 0.110841
0.193721 0.240946 0.120005
0.278993 0.241786 0.093116
0.343232 0.224973 0.082501
0.392347 0.201797 0.089264
0.440276 0.202337 0.090885
0.489815 0.211755 0.093006
0.546952 0.222082 0.094597
0.603140 0.230785 0.095587
0.653378 0.239587 0.098237
0.702133 0.247258 0.104052
0.745235 0.253159 0.112289
0.795087 0.260570 0.120508
0.840990 0.263970 0.130251
0.889928 0.293466 0.151343
0.263937 0.263921 0.110868
0.259537 0.277848 0.119340
0.283861 0.278745 0.116834
0.356010 0.288753 0.090867
0.410562 0.289614 0.090256
0.452927 0.271166 0.085892
0.513271 0.243849 0.087190
0.567965 0.234502 0.091213
0.615860 0.238014 0.093765
0.659013 0.252802 0.096382
0.706984 0.265686 0.101005
0.751066 0.276474 0.106573
0.790573 0.290404 0.114240
0.833792 0.303908 0.122849
0.875158 0.314585 0.132300
0.924115 0.349219 0.154068
0.366373 0.315273 0.099025
0.363458 0.326053 0.110664
0.386757 0.332839 0.102679
0.435316 0.339502 0.092634
0.481693 0.341644 0.093514
0.516021 0.346638 0.091566
0.571572 0.318416 0.084892
0.630874 0.296489 0.088034
0.676801 0.284433 0.093904
0.723194 0.280047 0.099238
0.759377 0.289639 0.104566
0.792914 0.305883 0.112577
0.830978 0.318787 0.121543
0.872058 0.333421 0.131639
0.911356 0.351321 0.144271
0.955767 0.387660 0.165753
0.464454 0.371404 0.098053
0.464144 0.382570 0.107306
0.481530 0.386997 0.102815
0.511553 0.392074 0.099872
0.550134 0.395801 0.099561
0.575249 0.400748 0.099722
0.617077 0.410804 0.102900
0.670147 0.374999 0.093910
0.721871 0.360037 0.095885
0.764821 0.343082 0.103095
0.804501 0.334265 0.110653
0.839541 0.334146 0.118989
0.870711 0.349290 0.129247
0.904959 0.367765 0.142012
0.948196 0.388251 0.152187
0.987070 0.421031 0.175780
0.547609 0.428785 0.108931
0.544766 0.438000 0.118368
0.555300 0.439843 0.116011
0.574838 0.447090 0.115502
0.608806 0.453194 0.116832
0.630981 0.454763 0.116989
0.659591 0.468207 0.119640
0.696923 0.473037 0.119756
0.750931 0.434981 0.104236
0.802170 0.418930 0.103946
0.840679 0.401412 0.109368
0.877657 0.391878 0.118849
0.913666 0.387684 0.127598
0.944891 0.402796 0.142079
0.982169 0.425330 0.156032
1.009383 0.457924 0.181440
0.611253 0.481243 0.127315
0.609084 0.490336 0.138727
0.617647 0.492310 0.136975
0.631831 0.497689 0.136646
0.657236 0.505461 0.137587
0.686981 0.512047 0.133635
0.704536 0.517099 0.135090
0.739701 0.534824 0.134304
0.773107 0.533466 0.129080
0.832586 0.500394 0.112223
0.870671 0.479793 0.110841
0.906716 0.466288 0.115141
0.946374 0.455319 0.124696
0.989532 0.442506 0.132776
1.008761 0.455984 0.144949
1.006496 0.489890 0.171754
0.674740 0.535327 0.145161
0.670999 0.543779 0.156744
0.678514 0.545570 0.155946
0.688808 0.549089 0.155857
0.709334 0.556003 0.153570
0.736843 0.566298 0.151759
0.763691 0.576053 0.150310
0.777475 0.582108 0.152833
0.812879 0.602987 0.152075
0.845711 0.596229 0.141835
0.907746 0.566885 0.127005
0.944873 0.549149 0.122608
0.977105 0.528176 0.121151
1.007442 0.508973 0.126491
1.006108 0.494778 0.126519
1.004534 0.520325 0.145743
0.734797 0.592067 0.163671
0.727920 0.598060 0.174803
0.735703 0.600195 0.173451
0.743822 0.604947 0.174678
0.762531 0.610949 0.171672
0.784954 0.620427 0.169435
0.814125 0.631552 0.165935
0.834523 0.639295 0.165661
0.845434 0.645396 0.169499
0.878490 0.667071 0.169484
0.909382 0.662202 0.158235
0.977288 0.627804 0.142079
1.005193 0.612964 0.138411
1.004332 0.582359 0.130576
1.003482 0.560929 0.125668
1.003030 0.573646 0.134905
0.774195 0.653602 0.185843
0.770451 0.661205 0.195658
0.775612 0.662612 0.194953
0.782485 0.668500 0.198004
0.797538 0.673686 0.197832
0.818052 0.680746 0.195390
0.843519 0.688867 0.190764
0.875862 0.700127 0.186230
0.896994 0.706183 0.184646
0.907844 0.710223 0.188918
0.943529 0.730693 0.188854
0.979436 0.718145 0.170256
1.002068 0.687890 0.160525
0.999545 0.668878 0.155221
1.000410 0.640808 0.145742
1.000527 0.637653 0.143834
0.821520 0.728097 0.196025
0.818177 0.735027 0.202173
0.822312 0.738366 0.203978
0.830084 0.741365 0.207425
0.840486 0.744009 0.209960
0.854278 0.746879 0.213434
0.874258 0.750954 0.217472
0.900489 0.757936 0.217414
0.932447 0.767274 0.210245
0.955920 0.772126 0.205929
0.972741 0.775762 0.209691
1.000206 0.794641 0.204535
0.998854 0.776369 0.179251
0.997723 0.755853 0.177964
0.997934 0.732305 0.171622
0.998187 0.720067 0.174088
0.876047 0.815346 0.187667
0.871523 0.821264 0.194682
0.876532 0.821440 0.194951
0.881467 0.821949 0.198648
0.890587 0.822698 0.201362
0.903535 0.823871 0.204640
0.919176 0.825357 0.207957
0.941301 0.825975 0.215312
0.965470 0.825441 0.222431
0.996227 0.830162 0.221240
1.001664 0.833382 0.219700
0.999560 0.840998 0.216569
0.998617 0.859292 0.202638
0.998437 0.841364 0.160375
0.997918 0.796693 0.173103
0.997894 0.790514 0.217458
1.006542 0.951629 0.297561
1.002161 0.955055 0.312954
1.006260 0.955080 0.315379
1.010236 0.955263 0.318111
1.017579 0.955486 0.318866
1.030514 0.955502 0.317947
1.046515 0.956256 0.318740
1.061427 0.957072 0.320852
1.062817 0.957813 0.321486
1.055985 0.958566 0.322757
1.050079 0.959173 0.326235
1.045264 0.967339 0.318189
1.040519 0.978893 0.297225
1.035150 0.954391 0.260347
1.029448 0.924456 0.292414
1.025350 0.921344 0.309114
-0.408759 -0.385851 -0.064744
-0.407799 -0.385068 -0.007445
-0.408967 -0.383382 0.081290
-0.405797 -0.382371 0.075242
-0.350215 -0.378992 0.066084
-0.285509 -0.378193 0.038203
-0.204133 -0.376629 -0.032132
0.167006 -0.375911 -0.046277
0.297645 -0.375317 -0.050646
0.400127 -0.373945 -0.032740
0.487486 -0.373196 0.036784
0.563918 -0.373154 0.071931
0.630820 -0.369834 0.102975
0.689755 -0.359442 0.122522
0.753472 -0.347193 0.124596
0.812380 -0.331237 0.142459
0.082169 0.110549 0.156641
0.084512 0.121634 0.171760
0.078479 0.126712 0.185999
0.082858 0.121262 0.169290
0.255105 0.129120 0.148610
0.322638 0.128170 0.135708
0.383014 0.130444 0.120604
0.449406 0.130720 0.105713
0.504554 0.132198 0.104103
0.562037 0.137605 0.111925
0.615825 0.142403 0.117905
0.665908 0.149835 0.126599
0.710653 0.157135 0.134859
0.755240 0.164605 0.143542
0.803279 0.167131 0.143657
0.853360 0.191454 0.163062
0.086579 0.135710 0.189532
0.087184 0.142053 0.198086
0.082260 0.153440 0.217762
0.064567 0.150301 0.195769
0.232343 0.154870 0.172342
0.294624 0.153439 0.163348
0.362297 0.150672 0.144704
0.437258 0.145772 0.117670
0.501983 0.143123 0.104955
0.562369 0.146960 0.113751
0.617419 0.151531 0.121315
0.666951 0.157772 0.130562
0.709967 0.163950 0.137894
0.755640 0.170923 0.147309
0.805115 0.173225 0.148474
0.853244 0.196455 0.165721
0.085693 0.187658 0.228850
0.084565 0.195781 0.245439
0.071141 0.200679 0.246219
0.072215 0.197386 0.227207
0.202739 0.194193 0.205404
0.259310 0.195796 0.199933
0.332999 0.195588 0.184517
0.413410 0.189331 0.157034
0.487998 0.184091 0.130410
0.557913 0.180757 0.120034
0.616293 0.185563 0.125412
0.665019 0.186287 0.134879
0.709585 0.189120 0.143625
0.756033 0.199481 0.153998
0.803919 0.200733 0.160623
0.857486 0.235214 0.185815
0.074810 0.242851 0.164470
0.058179 0.254456 0.181887
0.073248 0.258057 0.172941
0.155751 0.254699 0.169461
0.281455 0.241960 0.144793
0.319591 0.227297 0.183059
0.376899 0.236805 0.171895
0.438609 0.245771 0.159728
0.513549 0.250126 0.139966
0.575826 0.252323 0.132118
0.636684 0.257006 0.127313
0.686575 0.256748 0.129782
0.732066 0.257921 0.140848
0.778877 0.265238 0.152062
0.825811 0.265661 0.162421
0.876443 0.297704 0.185593
0.186093 0.286708 0.131216
0.175716 0.299545 0.141789
0.208446 0.299158 0.146363
0.260933 0.293709 0.155053
0.372524 0.298972 0.101954
0.427034 0.283367 0.096713
0.478085 0.258118 0.108672
0.525487 0.256765 0.113667
0.579568 0.266056 0.112389
0.630189 0.280717 0.116251
0.681773 0.293853 0.118345
0.727752 0.303283 0.119892
0.769826 0.312333 0.126832
0.814632 0.324300 0.138630
0.860933 0.329118 0.149182
0.908999 0.360598 0.173180
0.308180 0.318600 0.143844
0.306361 0.333107 0.152799
0.323662 0.331321 0.153264
0.367954 0.338943 0.140008
0.450265 0.350598 0.096940
0.503633 0.353417 0.093323
0.547695 0.332349 0.091919
0.610703 0.307194 0.090979
0.657525 0.299237 0.096919
0.697804 0.299337 0.104388
0.732214 0.315534 0.114677
0.771641 0.329876 0.124961
0.811365 0.341844 0.134695
0.854434 0.357886 0.146930
0.896573 0.373187 0.159368
0.938179 0.406880 0.184144
0.422816 0.370791 0.129702
0.413987 0.378861 0.148184
0.433569 0.384632 0.141365
0.470037 0.393464 0.122119
