my luts/kk3.cube
LUT_3D_SIZE 6
0.085189 0.085962 0.087822
0.108934 0.100788 0.099248
0.308124 0.150746 0.129196
0.605233 0.237235 0.170897
0.773050 0.313280 0.208309
0.895200 0.348609 0.243674
0.107964 0.121402 0.139230
0.109611 0.122878 0.123877
0.345667 0.180292 0.141497
0.625655 0.269659 0.181689
0.785815 0.345056 0.218824
0.907439 0.376847 0.253058
0.126154 0.217561 0.310550
0.123297 0.230445 0.291690
0.340051 0.316877 0.284836
0.671959 0.414259 0.271988
0.834204 0.484878 0.300025
0.952337 0.510674 0.307845
0.131365 0.401139 0.466252
0.129611 0.405557 0.456002
0.138309 0.454889 0.475733
0.647101 0.554952 0.484810
0.853997 0.617721 0.474073
0.974040 0.648556 0.418955
0.177071 0.548441 0.563895
0.179923 0.550831 0.559568
0.161401 0.599667 0.569325
0.694639 0.695671 0.611138
0.852112 0.732222 0.595005
0.987244 0.795239 0.573145
0.375334 0.944734 0.628617
0.539038 0.956886 0.638022
0.807881 0.945424 0.760036
0.902732 0.946573 0.743427
0.969898 0.962530 0.749737
1.006901 0.983472 0.787528
-0.245808 -0.353111 -0.291742
-0.268052 -0.359001 -0.296298
0.096616 -0.353587 -0.291800
0.560566 -0.306199 -0.254738
0.738173 -0.232177 -0.225629
0.873974 -0.182976 -0.201983
0.111224 0.124242 0.161229
0.112319 0.124763 0.132017
0.331223 0.179528 0.149156
0.621168 0.269040 0.186705
0.783805 0.344315 0.226563
0.903525 0.365633 0.253533
0.130487 0.216239 0.344870
0.128765 0.224909 0.337739
0.297658 0.327295 0.314429
0.665809 0.416270 0.295675
0.829247 0.484517 0.319037
0.950530 0.501560 0.311272
0.134378 0.403757 0.485304
0.132891 0.410142 0.477183
0.126174 0.449579 0.491692
0.638985 0.556836 0.501021
0.851581 0.620908 0.493058
0.972043 0.647680 0.438366
0.178845 0.548509 0.575211
0.180949 0.550387 0.570298
0.212228 0.591609 0.575832
0.691749 0.699132 0.623541
0.848664 0.734622 0.608499
0.986948 0.798920 0.592870
0.346917 0.943030 0.651554
0.497826 0.954901 0.649898
0.782507 0.955748 0.745518
0.898953 0.949974 0.760787
0.968704 0.965362 0.764185
1.007398 0.986405 0.800407
-0.232313 -0.349317 -0.295592
-0.257473 -0.355277 -0.298713
-0.209945 -0.358239 -0.296370
0.553379 -0.308927 -0.263888
0.740410 -0.229219 -0.223771
0.868976 -0.204762 -0.205700
0.114440 0.126677 0.196264
0.116717 0.132205 0.170721
0.231355 0.171290 0.182464
0.617198 0.273917 0.210438
0.781137 0.346715 0.252103
0.895128 0.357547 0.268747
0.135236 0.213074 0.379278
0.135362 0.223669 0.383984
0.268957 0.321517 0.349163
0.629498 0.424390 0.370314
0.811811 0.484840 0.382692
0.933377 0.456670 0.320804
0.143018 0.403763 0.527200
0.142474 0.411586 0.525994
0.128281 0.442835 0.524745
0.621813 0.564855 0.538496
0.841448 0.625875 0.540398
0.965389 0.640393 0.486423
0.186643 0.548580 0.607340
0.189640 0.552628 0.603612
0.202381 0.573705 0.598637
0.687384 0.710340 0.659066
0.841750 0.741668 0.649666
0.984849 0.807023 0.638413
0.300168 0.928809 0.729666
0.444959 0.950550 0.719555
0.686787 0.971339 0.722774
0.893703 0.959046 0.807871
0.962824 0.973387 0.807882
1.007655 0.993978 0.837780
-0.193555 -0.339179 -0.294126
-0.231286 -0.348005 -0.299507
-0.220913 -0.354655 -0.295018
0.507054 -0.314749 -0.261789
0.724349 -0.236575 -0.209574
0.846948 -0.236912 -0.194834
0.115235 0.128493 0.213852
0.120611 0.138975 0.210282
0.194167 0.173073 0.220632
0.565788 0.274873 0.276740
0.764797 0.354831 0.308826
0.878661 0.348027 0.309440
0.140357 0.210378 0.414117
0.141391 0.221998 0.425339
0.185013 0.319419 0.404018
0.589857 0.442685 0.443121
0.795400 0.507128 0.461977
0.916696 0.457605 0.389441
0.149048 0.399913 0.554743
0.148892 0.405226 0.553089
0.136834 0.441843 0.558335
0.626869 0.585252 0.581482
0.826660 0.631244 0.586275
0.946370 0.606052 0.513633
0.191992 0.550175 0.644461
0.196688 0.555145 0.642557
0.205372 0.566341 0.636144
0.592070 0.707906 0.679016
0.834904 0.754382 0.701364
0.977139 0.815354 0.701164
0.316177 0.889153 0.806499
0.399058 0.918130 0.810158
0.637393 0.967931 0.806123
0.823251 0.988835 0.817374
0.955735 0.979560 0.855173
1.010646 1.003826 0.889124
-0.148195 -0.327275 -0.288262
-0.172147 -0.333590 -0.289976
-0.079224 -0.341272 -0.275065
0.502185 -0.301288 -0.215952
0.678581 -0.221475 0.042447
0.820763 -0.234845 -0.076689
0.119586 0.138415 0.261953
0.123333 0.147860 0.267681
0.220837 0.188506 0.275227
0.557811 0.288097 0.337728
0.731547 0.391257 0.408839
0.857170 0.349906 0.368155
0.146076 0.227645 0.453752
0.147715 0.241973 0.456114
0.193271 0.338057 0.461803
0.554168 0.459334 0.499761
0.755157 0.522388 0.533442
0.895159 0.475392 0.482318
0.158760 0.404688 0.601461
0.158395 0.404627 0.596901
0.140300 0.424287 0.593529
0.610662 0.591873 0.619345
0.806495 0.644747 0.646761
0.929833 0.626520 0.621694
0.191550 0.536661 0.677295
0.196007 0.543123 0.677374
0.210379 0.559934 0.676566
0.546267 0.682826 0.714385
0.827794 0.774727 0.768475
0.963120 0.798025 0.768772
0.446905 0.843107 0.842116
0.478176 0.857137 0.849977
0.637445 0.928187 0.892088
0.775792 0.982020 0.902287
0.917457 1.000023 0.905791
1.011064 1.014036 0.947653
-0.061525 -0.309615 -0.255983
0.085208 -0.308214 -0.243898
0.398324 -0.285547 -0.161826
0.588299 -0.220794 0.157604
0.734600 0.129620 0.303098
0.804757 -0.209043 0.224733
0.140304 0.173643 0.335666
0.155081 0.173387 0.314908
0.365713 0.244983 0.365331
0.612444 0.371612 0.444171
0.771443 0.446539 0.505412
0.844212 0.385462 0.469844
0.157527 0.295614 0.515661
0.159769 0.307529 0.513199
0.269968 0.385979 0.508125
0.596813 0.492226 0.558011
0.786169 0.555082 0.610818
0.879046 0.518346 0.594758
0.168925 0.431625 0.653401
0.168139 0.428107 0.648075
0.182741 0.484822 0.672171
0.597795 0.601968 0.667651
0.796934 0.662568 0.728189
0.909059 0.661068 0.741428
0.218249 0.564648 0.751527
0.222061 0.567191 0.751897
0.236071 0.579290 0.754972
0.303801 0.639129 0.779223
0.791343 0.761080 0.829844
0.938955 0.815596 0.879466
0.356992 0.759223 0.834401
0.368720 0.765702 0.838943
0.452739 0.803600 0.860459
0.723477 0.882695 0.908032
0.869270 0.929307 0.943084
0.988379 0.974513 0.976651
