my luts/kk3.cube
LUT_3D_SIZE 16
0.085189 0.085962 0.087822
0.084967 0.086022 0.087190
0.089127 0.089128 0.089290
0.108934 0.100788 0.099248
0.151891 0.118511 0.113790
0.216013 0.131596 0.120612
0.308124 0.150746 0.129196
0.430025 0.183912 0.144611
0.527628 0.212067 0.157687
0.605233 0.237235 0.170897
0.668366 0.261465 0.182897
0.716601 0.286027 0.194118
0.773050 0.313280 0.208309
0.823713 0.337430 0.223581
0.867959 0.348929 0.236136
0.895200 0.348609 0.243674
0.090730 0.093325 0.096938
0.089413 0.091888 0.094211
0.091658 0.093031 0.093110
0.107699 0.102351 0.100462
0.152188 0.120171 0.114903
0.217647 0.133709 0.121776
0.308266 0.152713 0.129959
0.433366 0.186257 0.145348
0.531927 0.214562 0.158463
0.608694 0.239894 0.171802
0.668875 0.263794 0.183492
0.717775 0.287949 0.194674
0.773798 0.315763 0.208967
0.825428 0.340211 0.224674
0.869258 0.351527 0.237071
0.896399 0.350513 0.244350
0.097600 0.103605 0.110252
0.097003 0.103050 0.108479
0.096854 0.103107 0.104454
0.107508 0.109329 0.106761
0.142662 0.124314 0.117936
0.217594 0.140737 0.125444
0.321917 0.163173 0.134259
0.452972 0.197254 0.149433
0.549779 0.226627 0.162811
0.617674 0.250750 0.175384
0.671594 0.273243 0.186185
0.722994 0.297870 0.197639
0.777356 0.325972 0.211984
0.831964 0.352147 0.229417
0.874361 0.362566 0.241127
0.900505 0.359515 0.247280
0.107964 0.121402 0.139230
0.107634 0.121222 0.137259
0.105830 0.120843 0.131794
0.109611 0.122878 0.123877
0.140199 0.136276 0.129099
0.204307 0.151210 0.132970
0.345667 0.180292 0.141497
0.480026 0.217416 0.157426
0.566653 0.244815 0.170177
0.625655 0.269659 0.181689
0.677665 0.289049 0.191192
0.732764 0.316366 0.203571
0.785815 0.345056 0.218824
0.840642 0.373991 0.237901
0.881669 0.384660 0.249046
0.907439 0.376847 0.253058
0.117900 0.147330 0.184274
0.117978 0.147751 0.182764
0.117706 0.148891 0.177888
0.115697 0.150412 0.168904
0.128480 0.158171 0.155806
0.184048 0.175537 0.157745
0.357338 0.207785 0.157504
0.500901 0.247506 0.170951
0.582486 0.273807 0.180984
0.636767 0.293676 0.190460
0.690246 0.315643 0.200564
0.748937 0.348037 0.217028
0.799264 0.376783 0.233572
0.851544 0.407220 0.250825
0.894442 0.415312 0.260427
0.918529 0.407612 0.264489
0.120339 0.175045 0.237383
0.120523 0.176132 0.237459
0.121002 0.179676 0.233700
0.121497 0.186061 0.223705
0.122798 0.192938 0.212708
0.151154 0.213374 0.200467
0.368555 0.247147 0.194500
0.512690 0.283442 0.198326
0.597211 0.312329 0.206436
0.659094 0.341161 0.215202
0.712227 0.365074 0.226353
0.766434 0.391773 0.240020
0.816991 0.426666 0.258249
0.869992 0.453734 0.270703
0.914599 0.461726 0.280935
0.936651 0.454996 0.283436
0.126154 0.217561 0.310550
0.126083 0.218248 0.310137
0.125133 0.221017 0.302659
0.123297 0.230445 0.291690
0.120690 0.236377 0.276647
0.096947 0.262883 0.297706
0.340051 0.316877 0.284836
0.513491 0.354703 0.265908
0.610983 0.383917 0.263261
0.671959 0.414259 0.271988
0.727761 0.434003 0.277446
0.783279 0.460330 0.290844
0.834204 0.484878 0.300025
0.889523 0.509074 0.305774
0.931330 0.513380 0.308663
0.952337 0.510674 0.307845
0.129639 0.267916 0.366993
0.129317 0.269732 0.365549
0.128083 0.277155 0.360090
0.125789 0.287770 0.353807
0.122565 0.301736 0.347158
0.115601 0.330731 0.376124
0.156878 0.371352 0.374132
0.485218 0.420336 0.372454
0.592049 0.443281 0.352156
0.669820 0.466344 0.348436
0.732522 0.485242 0.347081
0.787023 0.506702 0.353558
0.840956 0.526028 0.356991
0.899899 0.547393 0.351440
0.944209 0.559241 0.337045
0.962215 0.557950 0.334605
0.128079 0.341864 0.413563
0.127849 0.343154 0.413308
0.126962 0.346950 0.410789
0.125302 0.352655 0.405782
0.123086 0.355862 0.396114
0.128802 0.379886 0.420729
0.124334 0.416140 0.434380
0.463194 0.480639 0.456347
0.570707 0.492851 0.436707
0.656463 0.513285 0.426692
0.728084 0.531922 0.421882
0.790349 0.547466 0.417555
0.846758 0.568283 0.418163
0.901156 0.580922 0.408269
0.949766 0.595937 0.380502
0.967872 0.603784 0.366980
0.131365 0.401139 0.466252
0.131265 0.401847 0.465589
0.130779 0.404856 0.463355
0.129611 0.405557 0.456002
0.126626 0.405812 0.444170
0.131436 0.424239 0.462577
0.138309 0.454889 0.475733
0.402403 0.526247 0.487688
0.560946 0.541291 0.503942
0.647101 0.554952 0.484810
0.730879 0.574166 0.477274
0.795261 0.597110 0.477189
0.853997 0.617721 0.474073
0.909624 0.629410 0.463606
0.953443 0.637103 0.438538
0.974040 0.648556 0.418955
0.130988 0.452190 0.505485
0.130872 0.452020 0.504710
0.130364 0.451938 0.501564
0.129149 0.451216 0.495393
0.125629 0.447918 0.484069
0.135782 0.472750 0.497945
0.162146 0.495776 0.514499
0.375978 0.562062 0.526110
0.578279 0.586855 0.548568
0.639312 0.599095 0.543049
0.724093 0.617649 0.529862
0.794178 0.638071 0.524000
0.853231 0.655276 0.520013
0.913372 0.677259 0.513193
0.955714 0.687991 0.493071
0.978095 0.694207 0.474076
0.149411 0.500773 0.535961
0.149393 0.501297 0.535459
0.149529 0.502839 0.533262
0.149426 0.504697 0.529306
0.148234 0.504209 0.523552
0.164760 0.522389 0.537209
0.205516 0.543869 0.544086
0.353017 0.605852 0.554304
0.589097 0.637123 0.576111
0.655272 0.642916 0.578200
0.725542 0.658868 0.575795
0.787625 0.673960 0.563907
0.853990 0.697286 0.563863
0.917057 0.724050 0.559125
0.956398 0.738942 0.547315
0.983813 0.745755 0.522891
0.177071 0.548441 0.563895
0.177093 0.548359 0.563344
0.177961 0.548957 0.561684
0.179923 0.550831 0.559568
0.180484 0.553417 0.556302
0.179395 0.565234 0.560525
0.161401 0.599667 0.569325
0.401857 0.682008 0.578962
0.623792 0.693300 0.606054
0.694639 0.695671 0.611138
0.763201 0.712774 0.607765
0.804498 0.723902 0.605500
0.852112 0.732222 0.595005
0.919490 0.763005 0.594261
0.960000 0.779715 0.587784
0.987244 0.795239 0.573145
0.172516 0.612366 0.593024
0.170820 0.612717 0.593095
0.161586 0.615249 0.593697
0.135799 0.621277 0.595164
0.058398 0.628193 0.595521
-0.165810 0.634657 0.593062
-0.144520 0.708652 0.598119
0.525110 0.763197 0.585910
0.701435 0.753324 0.651898
0.750203 0.758112 0.636667
0.808987 0.771265 0.631052
0.848891 0.780820 0.631772
0.873278 0.788323 0.634675
0.908171 0.790828 0.622152
0.961635 0.820424 0.625585
0.988295 0.839548 0.624236
-0.306571 0.713825 0.623129
-0.309598 0.714315 0.622600
-0.318948 0.718845 0.620476
-0.327303 0.726426 0.616309
-0.337533 0.743683 0.612758
-0.257946 0.778858 0.610140
0.487126 0.827669 0.598235
0.739094 0.823815 0.696747
0.783994 0.824341 0.680495
0.821125 0.827857 0.660532
0.859180 0.829071 0.653050
0.894089 0.839241 0.651623
0.921043 0.846966 0.656075
0.943721 0.855890 0.666387
0.962101 0.858493 0.668879
0.989453 0.876351 0.675154
0.375334 0.944734 0.628617
0.395534 0.946113 0.628684
0.459910 0.950669 0.630475
0.539038 0.956886 0.638022
0.628952 0.960723 0.655257
0.717608 0.957580 0.695627
0.807881 0.945424 0.760036
0.857398 0.942624 0.759588
0.883924 0.946096 0.750725
0.902732 0.946573 0.743427
0.919799 0.946998 0.738599
0.942809 0.952980 0.742615
0.969898 0.962530 0.749737
0.992351 0.972214 0.762942
0.998938 0.979739 0.776803
1.006901 0.983472 0.787528
-0.248549 -0.354124 -0.292512
-0.252831 -0.355411 -0.293872
-0.260809 -0.357522 -0.295703
-0.266944 -0.358914 -0.296146
-0.260856 -0.358704 -0.295173
-0.225404 -0.358880 -0.295789
0.065731 -0.354754 -0.291836
0.325947 -0.341532 -0.280420
0.457292 -0.325405 -0.268019
0.552768 -0.306850 -0.255276
0.622743 -0.285614 -0.244290
0.678001 -0.260505 -0.235584
0.740465 -0.227124 -0.225670
0.797517 -0.186942 -0.215084
0.846561 -0.166154 -0.206888
0.876957 -0.171086 -0.201987
0.090966 0.093472 0.098292
0.089593 0.091966 0.094981
0.091530 0.092610 0.093067
0.106823 0.101438 0.100043
0.151499 0.119537 0.114826
0.217297 0.133104 0.121839
0.309548 0.152724 0.130320
0.434252 0.185842 0.145660
0.533706 0.214523 0.158795
0.610594 0.239710 0.172268
0.668643 0.263297 0.183662
0.717388 0.287356 0.194693
0.773469 0.314658 0.208943
0.824892 0.339165 0.224496
0.868505 0.350115 0.236789
0.895589 0.349109 0.244050
0.098163 0.104233 0.112309
0.097301 0.103415 0.109954
0.097258 0.103255 0.104809
0.107758 0.108974 0.106953
0.141468 0.123866 0.118017
0.216855 0.139968 0.125644
0.322120 0.163014 0.134598
0.452741 0.196812 0.149745
0.550602 0.226403 0.163090
0.617853 0.250458 0.175678
0.671526 0.272742 0.186376
0.722975 0.297425 0.197804
0.776744 0.325019 0.211986
0.831540 0.351509 0.229413
0.873782 0.361179 0.240849
0.900201 0.358274 0.247095
0.108425 0.121872 0.141706
0.108046 0.121630 0.139640
0.106146 0.121201 0.133594
0.109949 0.122888 0.124357
0.139504 0.135977 0.129513
0.202409 0.150942 0.133611
0.343992 0.179733 0.141911
0.478691 0.216884 0.157669
0.566304 0.244356 0.170380
0.624986 0.269048 0.181887
0.677826 0.288540 0.191309
0.732824 0.315914 0.203676
0.785428 0.344439 0.219059
0.840950 0.373364 0.238066
0.881328 0.383130 0.248772
0.907151 0.375569 0.252971
0.118002 0.147284 0.187743
0.118035 0.147575 0.185715
0.117828 0.148912 0.180594
0.115887 0.150696 0.171291
0.129565 0.157896 0.156869
0.182083 0.175406 0.158881
0.356253 0.207390 0.158426
0.500176 0.246925 0.171379
0.582173 0.273560 0.181634
0.636158 0.293133 0.190704
0.689973 0.315185 0.200699
0.748470 0.347426 0.217548
0.798915 0.376060 0.233919
0.851400 0.406326 0.250894
0.893773 0.413664 0.260073
0.917707 0.405888 0.264158
0.120160 0.174402 0.240670
0.120322 0.175296 0.240083
0.120822 0.179248 0.237283
0.120993 0.185841 0.227358
0.122099 0.193010 0.215140
0.151980 0.212271 0.201808
0.366112 0.246732 0.195888
0.511920 0.283000 0.199193
0.597100 0.312268 0.207534
0.658549 0.340656 0.216375
0.711976 0.364798 0.227409
0.765911 0.391199 0.240701
0.816756 0.425787 0.258759
0.869717 0.453120 0.270994
0.913957 0.460366 0.280853
0.936150 0.453411 0.283153
0.126579 0.217447 0.314254
0.126438 0.217873 0.313155
0.125737 0.220779 0.307881
0.123855 0.230360 0.296843
0.120429 0.235208 0.277651
0.096618 0.262953 0.300336
0.337397 0.317277 0.287412
0.511679 0.354655 0.267822
0.609957 0.383887 0.264892
0.671526 0.413996 0.273440
0.727348 0.433624 0.278615
0.783153 0.459927 0.291855
0.833535 0.484524 0.301058
0.888898 0.508439 0.306505
0.931347 0.512803 0.309063
0.951957 0.509522 0.307906
0.130121 0.267498 0.370234
0.129788 0.268675 0.368431
0.128553 0.275830 0.363030
0.126287 0.286724 0.356484
0.122885 0.301335 0.349096
0.115599 0.329857 0.376999
0.144438 0.370326 0.375630
0.483886 0.420615 0.374583
0.590835 0.443059 0.353970
0.668868 0.466101 0.350124
0.732140 0.485287 0.348830
0.786310 0.506607 0.355039
0.840665 0.525785 0.358329
0.899381 0.546866 0.352687
0.944277 0.558703 0.337740
0.962091 0.557593 0.335109
0.128382 0.342096 0.415436
0.128118 0.343002 0.414776
0.127210 0.347266 0.412478
0.125609 0.352937 0.407768
0.123132 0.355227 0.397167
0.128541 0.379122 0.420741
0.120392 0.415422 0.435785
0.455747 0.483040 0.451295
0.569910 0.492969 0.438241
0.655769 0.513339 0.428207
0.727564 0.531907 0.423581
0.789996 0.547499 0.419119
0.846511 0.568307 0.419497
0.900915 0.580954 0.409631
0.949088 0.595247 0.381912
0.967663 0.603300 0.367641
0.131687 0.401211 0.468098
0.131542 0.401755 0.467266
0.131037 0.405108 0.465079
0.129919 0.405899 0.457875
0.126828 0.405326 0.445473
0.131202 0.423493 0.462692
0.136735 0.454344 0.476832
0.399342 0.525154 0.489097
0.560334 0.541661 0.505339
0.646621 0.555129 0.486076
0.730287 0.574290 0.478551
0.795229 0.597452 0.478700
0.854070 0.617784 0.475353
0.909543 0.629470 0.464904
0.952950 0.637031 0.439900
0.973878 0.648409 0.420057
0.131308 0.452430 0.506812
0.131134 0.452155 0.505936
0.130643 0.451968 0.502809
0.129447 0.451341 0.496635
0.125956 0.447971 0.485386
0.134668 0.471667 0.497833
0.161194 0.495606 0.515485
0.372948 0.560553 0.526576
0.578318 0.587368 0.549742
0.638451 0.599172 0.544146
0.723546 0.617847 0.531112
0.793731 0.638334 0.525090
0.852984 0.655496 0.521201
0.913040 0.677455 0.514549
0.955612 0.688163 0.494526
0.978187 0.694183 0.475469
0.149598 0.500231 0.536938
0.149552 0.500791 0.536359
0.149672 0.502513 0.534167
0.149606 0.504614 0.530185
0.148266 0.503862 0.524291
0.163902 0.521571 0.537473
0.204058 0.543627 0.545022
0.349676 0.604160 0.555190
0.587071 0.637950 0.574837
0.654586 0.643059 0.579071
0.724801 0.658915 0.576797
0.787033 0.673973 0.564898
0.853429 0.697302 0.564861
0.917086 0.724447 0.560600
0.956315 0.739106 0.548508
0.983871 0.745863 0.524191
0.177214 0.548431 0.564971
0.177116 0.548300 0.564273
0.177988 0.548842 0.562545
0.179947 0.550702 0.560365
0.180364 0.553045 0.556957
0.179651 0.564435 0.560857
0.166187 0.598502 0.569731
0.398785 0.681131 0.580173
0.621038 0.694216 0.604248
0.694138 0.695974 0.612042
0.762636 0.712932 0.608770
0.804535 0.724093 0.606609
0.852023 0.732376 0.595930
0.919284 0.763215 0.595158
0.960085 0.780025 0.588955
0.987245 0.795522 0.574548
0.178028 0.611739 0.593554
0.175139 0.612082 0.593396
0.166515 0.614542 0.593921
0.142704 0.620554 0.595440
0.075659 0.627684 0.596024
-0.158619 0.634313 0.593778
-0.156684 0.706539 0.598418
0.520904 0.762964 0.586673
0.700993 0.753619 0.652980
0.749825 0.758307 0.637750
0.808346 0.771109 0.631827
0.848885 0.781070 0.632669
0.873210 0.788356 0.635664
0.908027 0.790832 0.623164
0.961985 0.820709 0.626641
0.988342 0.839784 0.625303
-0.301692 0.713122 0.624568
-0.305986 0.713465 0.623643
-0.315494 0.718162 0.621684
-0.324789 0.725764 0.617440
-0.335732 0.742873 0.613772
-0.263609 0.777519 0.611603
0.481304 0.827169 0.599043
0.738025 0.824012 0.696832
0.783509 0.824584 0.681663
0.820989 0.828239 0.661834
0.859075 0.829249 0.653820
0.894118 0.839338 0.652454
0.920700 0.847206 0.656967
0.943695 0.856142 0.667640
0.962034 0.858732 0.670180
0.989547 0.876712 0.676260
0.372917 0.944826 0.630635
0.385222 0.945639 0.629784
0.454385 0.950330 0.631318
0.533956 0.956793 0.638405
0.625386 0.960737 0.655206
0.713785 0.958185 0.693650
0.804144 0.946603 0.757612
0.856226 0.942813 0.760777
0.882943 0.946212 0.751767
0.901938 0.946782 0.744698
0.919459 0.947000 0.739362
0.942504 0.953117 0.743569
0.970153 0.962899 0.750862
0.992401 0.972670 0.764022
0.999077 0.980042 0.777686
1.006981 0.983607 0.788384
-0.247508 -0.353711 -0.291756
-0.251395 -0.354841 -0.292960
-0.259852 -0.357153 -0.295093
-0.268226 -0.359139 -0.296118
-0.264004 -0.358902 -0.295045
-0.226767 -0.358843 -0.295268
0.090435 -0.353978 -0.291274
0.337010 -0.340957 -0.279729
0.469308 -0.324006 -0.267231
0.558476 -0.306236 -0.254276
0.623485 -0.285071 -0.243661
0.678205 -0.260500 -0.235157
0.739870 -0.229042 -0.225331
0.796680 -0.187671 -0.214191
0.845556 -0.168687 -0.206527
0.876110 -0.175137 -0.201341
0.092626 0.095365 0.103488
0.090463 0.092787 0.098515
0.091578 0.093544 0.095709
0.103644 0.100600 0.100952
0.143515 0.117976 0.115189
0.214295 0.132918 0.123742
0.313952 0.154714 0.132622
0.441013 0.187055 0.147951
0.542147 0.216646 0.160889
0.614002 0.240245 0.174271
0.669073 0.263819 0.185026
0.717749 0.287556 0.195793
0.772766 0.313724 0.209905
0.824339 0.339340 0.225952
0.867481 0.349499 0.237589
0.895020 0.347866 0.245105
0.099752 0.106013 0.118804
0.098970 0.105194 0.116379
0.098220 0.103778 0.107171
0.107676 0.108393 0.108234
0.138242 0.123291 0.119386
0.210503 0.138288 0.127271
0.321451 0.163623 0.136519
0.454010 0.197412 0.151737
0.552566 0.227160 0.164812
0.618232 0.250391 0.177489
0.672210 0.272683 0.187639
0.723974 0.297484 0.199040
0.775841 0.323718 0.212761
0.830907 0.350482 0.230439
0.872444 0.358069 0.240644
0.898491 0.354831 0.247188
0.109452 0.122696 0.148089
0.109213 0.122740 0.146446
0.107329 0.122495 0.139161
0.111132 0.123427 0.126827
0.137891 0.135983 0.131948
0.195103 0.151546 0.137447
0.339757 0.179350 0.144272
0.476272 0.217266 0.159711
0.566228 0.245333 0.172023
0.623659 0.268764 0.183402
0.679252 0.288450 0.192546
0.733959 0.315939 0.205197
0.784414 0.344254 0.221174
0.841560 0.372918 0.239553
0.879797 0.379711 0.248524
0.906040 0.371735 0.253119
0.118161 0.147081 0.197412
0.118247 0.147441 0.195791
0.118123 0.148913 0.189324
0.116587 0.151542 0.179846
0.128958 0.157925 0.160315
0.175540 0.175798 0.164375
0.350287 0.206900 0.163280
0.498704 0.246182 0.174418
0.581738 0.274165 0.185411
0.635069 0.293397 0.193712
0.690874 0.316886 0.204292
0.747796 0.347269 0.220951
0.798044 0.375447 0.236968
0.852065 0.405182 0.252336
0.892145 0.410374 0.260535
0.916094 0.401337 0.263738
0.119686 0.172176 0.249104
0.119804 0.172861 0.248388
0.120241 0.176961 0.247241
0.119968 0.183933 0.242245
0.120010 0.193842 0.225005
0.156016 0.208271 0.205062
0.354652 0.246045 0.202519
0.508154 0.282962 0.205011
0.596429 0.313453 0.213512
0.655624 0.339821 0.222370
0.711988 0.366646 0.233460
0.764603 0.391357 0.245251
0.816174 0.425254 0.262323
0.869103 0.452708 0.273733
0.912234 0.457125 0.281712
0.934841 0.449183 0.283142
0.128097 0.217007 0.327018
0.127960 0.217423 0.325981
0.127546 0.220328 0.322989
0.125887 0.228715 0.314524
0.120691 0.233740 0.289673
0.096297 0.262440 0.309329
0.325646 0.318817 0.298231
0.503454 0.356129 0.277763
0.605958 0.384665 0.273055
0.669484 0.414527 0.281236
0.725758 0.435476 0.287104
0.781821 0.460195 0.298738
0.832220 0.484269 0.307112
0.887413 0.507109 0.311525
0.930600 0.511714 0.311623
0.951427 0.506436 0.309035
0.131354 0.267417 0.378392
0.131148 0.267908 0.377261
0.130232 0.272351 0.373519
0.128087 0.283306 0.366632
0.124438 0.300430 0.357272
0.114594 0.327117 0.381463
0.125128 0.367324 0.383109
0.477738 0.421465 0.383127
0.585059 0.443936 0.364330
0.664732 0.465991 0.358627
0.730789 0.486350 0.357807
0.784930 0.507022 0.363023
0.837995 0.525208 0.365759
0.897426 0.545427 0.359182
0.942392 0.556590 0.342891
0.962255 0.557056 0.337616
0.129775 0.340999 0.422849
0.129438 0.342135 0.421808
0.128369 0.347469 0.419372
0.126658 0.354958 0.415355
0.123939 0.356081 0.403072
0.128339 0.376421 0.421799
0.108345 0.413564 0.441081
0.429456 0.486934 0.449528
0.566465 0.493825 0.444481
0.652437 0.514046 0.435599
0.724490 0.532302 0.430902
0.788314 0.548670 0.426870
0.845272 0.569290 0.426543
0.900625 0.582702 0.416425
0.947309 0.593113 0.389195
0.967435 0.602340 0.373025
0.132737 0.402121 0.474644
0.132589 0.402757 0.473955
0.132026 0.406518 0.471871
0.130973 0.407374 0.464657
0.128138 0.405084 0.451718
0.131359 0.422173 0.465305
0.132473 0.452577 0.482125
0.388049 0.520237 0.493220
0.558136 0.543357 0.510979
0.644027 0.555782 0.491539
0.728654 0.575388 0.484524
0.794899 0.598951 0.485369
0.853214 0.618695 0.481497
0.908580 0.630468 0.471371
0.952420 0.637393 0.446450
0.973386 0.648598 0.426226
0.132391 0.453145 0.511560
0.132229 0.452885 0.510665
0.131718 0.452388 0.507280
0.130697 0.451775 0.501810
0.126990 0.448345 0.490617
0.131700 0.468109 0.498297
0.159741 0.495402 0.519557
0.367632 0.556023 0.528377
0.578509 0.589555 0.554383
0.635879 0.599886 0.548273
0.720862 0.618181 0.536208
0.792194 0.638768 0.530233
0.851454 0.656656 0.526760
0.911326 0.678443 0.520224
0.954982 0.689724 0.501802
0.977499 0.694828 0.482153
0.150403 0.498396 0.540565
0.150341 0.498725 0.539988
0.150460 0.500511 0.537662
0.150469 0.503180 0.533589
0.149446 0.503823 0.527935
0.162319 0.519773 0.539875
0.200524 0.543109 0.548765
0.343808 0.599060 0.558155
0.578641 0.641416 0.570288
0.652841 0.643824 0.582824
0.723230 0.659848 0.581138
0.785796 0.674500 0.569617
0.851021 0.697339 0.569141
0.916599 0.726367 0.566888
0.956235 0.740397 0.554403
0.983947 0.746953 0.530978
0.177756 0.548430 0.568702
0.177691 0.548388 0.568044
0.178372 0.548824 0.566081
0.180255 0.550431 0.563842
0.180886 0.552503 0.560373
0.180860 0.562902 0.563393
0.185841 0.595377 0.571874
0.391993 0.678450 0.585106
0.609838 0.697812 0.597762
0.693038 0.697153 0.616163
0.759821 0.713641 0.613130
0.804154 0.725217 0.611188
0.851378 0.733361 0.600379
0.918793 0.763263 0.599096
0.960637 0.781414 0.593878
0.987099 0.796571 0.581125
0.192316 0.609966 0.595329
0.190568 0.610299 0.595275
0.182647 0.612302 0.595214
0.164147 0.618318 0.596783
0.117679 0.625604 0.597755
-0.125179 0.632273 0.596123
-0.177493 0.699931 0.601469
0.510227 0.762247 0.589783
0.699906 0.754572 0.657844
0.748544 0.758949 0.642338
0.806400 0.770975 0.635259
0.848214 0.781466 0.636808
0.872216 0.789193 0.640252
0.907574 0.791639 0.628174
0.961494 0.821508 0.631259
0.988614 0.840726 0.629840
-0.286175 0.711145 0.628972
-0.289848 0.711611 0.628345
-0.301528 0.715449 0.626095
-0.314049 0.723545 0.621893
-0.327404 0.740182 0.618160
-0.272357 0.773654 0.617513
0.465975 0.826455 0.602888
0.733976 0.825615 0.696306
0.782491 0.825417 0.686451
0.820543 0.829681 0.666819
0.858607 0.829520 0.657652
0.894358 0.840374 0.656348
0.920339 0.847998 0.661272
0.943675 0.857632 0.672240
0.961335 0.859875 0.675226
0.989868 0.877976 0.681475
0.363028 0.944451 0.638119
0.376546 0.945381 0.637463
0.438526 0.950169 0.635970
0.520788 0.956501 0.641963
0.615252 0.961785 0.656507
0.703419 0.960407 0.690081
0.796681 0.949900 0.753260
0.854987 0.943633 0.766343
0.881888 0.946930 0.756750
0.900687 0.948012 0.750381
0.918218 0.947469 0.743169
0.941563 0.954189 0.748046
0.969436 0.963379 0.755340
0.992398 0.973844 0.768467
0.999350 0.980855 0.781993
1.007134 0.984508 0.792727
-0.245808 -0.353111 -0.291742
-0.249460 -0.354158 -0.292902
-0.257292 -0.356274 -0.294608
-0.268052 -0.359001 -0.296298
-0.271615 -0.359791 -0.295987
-0.235810 -0.358875 -0.295187
0.096616 -0.353587 -0.291800
0.342327 -0.340654 -0.280423
0.474901 -0.323975 -0.267819
0.560566 -0.306199 -0.254738
0.624138 -0.285854 -0.244340
0.678976 -0.261039 -0.235938
0.738173 -0.232177 -0.225629
0.794264 -0.190429 -0.214221
0.842836 -0.174134 -0.207672
0.873974 -0.182976 -0.201983
0.093183 0.095830 0.105476
0.091299 0.093459 0.101118
0.092976 0.095076 0.099591
0.099587 0.099523 0.102809
0.129041 0.115022 0.115696
0.204009 0.132551 0.127030
0.315199 0.156291 0.135290
0.443516 0.188148 0.150907
0.545267 0.217106 0.163931
0.615065 0.240773 0.177109
0.669485 0.263329 0.187047
0.718741 0.287826 0.197523
0.771058 0.312097 0.212257
0.822242 0.338638 0.228286
0.865377 0.347901 0.238964
0.893081 0.345071 0.246816
0.102644 0.109124 0.131630
0.101447 0.107804 0.126809
0.099145 0.105033 0.114658
0.106718 0.108927 0.112797
0.133020 0.122199 0.122121
0.201654 0.138457 0.131728
0.317628 0.163559 0.139451
0.453242 0.198180 0.154478
0.553406 0.227621 0.167436
0.616236 0.249565 0.179784
0.673264 0.272027 0.189667
0.725475 0.297664 0.201205
0.773686 0.322056 0.216372
0.829952 0.350243 0.233364
0.869424 0.356181 0.242200
0.896906 0.352181 0.249247
0.111224 0.124242 0.161229
0.111044 0.124308 0.159340
0.109198 0.124158 0.149073
0.112319 0.124763 0.132017
0.135014 0.136692 0.136306
0.185630 0.154269 0.145317
0.331223 0.179528 0.149156
0.474949 0.219209 0.164191
0.566592 0.249214 0.177075
0.621168 0.269040 0.186705
0.681303 0.291223 0.196872
0.735627 0.316796 0.209519
0.783805 0.344315 0.226563
0.842028 0.371413 0.242248
0.877440 0.375024 0.248955
0.903525 0.365633 0.253533
0.118027 0.146729 0.208648
0.118150 0.147098 0.207376
0.118226 0.148730 0.201683
0.117254 0.151796 0.189494
0.129223 0.158240 0.165432
0.164452 0.179131 0.169320
0.339465 0.206243 0.171612
0.495728 0.248100 0.181685
0.581103 0.275080 0.193056
0.635312 0.296255 0.201361
0.691876 0.320952 0.212344
0.746231 0.346544 0.228066
0.797511 0.375654 0.243099
0.853831 0.402739 0.254939
0.889886 0.406074 0.262414
0.913749 0.393525 0.263858
0.119596 0.169957 0.262378
0.119634 0.170534 0.261632
0.119862 0.173938 0.259217
0.119455 0.181190 0.257247
0.118883 0.194175 0.241168
0.150370 0.207292 0.212858
0.332320 0.245399 0.214208
0.501095 0.285365 0.217429
0.594229 0.316672 0.224588
0.650772 0.340697 0.232942
0.712812 0.373925 0.246924
0.763852 0.394231 0.255317
0.815000 0.427141 0.270912
0.869098 0.452251 0.280788
0.909864 0.452917 0.284566
0.932929 0.441888 0.283446
0.130487 0.216239 0.344870
0.130372 0.216907 0.344239
0.129998 0.220125 0.342277
0.128765 0.224909 0.337739
0.123634 0.234039 0.320422
0.096535 0.260952 0.323018
0.297658 0.327295 0.314429
0.489614 0.358645 0.296818
0.597659 0.387425 0.289950
0.665809 0.416270 0.295675
0.722645 0.439220 0.302629
0.779526 0.462293 0.312519
0.829247 0.484517 0.319037
0.885811 0.505161 0.320641
0.928720 0.510594 0.318272
0.950530 0.501560 0.311272
0.133051 0.272741 0.391468
0.132892 0.272674 0.390496
0.132250 0.274165 0.387286
