my luts/kk4.cube
LUT_3D_SIZE 16
0.054578 0.063177 0.063658
0.111220 0.084749 0.084791
0.198425 0.096017 0.096428
0.257276 0.099594 0.099482
0.317627 0.102175 0.100686
0.372185 0.104293 0.100136
0.430913 0.107722 0.097975
0.488521 0.111347 0.094364
0.548079 0.117614 0.089164
0.598006 0.123935 0.083818
0.638070 0.129709 0.078904
0.672146 0.135953 0.074248
0.699048 0.141476 0.070266
0.719555 0.145844 0.067095
0.739886 0.151605 0.063689
0.778096 0.163571 0.056985
0.064229 0.065410 0.071626
0.040914 0.064920 0.068019
0.110924 0.083074 0.084099
0.193023 0.095332 0.095484
0.272072 0.102423 0.100038
0.339557 0.106947 0.100617
0.409640 0.113909 0.098674
0.480475 0.122330 0.094350
0.551273 0.133707 0.087868
0.611619 0.145183 0.080840
0.656328 0.154260 0.074826
0.692250 0.161944 0.069534
0.719438 0.167840 0.065247
0.739876 0.172336 0.061862
0.759574 0.176972 0.058399
0.797096 0.187498 0.051408
0.080379 0.085108 0.088777
0.075800 0.087867 0.092778
0.088623 0.095352 0.088025
0.151449 0.093748 0.090724
0.245196 0.108736 0.099098
0.321821 0.114249 0.100712
0.399827 0.123477 0.098841
0.476802 0.134208 0.094043
0.554103 0.148253 0.086634
0.618414 0.161116 0.078789
0.666266 0.170810 0.072105
0.702316 0.178587 0.066586
0.729530 0.184286 0.062210
0.749917 0.188444 0.058754
0.768843 0.192881 0.055344
0.805747 0.204080 0.048192
0.089929 0.109633 0.103542
0.088594 0.110157 0.105476
0.084075 0.121596 0.108444
0.132133 0.128656 0.099584
0.219722 0.118309 0.097740
0.298233 0.140436 0.100499
0.386452 0.155386 0.098029
0.475177 0.165885 0.092155
0.560407 0.179241 0.083554
0.631449 0.192761 0.074345
0.680440 0.201677 0.067151
0.717086 0.207705 0.061415
0.743385 0.211274 0.057191
0.762392 0.213152 0.054065
0.779927 0.215438 0.051011
0.816356 0.226323 0.043673
0.097376 0.145713 0.119812
0.096494 0.142560 0.118715
0.092740 0.150330 0.123920
0.107815 0.171651 0.121755
0.202239 0.173389 0.106440
0.280467 0.162158 0.101020
0.372875 0.186190 0.097163
0.466517 0.210942 0.089034
0.561643 0.229844 0.077876
0.640052 0.239846 0.067565
0.694265 0.245171 0.059763
0.731776 0.248691 0.053984
0.757393 0.248566 0.050176
0.775455 0.247558 0.047526
0.792225 0.247234 0.044780
0.826468 0.257483 0.037586
0.100685 0.189384 0.133758
0.100165 0.184501 0.132066
0.098400 0.188576 0.136131
0.101389 0.205591 0.137600
0.184538 0.235508 0.123858
0.270560 0.220113 0.107938
0.357296 0.214987 0.097574
0.459691 0.238242 0.087476
0.556800 0.271253 0.073691
0.642162 0.301248 0.058461
0.701910 0.310285 0.048112
0.743201 0.305929 0.042336
0.770420 0.297994 0.039445
0.788300 0.290879 0.038037
0.804109 0.286684 0.036280
0.837291 0.294169 0.029346
0.099293 0.241780 0.150461
0.099342 0.234661 0.147667
0.100326 0.238624 0.150679
0.101049 0.252764 0.155573
0.166756 0.281147 0.146047
0.281868 0.310141 0.127610
0.357984 0.277915 0.103404
0.445043 0.275456 0.087990
0.554879 0.302085 0.071358
0.643738 0.334871 0.055184
0.706236 0.363602 0.041859
0.750017 0.376877 0.032555
0.778485 0.372013 0.026730
0.797474 0.357672 0.023509
0.813222 0.343569 0.022468
0.845477 0.345782 0.016072
0.091849 0.303982 0.170017
0.094023 0.296383 0.166841
0.098623 0.299327 0.167300
0.099683 0.310272 0.172401
0.150661 0.338475 0.173723
0.269590 0.370679 0.149529
0.391686 0.398883 0.133967
0.451142 0.345286 0.095897
0.543538 0.346463 0.072383
0.644723 0.373944 0.054771
0.710240 0.395412 0.043203
0.756679 0.417272 0.037911
0.785993 0.429558 0.036338
0.804985 0.426452 0.031204
0.821498 0.415365 0.024160
0.852768 0.415113 0.021501
0.077061 0.379934 0.192172
0.084667 0.370548 0.188140
0.095248 0.374711 0.187129
0.100217 0.384308 0.191106
0.121769 0.409286 0.203088
0.264457 0.447116 0.182993
0.393674 0.484147 0.173383
0.509751 0.510687 0.160686
0.559658 0.438699 0.098410
0.639750 0.427863 0.065512
0.717234 0.448550 0.057414
0.765395 0.460367 0.054876
0.795750 0.469429 0.055409
0.815725 0.474245 0.054138
0.832868 0.476875 0.052165
0.864010 0.487576 0.053282
0.062403 0.456954 0.217063
0.078228 0.452603 0.216824
0.097584 0.454496 0.212592
0.110825 0.464483 0.214948
0.126692 0.488554 0.231163
0.281031 0.527518 0.219671
0.415412 0.560529 0.206407
0.518055 0.595217 0.209113
0.627842 0.610709 0.188613
0.661517 0.532466 0.127323
0.717236 0.515487 0.099855
0.772544 0.520910 0.089950
0.804308 0.517598 0.082349
0.824200 0.513810 0.076584
0.841428 0.513234 0.072705
0.872814 0.532403 0.078275
0.057707 0.518344 0.233187
0.079402 0.519735 0.238052
0.106834 0.522501 0.234405
0.123458 0.530972 0.233758
0.150908 0.556671 0.250352
0.308695 0.597986 0.245289
0.437880 0.627205 0.235764
0.530757 0.653881 0.235388
0.628050 0.682835 0.230720
0.711283 0.676048 0.204105
0.738605 0.609840 0.156557
0.774747 0.580987 0.127852
0.811276 0.571108 0.112257
0.832139 0.559434 0.101529
0.848719 0.552045 0.094699
0.880032 0.565951 0.097238
0.061471 0.564062 0.243021
0.083677 0.568343 0.250519
0.117606 0.574494 0.250137
0.135558 0.580753 0.246295
0.168043 0.605751 0.261744
0.322294 0.645979 0.259508
0.443398 0.671849 0.254763
0.533158 0.694513 0.252173
0.620937 0.720425 0.249920
0.705462 0.734162 0.234580
0.759594 0.708023 0.207588
0.790184 0.659960 0.173274
0.811511 0.627239 0.149050
0.837226 0.610665 0.132383
0.855831 0.596236 0.119947
0.887126 0.605152 0.120252
0.068569 0.599498 0.254469
0.086999 0.603421 0.256835
0.124704 0.609396 0.257791
0.144293 0.616210 0.253948
0.176848 0.637790 0.266672
0.311104 0.673589 0.269778
0.427225 0.697298 0.265737
0.515427 0.716653 0.261714
0.599927 0.738502 0.257893
0.675377 0.756567 0.251925
0.751469 0.764462 0.235410
0.794258 0.732625 0.209933
0.823678 0.695184 0.184320
0.836118 0.656968 0.160034
0.858816 0.640931 0.145593
0.892202 0.644807 0.142476
0.074386 0.623553 0.262497
0.089461 0.626756 0.259750
0.128802 0.633593 0.262269
0.149687 0.640243 0.257901
0.176333 0.656964 0.268319
0.282064 0.687639 0.276682
0.402776 0.712503 0.273117
0.491209 0.730806 0.269499
0.569575 0.748615 0.264814
0.648903 0.770508 0.262637
0.710132 0.779965 0.252419
0.786638 0.786962 0.235669
0.819839 0.749820 0.211362
0.848200 0.717615 0.189137
0.858062 0.683303 0.169689
0.894839 0.684211 0.163864
0.080080 0.644879 0.270031
0.091539 0.646998 0.266208
0.131398 0.652621 0.263526
0.153405 0.659503 0.261605
0.175011 0.672266 0.270299
0.256619 0.699451 0.281606
0.368864 0.722372 0.279109
0.458304 0.739366 0.275397
0.531668 0.754485 0.271264
0.610473 0.773480 0.267132
0.679379 0.791329 0.264117
0.741503 0.798783 0.251442
0.808605 0.799418 0.234953
0.841933 0.765192 0.213430
0.866592 0.735719 0.194445
0.892958 0.717601 0.181493
0.091967 0.759572 0.310284
0.090350 0.759811 0.304287
0.118036 0.765940 0.304308
0.136854 0.772534 0.305542
0.169756 0.786197 0.313367
0.245400 0.806409 0.318439
0.342039 0.823909 0.314210
0.420502 0.837892 0.309235
0.485911 0.849328 0.304293
0.562288 0.865338 0.298368
0.633797 0.881876 0.293967
0.701238 0.898848 0.290833
0.766550 0.905577 0.277223
0.845867 0.909982 0.260116
0.883819 0.873481 0.237069
0.914903 0.843407 0.220801
0.067839 -0.312022 -0.059275
0.104239 -0.311231 -0.070174
0.224499 -0.309815 -0.068361
0.289681 -0.312930 -0.073968
0.355003 -0.319032 -0.080624
0.404209 -0.327210 -0.084408
0.453912 -0.335126 -0.085453
0.502366 -0.341775 -0.086126
0.550366 -0.347744 -0.087670
0.593670 -0.353319 -0.089708
0.627898 -0.359050 -0.091441
0.655999 -0.363360 -0.091521
0.674989 -0.364892 -0.087735
0.688023 -0.360617 -0.080346
0.704871 -0.348175 -0.072017
0.744697 -0.330636 -0.069699
0.078437 0.081329 0.126492
0.060196 0.084382 0.127607
0.091450 0.088809 0.110025
0.160681 0.100546 0.111567
0.240076 0.114256 0.113932
0.322101 0.126175 0.110886
0.404923 0.135223 0.104518
0.484074 0.145651 0.097409
0.560057 0.158849 0.090221
0.620892 0.169327 0.083145
0.666555 0.178222 0.077146
0.701036 0.185626 0.072240
0.727595 0.192954 0.068365
0.748218 0.199771 0.065383
0.768209 0.206892 0.062490
0.804214 0.220394 0.057344
0.086352 0.097246 0.123001
0.084774 0.101039 0.137941
0.083957 0.111770 0.131398
0.156233 0.114872 0.118451
0.235968 0.127430 0.118826
0.317282 0.136963 0.113751
0.402089 0.146077 0.105661
0.483507 0.157107 0.098074
0.563948 0.171914 0.088619
0.630567 0.185484 0.080292
0.677816 0.194997 0.073760
0.713140 0.201720 0.068558
0.738905 0.206350 0.064583
0.758230 0.210337 0.061575
0.776320 0.215637 0.058890
0.811592 0.228646 0.053598
0.093672 0.123200 0.131639
0.093746 0.126417 0.147642
0.085090 0.130052 0.145669
0.125198 0.142038 0.133048
0.228130 0.144201 0.115594
0.309850 0.155305 0.109442
0.399950 0.163116 0.103284
0.486211 0.172364 0.095290
0.569888 0.187661 0.086098
0.639870 0.202108 0.076994
0.689522 0.211541 0.069790
0.726347 0.217635 0.064073
0.752433 0.222781 0.059982
0.770981 0.226593 0.057151
0.788058 0.231101 0.054488
0.822559 0.243464 0.049016
0.099266 0.162495 0.146401
0.099072 0.162245 0.158613
0.093974 0.159889 0.155315
0.100604 0.176558 0.157685
0.204285 0.191318 0.134753
0.292921 0.180888 0.108181
0.386007 0.202152 0.100766
0.479345 0.215088 0.091970
0.574378 0.223603 0.081289
0.650561 0.233056 0.071582
0.702552 0.240170 0.063984
0.738877 0.245104 0.058741
0.764518 0.247112 0.055036
0.782474 0.247831 0.052236
0.798982 0.249816 0.049699
0.832557 0.262369 0.044545
0.100715 0.206359 0.159343
0.100567 0.205185 0.169415
0.098032 0.200167 0.162996
0.097993 0.210723 0.172772
0.170020 0.236344 0.159882
0.271020 0.233873 0.125838
0.367882 0.225509 0.102164
0.468692 0.249994 0.091272
0.566570 0.277668 0.076871
0.653614 0.291305 0.062920
0.712142 0.290250 0.054603
0.752164 0.286471 0.049804
0.777890 0.282798 0.047164
0.794937 0.279731 0.045614
0.810501 0.279239 0.043723
0.843973 0.289627 0.037987
0.097565 0.260873 0.177231
0.097719 0.258369 0.184539
0.097436 0.252346 0.178577
0.098323 0.257948 0.189030
0.149507 0.283069 0.184918
0.266564 0.309922 0.157033
0.360321 0.292105 0.117056
0.453262 0.278635 0.093757
0.561593 0.306640 0.076117
0.651681 0.342771 0.060156
0.716446 0.362623 0.047872
0.761656 0.358008 0.039376
0.789187 0.344037 0.035607
0.807154 0.328713 0.034248
0.822429 0.320701 0.034166
0.855721 0.330240 0.030012
0.088215 0.325556 0.197946
0.089626 0.321901 0.202857
0.092606 0.315818 0.198553
0.100931 0.318852 0.206792
0.128047 0.339170 0.208769
0.251268 0.369243 0.186418
0.374975 0.395655 0.152272
0.450982 0.353778 0.111658
0.547541 0.345781 0.080668
0.651565 0.372298 0.061463
0.719076 0.400608 0.051779
0.766843 0.423038 0.047563
0.797040 0.422154 0.042705
0.816209 0.404754 0.034918
0.832191 0.386494 0.029764
0.865028 0.390215 0.029577
0.072960 0.402417 0.220105
0.076809 0.401292 0.225694
0.085951 0.394165 0.222391
0.105737 0.396501 0.226350
0.114715 0.410914 0.230471
0.230025 0.443248 0.227400
0.371582 0.476004 0.192142
0.488097 0.506628 0.181130
0.557913 0.445501 0.117938
0.644068 0.424341 0.073920
0.724755 0.446438 0.065830
0.775116 0.464880 0.066744
0.807099 0.478983 0.068538
0.827419 0.480941 0.065767
0.844073 0.470597 0.057961
0.875747 0.475927 0.057517
0.061852 0.477216 0.241064
0.070665 0.478747 0.248606
0.088316 0.476017 0.251015
0.118432 0.477075 0.251302
0.130801 0.489135 0.254377
0.227753 0.520657 0.262024
0.379834 0.551627 0.229820
0.494025 0.585184 0.225295
0.610913 0.612212 0.211197
0.660163 0.535640 0.143782
0.722975 0.514943 0.109463
0.782470 0.521957 0.099629
0.816188 0.522584 0.093416
0.836854 0.523215 0.090038
0.854489 0.525768 0.087769
0.886146 0.545032 0.093864
0.061473 0.535335 0.255981
0.074160 0.537887 0.260819
0.096321 0.540149 0.270414
0.133347 0.543535 0.271522
0.150404 0.554971 0.273567
0.244704 0.588515 0.284443
0.393313 0.619830 0.263714
0.505870 0.647527 0.254051
0.609802 0.680576 0.253104
0.708621 0.689623 0.230136
0.742745 0.618145 0.175848
0.783906 0.587773 0.143506
0.823866 0.579524 0.127722
0.844872 0.568797 0.117083
0.862527 0.563872 0.111091
0.894292 0.583472 0.117764
0.067697 0.580054 0.270631
0.082591 0.583510 0.273063
0.103731 0.587695 0.282522
0.145957 0.593598 0.287612
0.164034 0.603043 0.287282
0.253763 0.635491 0.296865
0.393631 0.664394 0.282387
0.502786 0.689152 0.272925
0.602476 0.716370 0.269662
0.688094 0.734212 0.258157
0.763386 0.723255 0.232185
0.796815 0.671235 0.195295
0.823006 0.636930 0.167223
0.850047 0.621253 0.150274
0.869957 0.609178 0.138998
0.901400 0.622090 0.142035
0.074481 0.612484 0.279992
0.090000 0.615547 0.281764
0.109452 0.619384 0.287013
0.153463 0.626135 0.295133
0.172483 0.635393 0.293683
0.249795 0.663690 0.301235
0.377706 0.690567 0.291562
0.482299 0.711945 0.283716
0.575480 0.734433 0.279132
0.663137 0.757342 0.274323
0.740855 0.768443 0.258600
0.798906 0.745561 0.232733
0.832729 0.705455 0.204911
0.848611 0.668710 0.180389
0.872706 0.654319 0.166648
0.905289 0.660568 0.165119
0.079211 0.634613 0.285972
0.095895 0.638957 0.289098
0.111787 0.641112 0.288990
0.156526 0.648777 0.298947
0.176913 0.656960 0.295822
0.241370 0.680670 0.302685
0.356113 0.706657 0.297489
0.457404 0.726848 0.292335
0.541121 0.744385 0.286975
0.630637 0.767843 0.283013
0.699451 0.782458 0.275889
0.780573 0.793355 0.258243
0.825103 0.761389 0.233692
0.857015 0.726945 0.209798
0.870519 0.694921 0.190161
0.907096 0.697530 0.185421
0.083538 0.654359 0.291558
0.100643 0.657751 0.294046
0.113879 0.658726 0.289098
0.159382 0.666506 0.297295
0.181779 0.674518 0.293929
0.238710 0.695977 0.301452
0.343771 0.720322 0.300597
0.436127 0.738088 0.297873
0.510092 0.752290 0.293489
0.594176 0.771817 0.288215
0.667722 0.791393 0.285255
0.730772 0.800824 0.274215
0.806306 0.808271 0.257186
0.849855 0.777134 0.234070
0.876475 0.744654 0.214634
0.904668 0.728032 0.202147
0.094679 0.765995 0.329618
0.108589 0.767719 0.330656
0.091965 0.768492 0.326961
0.118810 0.776192 0.339459
0.156282 0.786312 0.353194
0.201350 0.800025 0.351070
0.295700 0.818642 0.342496
0.393212 0.834696 0.333146
0.461055 0.846456 0.328422
0.543831 0.862342 0.321876
0.618247 0.879137 0.317178
0.689089 0.897903 0.314724
0.750286 0.905946 0.303968
0.831300 0.918391 0.289856
0.886164 0.891329 0.264095
0.921339 0.857399 0.244252
0.076949 -0.314216 0.081286
0.064185 -0.315372 -0.043430
0.174320 -0.313046 0.039693
0.303371 -0.313799 -0.027985
0.369606 -0.318352 -0.058982
0.422485 -0.324884 -0.072499
0.473585 -0.332684 -0.079896
0.517605 -0.340375 -0.093030
0.563127 -0.347368 -0.092999
0.598672 -0.354876 -0.093905
0.625090 -0.362844 -0.094434
0.645110 -0.369771 -0.093955
0.657738 -0.374495 -0.090291
0.665954 -0.374397 -0.082680
0.677848 -0.366402 -0.072158
0.720534 -0.351527 -0.067908
0.087535 0.095478 0.166336
0.079790 0.097802 0.164600
0.055269 0.091544 0.143189
0.162067 0.098889 0.126183
0.257554 0.107132 0.125162
0.330152 0.108221 0.117918
0.406222 0.118135 0.112013
0.481038 0.124993 0.102323
0.554151 0.137140 0.095887
0.613652 0.148299 0.090755
0.658740 0.159381 0.085637
0.693871 0.168160 0.080825
0.720842 0.177378 0.076633
0.742505 0.187110 0.073180
0.762900 0.197896 0.070202
0.800466 0.218696 0.066547
0.093840 0.120047 0.181080
0.090441 0.110417 0.169757
0.081217 0.119906 0.175162
0.134335 0.124740 0.153225
0.236187 0.127405 0.133670
0.295359 0.142183 0.133102
0.382946 0.161084 0.128078
0.471413 0.174358 0.118050
0.557033 0.186325 0.104634
0.627287 0.196001 0.089431
0.676028 0.204128 0.080800
0.712063 0.210722 0.075579
0.737525 0.216744 0.072209
0.757280 0.222715 0.069732
0.775841 0.229366 0.067398
0.810901 0.242679 0.063301
0.097545 0.143197 0.182461
0.096134 0.134531 0.178391
0.091025 0.136354 0.183455
0.099468 0.153333 0.175818
0.220142 0.163437 0.150319
0.281365 0.175122 0.149034
0.372014 0.189951 0.140156
0.467115 0.200581 0.125493
0.560158 0.212072 0.108095
0.637413 0.221679 0.088465
0.690690 0.230332 0.078569
0.727932 0.236676 0.072109
0.753588 0.241283 0.068016
0.771720 0.244213 0.065268
0.788785 0.247931 0.062870
0.822498 0.260716 0.058969
0.100602 0.186617 0.198921
0.100166 0.175844 0.193810
0.097428 0.173218 0.192958
0.090844 0.179543 0.189714
0.179216 0.201178 0.172464
0.281866 0.197399 0.144173
0.374564 0.217709 0.134769
0.471864 0.223171 0.117615
0.568856 0.228208 0.095588
0.647428 0.239482 0.081954
0.702034 0.248398 0.073056
0.738868 0.253772 0.067118
0.764882 0.257189 0.063271
0.783390 0.259426 0.060519
0.800104 0.262763 0.058341
0.832934 0.276402 0.054829
0.099542 0.232313 0.213662
0.100142 0.221657 0.208096
0.099269 0.217334 0.202133
0.092915 0.213063 0.198122
0.143157 0.233763 0.195154
0.255660 0.248559 0.171391
0.362295 0.238481 0.129680
0.465082 0.263195 0.100484
0.565700 0.279347 0.086730
0.655081 0.281770 0.072098
0.713944 0.283253 0.064584
0.752964 0.283702 0.059915
0.778611 0.284121 0.056931
0.795923 0.283842 0.055160
0.811658 0.284397 0.053266
0.844774 0.296618 0.049983
0.094074 0.286391 0.231449
0.095975 0.276807 0.226031
0.096365 0.269968 0.214708
0.093368 0.262199 0.207318
0.128384 0.279708 0.217401
0.233038 0.306546 0.201900
0.347151 0.308854 0.162266
0.448500 0.287033 0.105967
0.559481 0.315680 0.083616
0.651356 0.349549 0.070612
0.719214 0.355730 0.057581
0.764794 0.343911 0.049106
0.791627 0.331374 0.046317
0.808736 0.321281 0.045849
0.823784 0.316893 0.045700
0.856608 0.328364 0.043388
0.083284 0.350861 0.251954
0.087010 0.343294 0.247198
0.088148 0.333837 0.230499
0.092380 0.324757 0.222379
0.108768 0.334938 0.238628
0.210744 0.364105 0.230082
0.346035 0.393169 0.196566
0.444973 0.370404 0.134216
0.543826 0.350280 0.090613
0.650393 0.375208 0.068679
0.719618 0.406053 0.060548
0.769654 0.422910 0.055660
0.800521 0.411579 0.048274
0.819784 0.389131 0.041295
0.835487 0.371448 0.038597
0.868212 0.378162 0.039859
0.068563 0.425557 0.273018
0.075663 0.423835 0.272161
0.076456 0.412988 0.251593
0.092672 0.405150 0.245592
0.113522 0.411751 0.259540
0.190964 0.439518 0.261188
0.334382 0.469181 0.237327
0.464365 0.501705 0.196864
0.552344 0.459623 0.138426
0.640802 0.425676 0.083197
0.723923 0.446831 0.073289
0.776663 0.468575 0.074847
0.810058 0.483101 0.076476
0.830854 0.478257 0.070383
0.847429 0.460736 0.060757
0.879533 0.464149 0.061286
0.060780 0.495151 0.290972
0.074307 0.497503 0.291903
0.074053 0.490362 0.272285
0.104469 0.486163 0.273718
0.133805 0.492324 0.282432
0.192610 0.516649 0.288192
0.337002 0.545935 0.273999
0.473315 0.578094 0.235523
0.591411 0.610466 0.225481
0.658867 0.547695 0.161537
0.721485 0.515457 0.117786
0.783601 0.522930 0.106763
0.819279 0.525498 0.100822
0.840414 0.528732 0.098728
0.858479 0.531617 0.096600
0.891033 0.547207 0.101324
0.064208 0.551341 0.299473
0.081538 0.554633 0.301061
0.080019 0.548502 0.281871
0.119091 0.551223 0.294641
0.153053 0.558523 0.299952
0.210667 0.583692 0.308111
0.351842 0.615217 0.301744
0.483923 0.642788 0.267046
0.594793 0.677192 0.264440
0.699018 0.695264 0.246174
0.742884 0.627848 0.191069
0.784780 0.591654 0.154139
0.826754 0.583475 0.137249
0.848871 0.572583 0.125536
0.867388 0.569085 0.119840
0.899128 0.591331 0.128889
0.071569 0.592184 0.299892
0.089982 0.595802 0.302707
0.088244 0.590965 0.285595
0.130598 0.599310 0.308433
0.167477 0.606856 0.314150
0.222530 0.630472 0.320434
0.354797 0.661218 0.316859
0.480037 0.685863 0.289213
0.587420 0.712932 0.279983
0.675489 0.733362 0.271773
0.762059 0.733119 0.247401
0.798996 0.679941 0.209522
0.825517 0.642723 0.178970
0.854239 0.627042 0.161358
0.875080 0.615660 0.150249
0.906491 0.630952 0.154988
0.077723 0.621570 0.303442
0.096010 0.624254 0.303925
0.095284 0.621794 0.291881
0.137534 0.630649 0.313421
0.175693 0.639211 0.321388
0.226484 0.660030 0.326151
0.341432 0.687298 0.323294
0.458528 0.709575 0.304548
0.560197 0.731530 0.289922
0.654330 0.756777 0.286196
0.730607 0.768621 0.271952
0.800122 0.755745 0.247348
0.835991 0.713130 0.218172
0.852660 0.675761 0.193168
0.878060 0.661193 0.178456
0.909927 0.668728 0.178027
0.082095 0.643066 0.308542
0.100667 0.645729 0.307814
0.100859 0.644568 0.298699
0.140370 0.652073 0.315214
0.179729 0.660794 0.323863
0.225866 0.678700 0.327407
0.324697 0.703642 0.326527
0.434573 0.724658 0.314340
0.526053 0.742080 0.298796
0.619841 0.765903 0.294248
0.694147 0.784120 0.289052
0.771626 0.793856 0.271178
0.825993 0.769580 0.247427
0.860407 0.734452 0.222813
0.875312 0.701587 0.202323
0.911817 0.704923 0.197925
0.086232 0.662135 0.313522
0.104384 0.663673 0.311247
0.106153 0.662752 0.303322
0.143219 0.669115 0.313994
0.185662 0.678671 0.324225
0.227478 0.694619 0.324542
0.318938 0.718079 0.323948
0.421412 0.737468 0.314695
0.499186 0.751241 0.304904
0.585237 0.770401 0.299046
0.661796 0.790814 0.296132
0.725811 0.801839 0.286604
0.800998 0.810572 0.269556
0.850865 0.784463 0.246848
0.880070 0.750177 0.226169
0.908924 0.734017 0.214040
0.096072 0.771913 0.348466
0.113390 0.771687 0.345642
0.109188 0.771730 0.341838
0.089443 0.774750 0.342567
0.140108 0.786658 0.375217
0.182614 0.798753 0.386251
0.257662 0.815619 0.380928
0.361183 0.832608 0.365118
0.439453 0.844994 0.348928
0.526535 0.860163 0.335074
0.607113 0.877175 0.329005
0.680317 0.896014 0.326493
0.743737 0.906214 0.317263
0.818787 0.918140 0.304776
0.886137 0.902605 0.280330
0.923156 0.865390 0.257897
0.084332 -0.314844 0.150724
0.072228 -0.317178 0.089290
0.110860 -0.316113 0.074764
0.237620 -0.314851 0.094516
0.365532 -0.317943 0.078987
0.420503 -0.323852 0.056822
0.476823 -0.331006 0.055949
0.529555 -0.338558 0.061935
0.577779 -0.345222 0.065164
0.614449 -0.352084 0.045893
0.639747 -0.359726 -0.051852
0.657353 -0.366931 -0.082025
0.669614 -0.372302 -0.083166
0.676217 -0.374013 -0.076038
0.683673 -0.368697 -0.063543
0.712527 -0.359332 -0.053026
0.095066 0.121036 0.213155
0.091350 0.113578 0.202211
0.068157 0.101145 0.189691
0.089553 0.091720 0.153875
0.268493 0.110813 0.152828
0.341249 0.116520 0.153021
0.411753 0.120209 0.151423
0.483617 0.117618 0.143917
0.549695 0.108295 0.130133
0.596099 0.103966 0.104683
0.632234 0.102532 0.099089
0.665035 0.109472 0.098028
0.698316 0.131729 0.093866
0.724604 0.152026 0.088971
0.748979 0.170764 0.084200
0.788190 0.193819 0.079679
0.097875 0.143575 0.221590
0.095997 0.131212 0.207975
0.090462 0.133064 0.210131
0.090781 0.127962 0.188253
0.226644 0.128047 0.161159
0.316336 0.134286 0.154308
0.391104 0.136510 0.147168
0.470165 0.142545 0.138000
0.548198 0.153098 0.125477
0.616242 0.169828 0.108866
0.667326 0.182728 0.096749
0.704200 0.190355 0.086188
0.729540 0.197837 0.082249
0.748501 0.204765 0.079805
0.767385 0.213105 0.077727
0.803085 0.232060 0.075367
0.099902 0.168879 0.233164
0.098504 0.149127 0.215331
0.095871 0.147236 0.213872
0.085448 0.158457 0.216895
0.191166 0.164008 0.186593
0.290157 0.161564 0.157508
0.353879 0.176078 0.151608
0.447093 0.204767 0.147709
0.541617 0.219431 0.134363
0.622552 0.232829 0.122810
0.678384 0.242452 0.115301
0.717852 0.248838 0.107347
0.744868 0.252040 0.099249
0.765116 0.255379 0.092326
0.784142 0.261331 0.085240
0.818290 0.274981 0.078454
0.100409 0.206246 0.246577
0.100640 0.190943 0.235969
0.099779 0.187861 0.233997
0.093270 0.185589 0.229710
0.115533 0.208078 0.223714
0.272544 0.218817 0.186585
0.343287 0.229779 0.182429
0.434975 0.244874 0.171288
0.538743 0.258211 0.151432
0.629163 0.267626 0.130814
0.691565 0.274779 0.116106
0.733839 0.278866 0.105721
0.762057 0.279486 0.093525
0.781391 0.280224 0.081028
0.798403 0.283115 0.074183
0.832076 0.294074 0.066996
0.097234 0.255557 0.267233
0.098685 0.244568 0.259529
0.099208 0.239810 0.254564
0.095597 0.228642 0.239286
0.097485 0.231397 0.232019
0.221839 0.258926 0.210405
0.345863 0.254216 0.175666
0.444785 0.280103 0.165810
0.549107 0.287577 0.145844
0.643478 0.289003 0.121351
0.706279 0.292853 0.105348
0.748815 0.294664 0.091373
0.775907 0.296027 0.076902
0.794014 0.297353 0.071209
0.810827 0.299303 0.067687
0.843911 0.310776 0.063636
0.090459 0.307433 0.284411
0.093075 0.300138 0.278801
0.094696 0.294371 0.271413
0.094179 0.280839 0.248664
0.099201 0.275697 0.244196
0.188277 0.300498 0.241390
0.320012 0.321800 0.215471
0.433823 0.302225 0.162823
0.547023 0.335566 0.126682
0.647109 0.349282 0.091704
0.719503 0.340372 0.070057
0.763543 0.331613 0.062293
0.789590 0.326012 0.061813
0.806811 0.324172 0.062501
0.822476 0.322855 0.061938
0.854480 0.334945 0.060160
0.079699 0.367244 0.302982
0.083866 0.365966 0.300738
0.086508 0.359734 0.291012
0.087475 0.345598 0.263629
0.090217 0.334177 0.254641
