my luts/kk4.cube
LUT_3D_SIZE 6
0.054578 0.063177 0.063658
0.257276 0.099594 0.099482
0.430913 0.107722 0.097975
0.598006 0.123935 0.083818
0.699048 0.141476 0.070266
0.778096 0.163571 0.056985
0.089929 0.109633 0.103542
0.132133 0.128656 0.099584
0.386452 0.155386 0.098029
0.631449 0.192761 0.074345
0.743385 0.211274 0.057191
0.816356 0.226323 0.043673
0.099293 0.241780 0.150461
0.101049 0.252764 0.155573
0.357984 0.277915 0.103404
0.643738 0.334871 0.055184
0.778485 0.372013 0.026730
0.845477 0.345782 0.016072
0.062403 0.456954 0.217063
0.110825 0.464483 0.214948
0.415412 0.560529 0.206407
0.661517 0.532466 0.127323
0.804308 0.517598 0.082349
0.872814 0.532403 0.078275
0.068569 0.599498 0.254469
0.144293 0.616210 0.253948
0.427225 0.697298 0.265737
0.675377 0.756567 0.251925
0.823678 0.695184 0.184320
0.892202 0.644807 0.142476
0.091967 0.759572 0.310284
0.136854 0.772534 0.305542
0.342039 0.823909 0.314210
0.562288 0.865338 0.298368
0.766550 0.905577 0.277223
0.914903 0.843407 0.220801
0.084332 -0.314844 0.150724
0.237620 -0.314851 0.094516
0.476823 -0.331006 0.055949
0.614449 -0.352084 0.045893
0.669614 -0.372302 -0.083166
0.712527 -0.359332 -0.053026
0.099902 0.168879 0.233164
0.085448 0.158457 0.216895
0.353879 0.176078 0.151608
0.622552 0.232829 0.122810
0.744868 0.252040 0.099249
0.818290 0.274981 0.078454
0.090459 0.307433 0.284411
0.094179 0.280839 0.248664
0.320012 0.321800 0.215471
0.647109 0.349282 0.091704
0.789590 0.326012 0.061813
0.854480 0.334945 0.060160
0.061062 0.510607 0.344363
0.081336 0.501516 0.302577
0.277932 0.538804 0.316086
0.657034 0.568891 0.186852
0.820614 0.530955 0.111901
0.895180 0.544476 0.110345
0.083040 0.635545 0.357218
0.104004 0.630156 0.313017
0.296402 0.682004 0.355608
0.641518 0.754714 0.295735
0.837998 0.722546 0.232344
0.913282 0.676241 0.191023
0.097329 0.779310 0.380775
0.102108 0.775539 0.351386
0.226973 0.813560 0.417957
0.498513 0.858089 0.375558
0.737700 0.907219 0.328362
0.923279 0.872313 0.270679
0.098759 -0.296190 0.326856
0.166648 -0.325827 0.189183
0.412174 -0.325376 0.209713
0.627109 -0.345302 0.199080
0.692328 -0.366550 0.202753
0.730020 -0.365887 0.204719
0.094640 0.263743 0.381153
0.096204 0.244370 0.377847
0.267064 0.171998 0.271265
0.616059 0.202782 0.251138
0.723921 0.202295 0.223854
0.777650 0.191167 0.178322
0.085067 0.330580 0.399860
0.092291 0.333868 0.404384
0.145675 0.342777 0.402523
0.585447 0.347447 0.265935
0.750919 0.406454 0.248512
0.830722 0.423020 0.237426
0.063646 0.534005 0.492523
0.099295 0.553706 0.495371
0.153305 0.545484 0.451132
0.567262 0.624571 0.427756
0.810884 0.590135 0.315690
0.891045 0.533727 0.266900
0.092559 0.664512 0.510136
0.126237 0.671132 0.493452
0.186165 0.671120 0.449999
0.518412 0.741822 0.484154
0.830480 0.787185 0.414629
0.922273 0.720637 0.319762
0.106842 0.804776 0.530958
0.129559 0.804796 0.508972
0.142616 0.807055 0.490577
0.408155 0.856626 0.523977
0.696104 0.910960 0.480564
0.925095 0.916322 0.410624
0.092341 -0.257157 0.483125
0.183500 -0.338493 0.302115
0.351594 -0.332068 0.319253
0.557833 -0.340343 0.318063
0.707317 -0.363746 0.298234
0.749205 -0.379683 0.274970
0.076689 0.365142 0.543120
0.088598 0.335784 0.548842
0.211073 0.193960 0.442439
0.450744 0.191043 0.384500
0.736273 0.218667 0.359863
0.801482 0.236650 0.333679
0.065970 0.434384 0.564780
0.085835 0.446915 0.577496
0.104560 0.447424 0.589102
0.424362 0.337727 0.461241
0.754636 0.355482 0.367524
0.820649 0.360964 0.340871
0.064689 0.530777 0.599609
0.100355 0.553167 0.617235
0.140707 0.571153 0.631316
0.352271 0.614875 0.646402
0.756721 0.654165 0.566683
0.846221 0.632054 0.508491
0.108971 0.698581 0.660467
0.143764 0.712769 0.666142
0.173083 0.718990 0.658502
0.332610 0.746543 0.688946
0.706989 0.814482 0.661105
0.906963 0.822150 0.617048
0.121182 0.829705 0.665633
0.136682 0.835072 0.665596
0.122048 0.834890 0.646709
0.259025 0.856210 0.681955
0.615281 0.912635 0.661826
0.890450 0.972693 0.641047
0.072253 -0.153437 0.579490
0.213590 -0.354246 0.357056
0.364236 -0.350153 0.364403
0.475330 -0.354069 0.357801
0.687729 -0.361135 0.356888
0.770908 -0.384081 0.351994
0.066969 0.420836 0.636671
0.084873 0.379300 0.638903
0.190745 0.219118 0.533699
0.398201 0.197976 0.467911
0.656854 0.226779 0.453692
0.802063 0.240727 0.436663
0.063522 0.496972 0.662933
0.090135 0.495667 0.664326
0.112636 0.476251 0.669450
0.337615 0.346192 0.564640
0.626592 0.339342 0.477509
0.822502 0.350497 0.437864
0.074483 0.571125 0.690126
0.105654 0.576239 0.694388
0.137737 0.584863 0.702916
0.288563 0.630435 0.730546
0.645619 0.576023 0.613066
0.846103 0.586313 0.543966
0.106536 0.683780 0.736228
0.139845 0.694717 0.744425
0.172731 0.708639 0.753142
0.273632 0.737284 0.775557
0.595415 0.809346 0.784744
0.855902 0.854480 0.749102
0.132404 0.842538 0.772599
0.152032 0.860419 0.795571
0.147905 0.870369 0.803034
0.239771 0.887464 0.825139
0.302304 0.907857 0.852614
0.719386 0.982057 0.828964
0.066974 -0.124834 0.678526
0.194192 -0.345845 0.428986
0.355259 -0.345071 0.425395
0.451792 -0.351060 0.417177
0.641275 -0.354931 0.415255
0.791151 -0.373532 0.430987
0.063261 0.419643 0.740464
0.081395 0.381991 0.741789
0.135660 0.226819 0.647855
0.371839 0.188716 0.545382
0.576944 0.209980 0.524652
0.792127 0.247709 0.532169
0.061141 0.494011 0.770009
0.087914 0.491132 0.770185
0.111990 0.476387 0.776285
0.282496 0.350861 0.675535
0.543907 0.325218 0.570270
0.804887 0.349279 0.531333
0.072954 0.564202 0.800273
0.102939 0.566186 0.802833
0.134751 0.573837 0.810166
0.275281 0.623652 0.843557
0.600439 0.572775 0.728145
0.817701 0.567608 0.632270
0.099274 0.657316 0.843083
0.130149 0.661818 0.847424
0.162999 0.674086 0.856659
0.267268 0.716526 0.889973
0.552362 0.800117 0.918245
0.840336 0.842984 0.868355
0.124417 0.774078 0.885095
0.156980 0.783407 0.892456
0.189499 0.793597 0.899696
0.287212 0.814828 0.916846
0.358021 0.833638 0.933635
0.680496 0.909205 0.933706
