my luts/kk5.cube
LUT_3D_SIZE 6
0.070075 0.070076 0.070075
0.084931 0.079267 0.080272
0.239944 0.103752 0.100469
0.386855 0.107688 0.099789
0.787703 0.121219 0.069903
1.075377 0.138194 0.063337
0.087885 0.095940 0.088378
0.107780 0.106812 0.093583
0.290081 0.130411 0.101638
0.451932 0.146378 0.094544
0.881872 0.271738 -0.000524
1.179886 0.321053 -0.031888
0.100880 0.160596 0.101062
0.120390 0.200316 0.101957
0.344646 0.162043 0.099731
0.518702 0.186711 0.085883
0.922382 0.355022 0.000671
1.210033 0.419693 -0.022061
0.100676 0.225910 0.100748
0.120183 0.274388 0.096081
0.377256 0.279780 0.086672
0.579974 0.231104 0.074745
0.951446 0.453065 0.029805
1.230269 0.542252 0.032872
0.093395 0.297021 0.094337
0.138640 0.356263 0.082018
0.413680 0.419916 0.056471
0.624681 0.379988 0.040852
0.972807 0.594320 0.035501
1.244261 0.699364 0.066985
-0.053734 0.482402 0.074842
0.221881 0.599003 0.018571
0.554304 0.691501 0.006765
0.766490 0.762628 0.068656
0.941837 0.787720 0.083022
1.249900 0.918898 0.102978
0.073688 -0.397974 -0.058389
-0.237545 -0.468732 0.083975
-0.338239 -0.507385 0.114820
-0.373500 -0.547369 0.127382
0.706995 -0.538604 0.086636
1.049590 -0.527914 0.075546
0.087077 0.090260 0.102587
0.097300 0.114355 0.115089
0.256910 0.145136 0.121104
0.442086 0.154309 0.104925
0.876948 0.247938 0.016622
1.171503 0.297449 -0.010488
0.102077 0.197108 0.160966
0.095483 0.207730 0.124247
0.320892 0.187583 0.107648
0.500416 0.208840 0.093387
0.919144 0.398160 0.046051
1.204833 0.474147 0.044490
0.094780 0.284270 0.174873
0.091436 0.281521 0.118804
0.328899 0.315310 0.089242
0.568637 0.253538 0.077536
0.946488 0.509475 0.064900
1.227364 0.600168 0.080908
0.080423 0.366898 0.173872
0.077142 0.366172 0.108478
0.334672 0.430183 0.067199
0.588157 0.437666 0.063068
0.971422 0.643372 0.083491
1.246783 0.739739 0.108000
0.018698 0.564512 0.202722
0.006571 0.614013 0.055922
0.481142 0.695614 0.022636
0.747027 0.778318 0.076670
0.935369 0.827891 0.107738
1.248989 0.940207 0.123008
0.087143 -0.447070 -0.228638
-0.099608 -0.464573 -0.034245
-0.318857 -0.512089 0.071883
-0.392030 -0.552216 0.124739
0.609936 -0.531763 0.194187
0.997517 -0.514750 0.207597
0.092295 0.107131 0.155406
0.094708 0.122426 0.175544
0.198676 0.156108 0.176659
0.361157 0.183991 0.181456
0.851426 0.303369 0.193310
1.157352 0.352144 0.202010
0.101413 0.165673 0.192771
0.100399 0.203690 0.220570
0.233906 0.231731 0.197701
0.445125 0.260675 0.191966
0.913147 0.423975 0.137369
1.203443 0.489110 0.138702
0.092791 0.291827 0.278767
0.089810 0.322630 0.268528
0.177069 0.343750 0.182908
0.522882 0.312745 0.143567
0.934250 0.572678 0.145134
1.219139 0.651042 0.147862
0.061874 0.429762 0.353675
0.072172 0.427702 0.279161
0.165391 0.454152 0.175957
0.533692 0.498276 0.101732
0.965972 0.694713 0.139217
1.243588 0.777479 0.155161
0.030593 0.670298 0.491210
0.015920 0.628485 0.322110
0.253604 0.726453 0.215322
0.698399 0.794817 0.195042
0.934913 0.870515 0.130089
1.252583 0.959818 0.139740
0.089077 -0.505894 -0.407409
0.073676 -0.489735 -0.293604
-0.284122 -0.516371 0.075664
-0.402906 -0.552983 -0.054134
0.472037 -0.532156 0.227505
0.934285 -0.512218 0.263985
0.097260 0.132934 0.224663
0.098422 0.146821 0.246207
0.112636 0.166393 0.236668
0.316185 0.193886 0.220007
0.793717 0.343092 0.301291
1.097504 0.404914 0.339888
0.099997 0.170351 0.245972
0.099841 0.196286 0.280223
0.115176 0.224515 0.304063
0.377441 0.295080 0.295020
0.873549 0.447575 0.341283
1.175426 0.491149 0.353583
0.098981 0.229746 0.279563
0.095403 0.271409 0.318631
0.108309 0.339360 0.363970
0.440051 0.384861 0.312239
0.915442 0.603154 0.339910
1.208011 0.669329 0.345620
0.068597 0.387516 0.409874
0.065050 0.454011 0.452157
0.100013 0.496236 0.403803
0.439918 0.537026 0.262920
0.956883 0.731905 0.268170
1.237359 0.804435 0.276489
0.067051 0.725926 0.699887
0.088985 0.743370 0.667626
0.005483 0.700502 0.381073
0.644095 0.810749 0.374614
0.946136 0.909942 0.197874
1.256837 0.975100 0.150399
0.090469 -0.483724 -0.443332
0.080260 -0.505630 -0.456063
-0.106806 -0.513828 -0.276011
-0.432754 -0.549019 -0.014785
0.401094 -0.529548 0.227471
0.883736 -0.510718 0.285602
0.099211 0.159086 0.289031
0.099554 0.172598 0.315154
0.106227 0.185726 0.302045
0.178164 0.212016 0.299923
0.759498 0.358777 0.352730
1.063720 0.417548 0.394272
0.099673 0.190028 0.314586
0.098767 0.215463 0.350808
0.110981 0.247389 0.389458
0.219364 0.294335 0.374703
0.818561 0.486916 0.465963
1.116406 0.547453 0.520761
0.098016 0.229717 0.335737
0.096094 0.260228 0.374867
0.112863 0.311703 0.432218
0.252383 0.385288 0.455396
0.885226 0.569510 0.490139
1.188525 0.603682 0.495138
0.085848 0.310865 0.394894
0.081614 0.366154 0.447728
0.101415 0.453926 0.523174
0.223423 0.551726 0.520240
0.936068 0.753991 0.497659
1.226794 0.816944 0.494745
0.063140 0.658261 0.719719
0.098098 0.716624 0.760007
0.145906 0.796639 0.789101
0.539826 0.819200 0.505606
0.983844 0.947386 0.168084
1.262362 0.981186 0.036178
0.095785 -0.418050 -0.356504
0.085953 -0.440855 -0.398429
0.059495 -0.483981 -0.428425
-0.330592 -0.533031 -0.070770
0.060739 -0.524845 0.145673
0.838772 -0.475584 0.332737
0.098984 0.193203 0.373219
0.098362 0.206933 0.404360
0.104311 0.219235 0.390638
0.121084 0.233951 0.376182
0.601311 0.354191 0.391552
1.023966 0.473812 0.515148
0.097128 0.222998 0.401496
0.095457 0.252806 0.446974
0.104319 0.284715 0.490882
0.129707 0.301064 0.465435
0.683539 0.472201 0.498952
1.080570 0.578699 0.629921
0.094015 0.254047 0.427611
0.092597 0.288431 0.473268
0.104051 0.335789 0.533676
0.137140 0.375752 0.556822
0.776974 0.587277 0.600367
1.131419 0.665004 0.692095
0.087296 0.302046 0.453431
0.086553 0.341667 0.502174
0.105433 0.403535 0.568365
0.095893 0.468908 0.619633
0.907216 0.733283 0.657440
1.198101 0.771746 0.671938
0.060092 0.550798 0.693131
0.088845 0.605255 0.741708
0.124585 0.670494 0.791261
0.026938 0.802656 0.791054
0.986342 0.948646 0.498616
1.269630 0.975545 0.437653
