my luts/kk5.cube
LUT_3D_SIZE 16
0.070075 0.070076 0.070075
0.069039 0.069036 0.069182
0.064656 0.067197 0.067953
0.084931 0.079267 0.080272
0.131607 0.092099 0.091674
0.185986 0.099947 0.097981
0.239944 0.103752 0.100469
0.292983 0.105558 0.101212
0.340948 0.106503 0.100988
0.386855 0.107688 0.099789
0.456529 0.109415 0.095641
0.541599 0.099226 0.087271
0.787703 0.121219 0.069903
0.945602 0.138194 0.063337
1.013913 0.138194 0.063337
1.075377 0.138194 0.063337
0.066323 0.064650 0.066235
0.066365 0.064258 0.066462
0.071763 0.074335 0.074903
0.092949 0.086578 0.085053
0.140260 0.099899 0.094643
0.198785 0.108897 0.099756
0.255561 0.112967 0.101226
0.310114 0.115548 0.101350
0.360036 0.117254 0.100425
0.411390 0.120113 0.098320
0.487910 0.126934 0.092453
0.582843 0.129559 0.081543
0.838930 0.198843 0.009595
1.001447 0.234310 -0.022390
1.073538 0.233902 -0.022026
1.137976 0.232933 -0.021162
0.076718 0.075378 0.076865
0.078113 0.078336 0.078609
0.078179 0.083091 0.081542
0.101078 0.095759 0.089418
0.152027 0.108422 0.097321
0.212879 0.117416 0.100955
0.271351 0.121712 0.101572
0.326310 0.124796 0.101132
0.376701 0.128035 0.099593
0.431627 0.133001 0.096636
0.512879 0.143262 0.089263
0.611676 0.149960 0.076641
0.863499 0.240035 0.001318
1.024422 0.285020 -0.032052
1.098230 0.284606 -0.031994
1.164306 0.283616 -0.031855
0.087885 0.095940 0.088378
0.089650 0.102311 0.090779
0.087616 0.103526 0.090790
0.107780 0.106812 0.093583
0.167060 0.117554 0.099602
0.231407 0.125797 0.101700
0.290081 0.130411 0.101638
0.344711 0.134514 0.100535
0.395649 0.139070 0.098337
0.451932 0.146378 0.094544
0.537843 0.159550 0.085713
0.640082 0.169263 0.071412
0.881872 0.271738 -0.000524
1.038060 0.322637 -0.031856
1.112869 0.322159 -0.031866
1.179886 0.321053 -0.031888
0.094514 0.116487 0.094975
0.096475 0.128479 0.097922
0.095079 0.132643 0.098024
0.116387 0.129739 0.098424
0.177485 0.128722 0.101113
0.251212 0.133587 0.101989
0.310850 0.138762 0.101343
0.363749 0.144804 0.099568
0.415459 0.151510 0.096640
0.474708 0.159982 0.091862
0.561631 0.175033 0.082157
0.666190 0.186709 0.066365
0.897910 0.300181 -0.001171
1.048958 0.356268 -0.029924
1.124539 0.355695 -0.029959
1.192221 0.354353 -0.030043
0.098487 0.137677 0.098765
0.099818 0.153290 0.101303
0.097280 0.163834 0.101513
0.121640 0.164858 0.101565
0.188311 0.153486 0.103166
0.263352 0.146065 0.102266
0.330724 0.148279 0.100672
0.385091 0.155997 0.098108
0.437362 0.163739 0.094482
0.496669 0.173420 0.088961
0.583578 0.190092 0.078696
0.688729 0.203126 0.061613
0.911122 0.327250 -0.000566
1.057559 0.388682 -0.026267
1.133771 0.388000 -0.026350
1.202024 0.386366 -0.026548
0.100880 0.160596 0.101062
0.101181 0.176211 0.102599
0.095845 0.192105 0.102138
0.120390 0.200316 0.101957
0.197657 0.190468 0.101981
0.273989 0.170677 0.101910
0.344646 0.162043 0.099731
0.404928 0.168551 0.096300
0.459835 0.176144 0.091909
0.518702 0.186711 0.085883
0.605822 0.205740 0.074988
0.710041 0.219558 0.056620
0.922382 0.355022 0.000671
1.064594 0.422665 -0.021648
1.141316 0.421789 -0.021770
1.210033 0.419693 -0.022061
0.101804 0.182612 0.101967
0.101349 0.196579 0.102724
0.093727 0.216084 0.101363
0.117845 0.230323 0.100380
0.203959 0.228911 0.099318
0.285878 0.210277 0.099849
0.358110 0.187576 0.097780
0.422477 0.182074 0.094246
0.480287 0.189488 0.089116
0.540863 0.200207 0.082509
0.627172 0.220806 0.071133
0.729294 0.234887 0.051368
0.931646 0.384700 0.007079
1.069752 0.460049 -0.009343
1.146881 0.458912 -0.009770
1.216027 0.456223 -0.010778
0.101641 0.204461 0.101745
0.100563 0.217708 0.101994
0.091905 0.237220 0.100026
0.117987 0.254277 0.098276
0.206698 0.261743 0.096150
0.295721 0.258069 0.093773
0.371614 0.228174 0.093617
0.440190 0.206666 0.090827
0.497866 0.204892 0.086096
0.561342 0.214728 0.078870
0.648603 0.236564 0.066741
0.748322 0.250600 0.044646
0.941136 0.418242 0.021834
1.075677 0.503088 0.016343
1.153154 0.501571 0.015344
1.222479 0.497968 0.012969
0.100676 0.225910 0.100748
0.098973 0.239727 0.100569
0.090701 0.256962 0.098359
0.120183 0.274388 0.096081
0.209590 0.288127 0.092746
0.301126 0.297888 0.087935
0.377256 0.279780 0.086672
0.452984 0.245414 0.085288
0.517461 0.224815 0.081895
0.579974 0.231104 0.074745
0.669024 0.254018 0.061574
0.767616 0.266865 0.035477
0.951446 0.453065 0.029805
1.082753 0.548073 0.034678
1.160668 0.546337 0.034139
1.230269 0.542252 0.032872
0.099139 0.246512 0.099259
0.096641 0.262091 0.098573
0.088790 0.277970 0.096227
0.123642 0.295413 0.093382
0.212554 0.312128 0.089052
0.304758 0.329545 0.082459
0.380761 0.327340 0.079164
0.457321 0.299872 0.077118
0.530118 0.263610 0.074925
0.599739 0.251155 0.069135
0.687488 0.274461 0.054942
0.786468 0.286527 0.017358
0.962089 0.491371 0.028320
1.089943 0.596623 0.047043
1.168357 0.594491 0.046549
1.238366 0.589416 0.045374
0.096996 0.268860 0.097307
0.093173 0.286874 0.095937
0.085266 0.302576 0.093178
0.128048 0.320944 0.089287
0.218930 0.340151 0.083601
0.309949 0.360830 0.075426
0.391009 0.370662 0.070461
0.460047 0.363956 0.067283
0.537970 0.329444 0.062957
0.609955 0.289321 0.059703
0.705621 0.301978 0.044143
0.802439 0.316698 0.001674
0.969315 0.538808 0.030100
1.093182 0.652683 0.058455
1.172096 0.649857 0.057916
1.243005 0.643278 0.056661
0.093395 0.297021 0.094337
0.086178 0.318884 0.091561
0.080815 0.336369 0.087610
0.138640 0.356263 0.082018
0.233301 0.378156 0.074109
0.324733 0.401513 0.063680
0.413680 0.419916 0.056471
0.480929 0.427512 0.054697
0.548892 0.419314 0.050444
0.624681 0.379988 0.040852
0.709487 0.351660 0.021822
0.811168 0.368048 -0.018010
0.972807 0.594320 0.035501
1.094295 0.708748 0.068628
1.173287 0.705944 0.068138
1.244261 0.699364 0.066985
0.085056 0.339766 0.088782
0.069992 0.366996 0.083231
0.082009 0.387806 0.076515
0.167665 0.412181 0.067060
0.264232 0.437330 0.055214
0.354736 0.463491 0.039134
0.446583 0.488235 0.029893
0.522411 0.504897 0.042782
0.582219 0.518815 0.049882
0.646883 0.511783 0.047320
0.717933 0.470312 0.033905
0.805716 0.442891 -0.004531
0.967129 0.648701 0.042766
1.095333 0.768609 0.079956
1.174402 0.765091 0.079260
1.245446 0.756701 0.077599
0.018804 0.361773 0.078383
-0.033393 0.401174 0.066369
-0.010165 0.425607 0.055227
0.144374 0.455556 0.031556
0.276826 0.486132 0.012621
0.370699 0.514809 0.003644
0.462431 0.544064 0.003752
0.547008 0.568383 0.033730
0.612668 0.587718 0.052213
0.667072 0.605401 0.059750
0.725706 0.597429 0.058675
0.786624 0.537778 0.036302
0.943170 0.686781 0.057847
1.088211 0.826656 0.090852
1.171849 0.826656 0.090852
1.243842 0.818259 0.089363
-0.053734 0.482402 0.074842
-0.015406 0.540980 0.055224
0.041573 0.566113 0.045376
0.221881 0.599003 0.018571
0.375318 0.632431 -0.001178
0.469150 0.662138 -0.001073
0.554304 0.691501 0.006765
0.636976 0.719580 0.034980
0.709366 0.740513 0.055943
0.766490 0.762628 0.068656
0.811915 0.781773 0.076471
0.852514 0.760461 0.077792
0.941837 0.787720 0.083022
1.083310 0.918898 0.102978
1.166459 0.918898 0.102978
1.249900 0.918898 0.102978
0.019557 -0.242072 0.069410
-0.058807 -0.255270 0.070471
-0.118053 -0.285084 0.073152
-0.157573 -0.302882 0.085170
-0.177625 -0.318102 0.098655
-0.186673 -0.333094 0.107138
-0.189608 -0.348416 0.110580
-0.188467 -0.363883 0.110876
-0.183202 -0.378395 0.109337
-0.156657 -0.389932 0.105491
-0.004067 -0.398207 0.097895
0.349591 -0.404584 0.087761
0.719098 -0.386731 0.062305
0.910153 -0.375566 0.051986
0.976064 -0.373388 0.052034
1.035640 -0.368211 0.052148
0.058829 0.011713 0.067068
0.045576 0.009286 0.068661
0.041121 0.014605 0.076498
0.051776 0.024070 0.086899
0.088456 0.033862 0.096633
0.135866 0.039893 0.101883
0.184364 0.041877 0.103249
0.231624 0.042371 0.103077
0.277921 0.042044 0.101784
0.329235 0.041718 0.099078
0.414033 0.043349 0.093410
0.543816 0.038219 0.084359
0.808886 0.081622 0.044851
0.971893 0.106974 0.027732
1.042103 0.106974 0.027732
1.105276 0.106974 0.027732
0.076206 0.073368 0.077554
0.078617 0.077963 0.080788
0.079061 0.083331 0.084106
0.098580 0.097382 0.092368
0.146440 0.110122 0.100086
0.205108 0.119624 0.103364
0.264074 0.125113 0.103272
0.319997 0.128368 0.102166
0.374201 0.131093 0.100043
0.432336 0.133928 0.096659
0.512471 0.141746 0.089569
0.612815 0.147032 0.077654
0.864003 0.233986 0.004493
1.023628 0.277669 -0.027761
1.097241 0.277004 -0.027367
1.162938 0.275476 -0.026463
0.088784 0.097584 0.095363
0.090025 0.101229 0.094187
0.088488 0.105362 0.094829
0.104911 0.110500 0.096464
0.159963 0.121169 0.102310
0.221841 0.130162 0.104278
0.281345 0.136394 0.103276
0.337843 0.140345 0.101404
0.392301 0.144129 0.098671
0.451335 0.149168 0.094588
0.537061 0.160839 0.086041
0.641074 0.170133 0.071799
0.882602 0.277568 -0.000084
1.038118 0.330960 -0.031263
1.112984 0.330401 -0.031311
1.180140 0.329114 -0.031423
0.096773 0.125990 0.106976
0.096800 0.126787 0.100862
0.094939 0.134842 0.102142
0.111339 0.133739 0.100489
0.171432 0.133246 0.102588
0.241804 0.139319 0.103412
0.302001 0.146062 0.102193
0.357586 0.151400 0.100007
0.412056 0.156806 0.096813
0.472623 0.163571 0.091989
0.560771 0.177819 0.082487
0.667419 0.188838 0.066536
0.898102 0.309065 0.001044
1.048184 0.368868 -0.026574
1.123728 0.368268 -0.026653
1.191408 0.366865 -0.026837
0.100308 0.152895 0.111221
0.100025 0.149563 0.102880
0.097269 0.164760 0.105023
0.114358 0.168787 0.102864
0.179936 0.158807 0.103171
0.257214 0.151681 0.102517
0.326120 0.153950 0.100703
0.380796 0.161468 0.098099
0.433279 0.168498 0.094564
0.492629 0.177190 0.089322
0.581925 0.193646 0.079175
0.689889 0.206204 0.061630
0.911148 0.338162 0.004989
1.056625 0.403679 -0.017835
1.132776 0.402964 -0.018032
1.200988 0.401257 -0.018502
0.101666 0.178804 0.112191
0.101492 0.171688 0.103604
0.097103 0.191907 0.105481
0.110846 0.203886 0.102832
0.184554 0.197031 0.101916
0.268253 0.177406 0.101915
0.340787 0.167889 0.099586
0.401172 0.173550 0.096194
0.456082 0.180729 0.091993
0.514876 0.190880 0.086306
0.603349 0.209855 0.075615
0.710662 0.223682 0.056582
0.922150 0.367435 0.016779
1.063543 0.439036 0.002351
1.140200 0.438162 0.001792
1.208867 0.436032 0.000431
0.101614 0.202477 0.111616
0.101800 0.193300 0.103700
0.096116 0.215366 0.104691
0.106009 0.233367 0.100995
0.185864 0.235217 0.099172
0.277523 0.219557 0.098803
0.352370 0.195293 0.097598
0.418679 0.187241 0.094094
0.477198 0.193805 0.089166
0.537806 0.204478 0.082931
0.625088 0.225679 0.071767
0.729306 0.240619 0.051093
0.931621 0.398175 0.024785
1.069580 0.476937 0.017547
1.146662 0.475800 0.017163
1.215706 0.473098 0.016250
0.100656 0.224763 0.109843
0.101134 0.215273 0.103098
0.094751 0.237413 0.103381
0.104304 0.258322 0.098704
0.185434 0.266861 0.095948
0.283602 0.265195 0.093389
0.363338 0.238888 0.093156
0.435146 0.214211 0.090463
0.495271 0.209855 0.085989
0.559218 0.219003 0.079227
0.647302 0.241646 0.067313
0.747775 0.258336 0.044291
0.940919 0.432312 0.033217
1.075704 0.519183 0.034164
1.153185 0.517684 0.033549
1.222523 0.514184 0.032113
0.099074 0.246296 0.107619
0.099710 0.237060 0.102000
0.093079 0.258588 0.101843
0.104492 0.280416 0.096336
0.185630 0.292883 0.092658
0.284381 0.301668 0.088417
0.367559 0.290483 0.086303
0.444309 0.256915 0.084943
0.513351 0.232566 0.081525
0.578266 0.235929 0.074920
0.668591 0.259128 0.061945
0.766673 0.276466 0.034587
0.950647 0.468601 0.037992
1.082468 0.564581 0.048014
1.160380 0.562814 0.047546
1.230003 0.558634 0.046438
0.097106 0.266930 0.105620
0.097651 0.258749 0.100311
0.090744 0.279949 0.099919
0.105777 0.302006 0.093683
0.187564 0.316698 0.089085
0.286100 0.331608 0.083282
0.369726 0.335352 0.079306
0.447003 0.312166 0.077349
0.522974 0.276019 0.074569
0.596727 0.258964 0.068845
0.687559 0.280827 0.055015
0.785553 0.297891 0.017258
0.961202 0.507332 0.036727
1.089758 0.612393 0.059796
1.168144 0.610325 0.059304
1.238103 0.605415 0.058135
0.094482 0.289751 0.103813
0.094795 0.282274 0.098182
0.086413 0.304927 0.097005
0.107579 0.327518 0.089842
0.194282 0.344159 0.083972
0.289977 0.362424 0.076473
0.377426 0.376002 0.070926
0.450245 0.373634 0.068479
0.528372 0.343613 0.064215
0.603492 0.302737 0.059743
0.704434 0.312850 0.043927
0.801451 0.330371 0.003258
0.968491 0.553553 0.038788
1.092999 0.665749 0.070541
1.171913 0.663204 0.070073
1.242835 0.656916 0.068917
0.089845 0.320276 0.101927
0.089503 0.312123 0.094691
0.077651 0.340020 0.091135
0.113565 0.363037 0.082811
0.210274 0.380750 0.075255
0.303704 0.402496 0.065395
0.396458 0.423329 0.057374
0.470745 0.434511 0.056065
0.539777 0.429957 0.054071
0.615911 0.395242 0.046169
0.704185 0.367426 0.029757
0.809051 0.384335 -0.005637
0.972230 0.607927 0.044458
1.094513 0.719788 0.079357
1.173476 0.717012 0.078943
1.244355 0.710661 0.077996
0.080147 0.365634 0.099134
0.076923 0.356361 0.087664
0.062870 0.392276 0.079934
0.134753 0.417364 0.069194
0.241144 0.438478 0.058375
0.333183 0.463812 0.043935
0.426933 0.490118 0.033777
0.509499 0.510017 0.043593
0.574966 0.525263 0.053705
0.640513 0.523090 0.053848
0.711266 0.486822 0.044536
0.801583 0.461071 0.016514
0.966308 0.660298 0.056598
1.096060 0.777316 0.089052
1.175162 0.773895 0.088433
1.246208 0.765928 0.086993
0.046719 0.394816 0.088503
-0.011769 0.382486 0.068573
-0.038609 0.431089 0.049897
0.100096 0.458817 0.023629
0.250741 0.486463 0.008686
0.349342 0.515162 0.000445
0.442380 0.544982 -0.000128
0.531317 0.571650 0.027608
0.604438 0.592617 0.053762
0.663358 0.611823 0.064455
0.721981 0.608700 0.065407
0.783305 0.554862 0.051004
0.942312 0.698499 0.071801
1.088692 0.833379 0.098108
1.172420 0.833379 0.098108
1.244565 0.825099 0.096928
0.020927 0.505579 0.109872
-0.053290 0.517599 0.063329
0.012026 0.575314 0.042888
0.179135 0.602898 0.013708
0.350591 0.633187 0.000721
0.450918 0.662732 0.000368
0.538144 0.692611 0.005128
0.623408 0.721795 0.028662
0.700660 0.744721 0.056583
0.762994 0.766352 0.071456
0.811281 0.786671 0.080095
0.852219 0.770622 0.083310
0.940323 0.798720 0.090296
1.082574 0.924782 0.108943
1.165795 0.924782 0.108943
1.249202 0.924782 0.108943
0.022723 -0.403289 0.025405
-0.107683 -0.426538 0.064359
-0.189889 -0.448049 0.074358
-0.251554 -0.464151 0.086224
-0.292865 -0.477971 0.099877
-0.319976 -0.491678 0.109417
-0.339309 -0.506026 0.115579
-0.353538 -0.520882 0.118030
-0.362360 -0.534562 0.118230
-0.347949 -0.545856 0.115609
-0.179231 -0.554380 0.108998
0.277980 -0.558862 0.096681
0.705598 -0.540387 0.066684
0.911412 -0.531280 0.055321
0.977094 -0.531308 0.055237
1.035925 -0.531372 0.055039
0.063908 0.006141 0.066344
0.040743 -0.016976 0.073652
0.028232 -0.015975 0.080747
0.029032 -0.008896 0.091530
0.055485 -0.000956 0.101891
0.094369 0.004602 0.108341
0.134983 0.007094 0.111434
0.175801 0.007782 0.111937
0.217892 0.007799 0.111153
0.269480 0.007023 0.108774
0.366520 0.006480 0.102294
0.523266 -0.000491 0.092335
0.804216 0.043958 0.067002
0.972419 0.069412 0.056713
1.042524 0.069160 0.056612
1.105370 0.068573 0.056376
0.076170 0.072702 0.079976
0.078987 0.077623 0.084733
0.080339 0.084075 0.089978
0.094859 0.097665 0.098009
0.138822 0.110475 0.105478
0.195256 0.119981 0.108539
0.252597 0.125858 0.108409
0.308509 0.129256 0.106910
0.364352 0.131769 0.104435
0.425950 0.133024 0.100420
0.508121 0.136264 0.092754
0.606251 0.134190 0.082354
0.853728 0.204550 0.028640
1.011864 0.242451 0.004926
1.084962 0.242451 0.004926
1.150733 0.242451 0.004926
0.088329 0.095033 0.099592
0.089834 0.099215 0.100451
0.089331 0.105269 0.101961
0.101392 0.113259 0.103387
0.150876 0.124953 0.109279
0.210604 0.134643 0.111395
0.270075 0.141607 0.109503
0.328207 0.145871 0.106574
0.385797 0.149131 0.102739
0.448839 0.152053 0.097298
0.536493 0.159912 0.087699
0.641344 0.165667 0.073747
0.881592 0.272526 0.003824
1.035966 0.326208 -0.026460
1.110659 0.325554 -0.026326
1.177619 0.324005 -0.026007
0.097517 0.127194 0.118247
0.097569 0.129063 0.114082
0.095864 0.135675 0.111376
0.106075 0.138207 0.107990
0.162285 0.139343 0.108445
0.229592 0.146487 0.109996
0.289227 0.154558 0.108496
0.347052 0.160089 0.105265
0.404502 0.164644 0.100740
0.467949 0.169590 0.094573
0.558802 0.181468 0.084031
0.667677 0.190540 0.067505
0.897396 0.317364 0.010676
1.046622 0.380749 -0.012776
1.122098 0.380093 -0.013087
1.189800 0.378597 -0.013795
0.101335 0.160839 0.129887
0.100866 0.157959 0.120757
0.098752 0.165302 0.114143
0.105835 0.172898 0.109810
0.166996 0.165718 0.106587
0.247512 0.159357 0.106156
0.315403 0.162631 0.105052
0.370734 0.170692 0.101978
0.425296 0.177003 0.097652
0.486982 0.184072 0.091425
0.578962 0.198897 0.080522
0.689616 0.210523 0.062269
0.910358 0.350402 0.018748
1.055153 0.420011 0.002411
1.131200 0.419280 0.002150
1.199343 0.417611 0.001554
0.101973 0.191416 0.134450
0.101671 0.184401 0.122242
0.099484 0.190813 0.113378
0.101029 0.206357 0.109179
0.164868 0.204539 0.104476
0.257983 0.186077 0.103243
0.333100 0.176374 0.101449
0.393900 0.181771 0.097999
0.449294 0.188710 0.093833
0.509033 0.197874 0.087984
0.599591 0.215847 0.076887
0.709790 0.229721 0.057147
0.921148 0.381887 0.031860
1.062011 0.457523 0.024731
1.138563 0.456596 0.024114
1.207178 0.454496 0.022718
0.101034 0.218236 0.135925
0.101240 0.208970 0.121736
0.099146 0.213584 0.111993
0.096601 0.234401 0.107351
0.158770 0.241886 0.101905
0.262006 0.230850 0.099004
0.343883 0.205656 0.098143
0.412431 0.195339 0.094736
0.471701 0.200992 0.090210
0.532448 0.211487 0.084307
0.621026 0.232660 0.073116
0.727653 0.248835 0.051638
0.930474 0.414442 0.039985
1.068349 0.496686 0.040264
1.145328 0.495520 0.039900
1.214269 0.492821 0.039059
0.099263 0.243028 0.136105
0.099947 0.232479 0.119903
0.097937 0.236072 0.110582
0.094652 0.259511 0.105257
0.154110 0.272516 0.098930
0.261667 0.274352 0.094338
0.350886 0.252130 0.093067
0.426883 0.224841 0.090762
0.490388 0.217547 0.086482
0.554889 0.225827 0.080265
0.643835 0.249194 0.068659
0.745508 0.269170 0.045222
0.939729 0.449795 0.045515
1.074886 0.538748 0.052401
1.152291 0.537263 0.051985
1.221552 0.533883 0.051037
0.097050 0.266143 0.134512
0.098117 0.254488 0.117426
0.096023 0.257954 0.109204
0.093607 0.282710 0.103084
0.151830 0.298838 0.095685
0.257295 0.307057 0.090299
0.351939 0.302741 0.086711
0.432208 0.271838 0.085369
0.506773 0.243443 0.081748
0.574702 0.243185 0.075664
0.666336 0.266818 0.063097
0.764173 0.289641 0.036433
0.949065 0.487597 0.049635
1.081609 0.584343 0.064221
1.159460 0.582508 0.063761
1.229058 0.578321 0.062711
0.094550 0.287869 0.132212
0.095862 0.275783 0.114962
0.093586 0.279585 0.107620
0.092685 0.304872 0.100814
0.151847 0.323631 0.092010
0.255775 0.335145 0.085735
0.350956 0.343839 0.080583
0.432437 0.327609 0.078461
0.512049 0.292510 0.075331
0.591572 0.269939 0.069329
0.686124 0.289623 0.055990
0.783362 0.312926 0.022682
0.959577 0.526820 0.050733
1.089062 0.631319 0.075756
1.167363 0.629212 0.075244
1.237241 0.624492 0.074097
0.091291 0.311347 0.130276
0.092804 0.298915 0.112984
0.089641 0.304296 0.104958
0.090979 0.330459 0.097529
0.156414 0.351511 0.087117
0.258398 0.365217 0.079617
0.355215 0.381303 0.072875
0.435424 0.385128 0.070324
0.515036 0.361705 0.066916
0.593722 0.320796 0.061458
0.701048 0.326633 0.045663
0.799520 0.347776 0.012415
0.967652 0.571831 0.054128
1.093290 0.681951 0.085745
1.172152 0.679319 0.085287
1.242933 0.673528 0.084278
0.085735 0.342726 0.128746
0.087307 0.329679 0.111485
0.081133 0.338092 0.099556
0.088880 0.366807 0.090769
0.170621 0.388280 0.078987
0.272062 0.404930 0.069706
0.370302 0.426627 0.060181
0.454206 0.442289 0.057907
0.527129 0.443299 0.058811
0.603543 0.414821 0.053676
0.696360 0.387261 0.039624
0.805986 0.404568 0.013991
0.971828 0.624575 0.060863
1.095344 0.733257 0.092911
1.174361 0.730574 0.092598
1.245277 0.724356 0.091873
0.074991 0.388314 0.126263
0.076195 0.374414 0.109737
0.056935 0.387679 0.089472
0.086965 0.421568 0.077857
0.200107 0.445073 0.064318
0.302046 0.465767 0.051985
0.398469 0.491899 0.040464
0.488756 0.515196 0.044930
0.563259 0.533481 0.057402
0.631358 0.536581 0.061731
0.702348 0.506841 0.056544
0.795842 0.483462 0.039233
0.965324 0.674431 0.073439
1.097150 0.788014 0.100419
1.176305 0.784693 0.099920
1.247360 0.777060 0.098772
0.046434 0.421417 0.109356
0.010648 0.400840 0.094580
-0.044623 0.421454 0.058814
0.017441 0.463268 0.027000
0.196279 0.491447 0.007603
0.317119 0.516963 -0.000248
0.413201 0.545871 -0.001852
0.507159 0.574565 0.017909
0.590510 0.598639 0.050979
0.656687 0.619679 0.068819
0.716790 0.622591 0.073284
0.778062 0.576421 0.065687
0.940011 0.711966 0.085534
1.089174 0.841857 0.107089
1.173133 0.841857 0.107089
1.245540 0.833652 0.106279
0.035111 0.533722 0.147605
-0.034472 0.523945 0.113139
-0.021127 0.565478 0.057299
0.095220 0.609391 0.022592
0.292625 0.637455 0.006255
0.421072 0.664404 0.005425
0.513529 0.693533 0.008129
0.602509 0.723572 0.022826
0.686640 0.749388 0.054849
0.756674 0.771656 0.074232
0.809760 0.793580 0.084518
0.851000 0.784111 0.089755
0.937984 0.812265 0.098774
1.081966 0.932077 0.115808
1.165287 0.932077 0.115808
1.248812 0.932077 0.115808
0.073688 -0.397974 -0.058389
-0.057957 -0.424462 0.035509
-0.166426 -0.452299 0.065082
-0.237545 -0.468732 0.083975
-0.284541 -0.480807 0.096535
-0.314682 -0.493167 0.106020
-0.338239 -0.507385 0.114820
-0.358503 -0.522512 0.121633
-0.375238 -0.536276 0.125872
-0.373500 -0.547369 0.127382
-0.242196 -0.555369 0.124948
0.199808 -0.560203 0.113285
0.706995 -0.538604 0.086636
0.923018 -0.527740 0.077329
0.989669 -0.527791 0.076807
1.049590 -0.527914 0.075546
0.074599 0.023272 0.069096
0.054426 -0.011372 0.079050
0.035096 -0.013557 0.086975
0.027962 -0.008789 0.097884
0.046443 -0.001210 0.108696
0.081903 0.005369 0.116150
0.118482 0.009534 0.121060
0.154913 0.011770 0.123488
0.192519 0.013447 0.124443
0.240712 0.014550 0.124172
0.339326 0.015980 0.119266
0.503292 0.010932 0.108165
0.810594 0.070006 0.087645
0.986220 0.101680 0.080187
1.057422 0.101394 0.079715
1.121412 0.100715 0.078591
0.077455 0.074578 0.086719
0.080083 0.078694 0.092530
0.082196 0.085896 0.100083
0.090688 0.097694 0.107268
0.128914 0.110978 0.115002
0.183207 0.120900 0.118585
0.237167 0.127508 0.119571
0.290933 0.132324 0.118907
0.345029 0.136256 0.117014
0.408337 0.138323 0.113116
0.498610 0.139006 0.104704
0.600422 0.130871 0.094114
0.849938 0.192246 0.061711
1.009058 0.227049 0.047905
1.081830 0.226708 0.047552
1.147108 0.225912 0.046729
0.087077 0.090260 0.102587
0.089426 0.096618 0.108479
0.089959 0.103390 0.112204
0.097300 0.114355 0.115089
0.139576 0.128184 0.121312
0.198210 0.138555 0.123622
0.256910 0.145136 0.121104
0.315755 0.149799 0.117180
0.375010 0.152847 0.112163
0.442086 0.154309 0.104925
0.534531 0.156369 0.092918
0.639282 0.153921 0.078903
0.876948 0.247938 0.016622
1.030128 0.297449 -0.010488
1.104545 0.297449 -0.010488
1.171503 0.297449 -0.010488
0.096884 0.121957 0.127143
0.098271 0.130976 0.131350
0.096880 0.134698 0.126148
0.101726 0.141679 0.122399
0.149622 0.146349 0.120372
0.214886 0.154658 0.123320
0.273582 0.163540 0.121965
0.332855 0.169888 0.117282
0.393106 0.174157 0.110682
0.460633 0.177614 0.102122
0.556455 0.185431 0.088573
0.667891 0.190393 0.070040
0.896190 0.320120 0.024713
1.044505 0.385389 0.006827
1.119889 0.384727 0.006342
1.187612 0.383278 0.005279
0.101641 0.160846 0.148720
0.101985 0.168509 0.146714
0.100144 0.167561 0.132623
0.099425 0.176343 0.125305
0.149677 0.173829 0.116209
0.233639 0.169107 0.115285
0.298575 0.174215 0.116430
0.354559 0.183525 0.112797
0.412645 0.189457 0.106809
0.478866 0.194820 0.098085
0.574659 0.206660 0.084458
0.687996 0.216674 0.064177
0.908569 0.363404 0.039600
1.052955 0.436446 0.032603
1.128866 0.435749 0.032354
1.196937 0.434217 0.031810
0.102077 0.197108 0.160966
0.101912 0.201820 0.153205
0.100680 0.195052 0.132698
0.095483 0.207730 0.124247
0.139595 0.212079 0.113029
0.242153 0.196558 0.107834
0.320892 0.187583 0.107648
0.381552 0.193827 0.104988
0.437933 0.200985 0.100641
0.500416 0.208840 0.093387
0.594552 0.224654 0.080051
0.707153 0.238673 0.058865
0.919144 0.398160 0.046051
1.059886 0.477046 0.045351
1.136298 0.476115 0.045075
1.204833 0.474147 0.044490
0.100372 0.229032 0.168157
0.100265 0.230755 0.155611
