12 Instagram Color Filters LUTS (Pack 2)/Gingham.cube
LUT_3D_SIZE 16
0.159882 0.163849 0.167847
0.192450 0.163849 0.167847
0.239601 0.163849 0.167847
0.306750 0.163849 0.167847
0.386348 0.163849 0.167847
0.475973 0.163849 0.167847
0.571417 0.163849 0.167847
0.654852 0.163849 0.167847
0.715951 0.163849 0.167847
0.760492 0.163849 0.167847
0.795207 0.163849 0.167847
0.823481 0.163849 0.167847
0.842193 0.163849 0.167847
0.853355 0.163849 0.167847
0.867869 0.163849 0.167847
0.887353 0.163849 0.167847
0.159882 0.168201 0.167847
0.192450 0.168201 0.167847
0.239601 0.168201 0.167847
0.306750 0.168201 0.167847
0.386348 0.168201 0.167847
0.475973 0.168201 0.167847
0.571417 0.168201 0.167847
0.654852 0.168201 0.167847
0.715951 0.168201 0.167847
0.760492 0.168201 0.167847
0.795207 0.168201 0.167847
0.823481 0.168201 0.167847
0.842193 0.168201 0.167847
0.853355 0.168201 0.167847
0.867869 0.168201 0.167847
0.887353 0.168201 0.167847
0.159882 0.200759 0.167847
0.192450 0.200759 0.167847
0.239601 0.200759 0.167847
0.306750 0.200759 0.167847
0.386348 0.200759 0.167847
0.475973 0.200759 0.167847
0.571417 0.200759 0.167847
0.654852 0.200759 0.167847
0.715951 0.200759 0.167847
0.760492 0.200759 0.167847
0.795207 0.200759 0.167847
0.823481 0.200759 0.167847
0.842193 0.200759 0.167847
0.853355 0.200759 0.167847
0.867869 0.200759 0.167847
0.887353 0.200759 0.167847
0.159882 0.275085 0.167847
0.192450 0.275085 0.167847
0.239601 0.275085 0.167847
0.306750 0.275085 0.167847
0.386348 0.275085 0.167847
0.475973 0.275085 0.167847
0.571417 0.275085 0.167847
0.654852 0.275085 0.167847
0.715951 0.275085 0.167847
0.760492 0.275085 0.167847
0.795207 0.275085 0.167847
0.823481 0.275085 0.167847
0.842193 0.275085 0.167847
0.853355 0.275085 0.167847
0.867869 0.275085 0.167847
0.887353 0.275085 0.167847
0.159882 0.383244 0.167847
0.192450 0.383244 0.167847
0.239601 0.383244 0.167847
0.306750 0.383244 0.167847
0.386348 0.383244 0.167847
0.475973 0.383244 0.167847
0.571417 0.383244 0.167847
0.654852 0.383244 0.167847
0.715951 0.383244 0.167847
0.760492 0.383244 0.167847
0.795207 0.383244 0.167847
0.823481 0.383244 0.167847
0.842193 0.383244 0.167847
0.853355 0.383244 0.167847
0.867869 0.383244 0.167847
0.887353 0.383244 0.167847
0.159882 0.501760 0.167847
0.192450 0.501760 0.167847
0.239601 0.501760 0.167847
0.306750 0.501760 0.167847
0.386348 0.501760 0.167847
0.475973 0.501760 0.167847
0.571417 0.501760 0.167847
0.654852 0.501760 0.167847
0.715951 0.501760 0.167847
0.760492 0.501760 0.167847
0.795207 0.501760 0.167847
0.823481 0.501760 0.167847
0.842193 0.501760 0.167847
0.853355 0.501760 0.167847
0.867869 0.501760 0.167847
0.887353 0.501760 0.167847
0.159882 0.600189 0.167847
0.192450 0.600189 0.167847
0.239601 0.600189 0.167847
0.306750 0.600189 0.167847
0.386348 0.600189 0.167847
0.475973 0.600189 0.167847
0.571417 0.600189 0.167847
0.654852 0.600189 0.167847
0.715951 0.600189 0.167847
0.760492 0.600189 0.167847
0.795207 0.600189 0.167847
0.823481 0.600189 0.167847
0.842193 0.600189 0.167847
0.853355 0.600189 0.167847
0.867869 0.600189 0.167847
0.887353 0.600189 0.167847
0.159882 0.671442 0.167847
0.192450 0.671442 0.167847
0.239601 0.671442 0.167847
0.306750 0.671442 0.167847
0.386348 0.671442 0.167847
0.475973 0.671442 0.167847
0.571417 0.671442 0.167847
0.654852 0.671442 0.167847
0.715951 0.671442 0.167847
0.760492 0.671442 0.167847
0.795207 0.671442 0.167847
0.823481 0.671442 0.167847
0.842193 0.671442 0.167847
0.853355 0.671442 0.167847
0.867869 0.671442 0.167847
0.887353 0.671442 0.167847
0.159882 0.720939 0.167847
0.192450 0.720939 0.167847
0.239601 0.720939 0.167847
0.306750 0.720939 0.167847
0.386348 0.720939 0.167847
0.475973 0.720939 0.167847
0.571417 0.720939 0.167847
0.654852 0.720939 0.167847
0.715951 0.720939 0.167847
0.760492 0.720939 0.167847
0.795207 0.720939 0.167847
0.823481 0.720939 0.167847
0.842193 0.720939 0.167847
0.853355 0.720939 0.167847
0.867869 0.720939 0.167847
0.887353 0.720939 0.167847
0.159882 0.758258 0.167847
0.192450 0.758258 0.167847
0.239601 0.758258 0.167847
0.306750 0.758258 0.167847
0.386348 0.758258 0.167847
0.475973 0.758258 0.167847
0.571417 0.758258 0.167847
0.654852 0.758258 0.167847
0.715951 0.758258 0.167847
0.760492 0.758258 0.167847
0.795207 0.758258 0.167847
0.823481 0.758258 0.167847
0.842193 0.758258 0.167847
0.853355 0.758258 0.167847
0.867869 0.758258 0.167847
0.887353 0.758258 0.167847
0.159882 0.788066 0.167847
0.192450 0.788066 0.167847
0.239601 0.788066 0.167847
0.306750 0.788066 0.167847
0.386348 0.788066 0.167847
0.475973 0.788066 0.167847
0.571417 0.788066 0.167847
0.654852 0.788066 0.167847
0.715951 0.788066 0.167847
0.760492 0.788066 0.167847
0.795207 0.788066 0.167847
0.823481 0.788066 0.167847
0.842193 0.788066 0.167847
0.853355 0.788066 0.167847
0.867869 0.788066 0.167847
0.887353 0.788066 0.167847
0.159882 0.811644 0.167847
0.192450 0.811644 0.167847
0.239601 0.811644 0.167847
0.306750 0.811644 0.167847
0.386348 0.811644 0.167847
0.475973 0.811644 0.167847
0.571417 0.811644 0.167847
0.654852 0.811644 0.167847
0.715951 0.811644 0.167847
0.760492 0.811644 0.167847
0.795207 0.811644 0.167847
0.823481 0.811644 0.167847
0.842193 0.811644 0.167847
0.853355 0.811644 0.167847
0.867869 0.811644 0.167847
0.887353 0.811644 0.167847
0.159882 0.828296 0.167847
0.192450 0.828296 0.167847
0.239601 0.828296 0.167847
0.306750 0.828296 0.167847
0.386348 0.828296 0.167847
0.475973 0.828296 0.167847
0.571417 0.828296 0.167847
0.654852 0.828296 0.167847
0.715951 0.828296 0.167847
0.760492 0.828296 0.167847
0.795207 0.828296 0.167847
0.823481 0.828296 0.167847
0.842193 0.828296 0.167847
0.853355 0.828296 0.167847
0.867869 0.828296 0.167847
0.887353 0.828296 0.167847
0.159882 0.839956 0.167847
0.192450 0.839956 0.167847
0.239601 0.839956 0.167847
0.306750 0.839956 0.167847
0.386348 0.839956 0.167847
0.475973 0.839956 0.167847
0.571417 0.839956 0.167847
0.654852 0.839956 0.167847
0.715951 0.839956 0.167847
0.760492 0.839956 0.167847
0.795207 0.839956 0.167847
0.823481 0.839956 0.167847
0.842193 0.839956 0.167847
0.853355 0.839956 0.167847
0.867869 0.839956 0.167847
0.887353 0.839956 0.167847
0.159882 0.852617 0.167847
0.192450 0.852617 0.167847
0.239601 0.852617 0.167847
0.306750 0.852617 0.167847
0.386348 0.852617 0.167847
0.475973 0.852617 0.167847
0.571417 0.852617 0.167847
0.654852 0.852617 0.167847
0.715951 0.852617 0.167847
0.760492 0.852617 0.167847
0.795207 0.852617 0.167847
0.823481 0.852617 0.167847
0.842193 0.852617 0.167847
0.853355 0.852617 0.167847
0.867869 0.852617 0.167847
0.887353 0.852617 0.167847
0.159882 0.867480 0.167847
0.192450 0.867480 0.167847
0.239601 0.867480 0.167847
0.306750 0.867480 0.167847
0.386348 0.867480 0.167847
0.475973 0.867480 0.167847
0.571417 0.867480 0.167847
0.654852 0.867480 0.167847
0.715951 0.867480 0.167847
0.760492 0.867480 0.167847
0.795207 0.867480 0.167847
0.823481 0.867480 0.167847
0.842193 0.867480 0.167847
0.853355 0.867480 0.167847
0.867869 0.867480 0.167847
0.887353 0.867480 0.167847
0.159882 0.163849 0.177067
0.192450 0.163849 0.177067
0.239601 0.163849 0.177067
0.306750 0.163849 0.177067
0.386348 0.163849 0.177067
0.475973 0.163849 0.177067
0.571417 0.163849 0.177067
0.654852 0.163849 0.177067
0.715951 0.163849 0.177067
0.760492 0.163849 0.177067
0.795207 0.163849 0.177067
0.823481 0.163849 0.177067
0.842193 0.163849 0.177067
0.853355 0.163849 0.177067
0.867869 0.163849 0.177067
0.887353 0.163849 0.177067
0.159882 0.168201 0.177067
0.192450 0.168201 0.177067
0.239601 0.168201 0.177067
0.306750 0.168201 0.177067
0.386348 0.168201 0.177067
0.475973 0.168201 0.177067
0.571417 0.168201 0.177067
0.654852 0.168201 0.177067
0.715951 0.168201 0.177067
0.760492 0.168201 0.177067
0.795207 0.168201 0.177067
0.823481 0.168201 0.177067
0.842193 0.168201 0.177067
0.853355 0.168201 0.177067
0.867869 0.168201 0.177067
0.887353 0.168201 0.177067
0.159882 0.200759 0.177067
0.192450 0.200759 0.177067
0.239601 0.200759 0.177067
0.306750 0.200759 0.177067
0.386348 0.200759 0.177067
0.475973 0.200759 0.177067
0.571417 0.200759 0.177067
0.654852 0.200759 0.177067
0.715951 0.200759 0.177067
0.760492 0.200759 0.177067
0.795207 0.200759 0.177067
0.823481 0.200759 0.177067
0.842193 0.200759 0.177067
0.853355 0.200759 0.177067
0.867869 0.200759 0.177067
0.887353 0.200759 0.177067
0.159882 0.275085 0.177067
0.192450 0.275085 0.177067
0.239601 0.275085 0.177067
0.306750 0.275085 0.177067
0.386348 0.275085 0.177067
0.475973 0.275085 0.177067
0.571417 0.275085 0.177067
0.654852 0.275085 0.177067
0.715951 0.275085 0.177067
0.760492 0.275085 0.177067
0.795207 0.275085 0.177067
0.823481 0.275085 0.177067
0.842193 0.275085 0.177067
0.853355 0.275085 0.177067
0.867869 0.275085 0.177067
0.887353 0.275085 0.177067
0.159882 0.383244 0.177067
0.192450 0.383244 0.177067
0.239601 0.383244 0.177067
0.306750 0.383244 0.177067
0.386348 0.383244 0.177067
0.475973 0.383244 0.177067
0.571417 0.383244 0.177067
0.654852 0.383244 0.177067
0.715951 0.383244 0.177067
0.760492 0.383244 0.177067
0.795207 0.383244 0.177067
0.823481 0.383244 0.177067
0.842193 0.383244 0.177067
0.853355 0.383244 0.177067
0.867869 0.383244 0.177067
0.887353 0.383244 0.177067
0.159882 0.501760 0.177067
0.192450 0.501760 0.177067
0.239601 0.501760 0.177067
0.306750 0.501760 0.177067
0.386348 0.501760 0.177067
0.475973 0.501760 0.177067
0.571417 0.501760 0.177067
0.654852 0.501760 0.177067
0.715951 0.501760 0.177067
0.760492 0.501760 0.177067
0.795207 0.501760 0.177067
0.823481 0.501760 0.177067
0.842193 0.501760 0.177067
0.853355 0.501760 0.177067
0.867869 0.501760 0.177067
0.887353 0.501760 0.177067
0.159882 0.600189 0.177067
0.192450 0.600189 0.177067
0.239601 0.600189 0.177067
0.306750 0.600189 0.177067
0.386348 0.600189 0.177067
0.475973 0.600189 0.177067
0.571417 0.600189 0.177067
0.654852 0.600189 0.177067
0.715951 0.600189 0.177067
0.760492 0.600189 0.177067
0.795207 0.600189 0.177067
0.823481 0.600189 0.177067
0.842193 0.600189 0.177067
0.853355 0.600189 0.177067
0.867869 0.600189 0.177067
0.887353 0.600189 0.177067
0.159882 0.671442 0.177067
0.192450 0.671442 0.177067
0.239601 0.671442 0.177067
0.306750 0.671442 0.177067
0.386348 0.671442 0.177067
0.475973 0.671442 0.177067
0.571417 0.671442 0.177067
0.654852 0.671442 0.177067
0.715951 0.671442 0.177067
0.760492 0.671442 0.177067
0.795207 0.671442 0.177067
0.823481 0.671442 0.177067
0.842193 0.671442 0.177067
0.853355 0.671442 0.177067
0.867869 0.671442 0.177067
0.887353 0.671442 0.177067
0.159882 0.720939 0.177067
0.192450 0.720939 0.177067
0.239601 0.720939 0.177067
0.306750 0.720939 0.177067
0.386348 0.720939 0.177067
0.475973 0.720939 0.177067
0.571417 0.720939 0.177067
0.654852 0.720939 0.177067
0.715951 0.720939 0.177067
0.760492 0.720939 0.177067
0.795207 0.720939 0.177067
0.823481 0.720939 0.177067
0.842193 0.720939 0.177067
0.853355 0.720939 0.177067
0.867869 0.720939 0.177067
0.887353 0.720939 0.177067
0.159882 0.758258 0.177067
0.192450 0.758258 0.177067
0.239601 0.758258 0.177067
0.306750 0.758258 0.177067
0.386348 0.758258 0.177067
0.475973 0.758258 0.177067
0.571417 0.758258 0.177067
0.654852 0.758258 0.177067
0.715951 0.758258 0.177067
0.760492 0.758258 0.177067
0.795207 0.758258 0.177067
0.823481 0.758258 0.177067
0.842193 0.758258 0.177067
0.853355 0.758258 0.177067
0.867869 0.758258 0.177067
0.887353 0.758258 0.177067
0.159882 0.788066 0.177067
0.192450 0.788066 0.177067
0.239601 0.788066 0.177067
0.306750 0.788066 0.177067
0.386348 0.788066 0.177067
0.475973 0.788066 0.177067
0.571417 0.788066 0.177067
0.654852 0.788066 0.177067
0.715951 0.788066 0.177067
0.760492 0.788066 0.177067
0.795207 0.788066 0.177067
0.823481 0.788066 0.177067
0.842193 0.788066 0.177067
0.853355 0.788066 0.177067
0.867869 0.788066 0.177067
0.887353 0.788066 0.177067
0.159882 0.811644 0.177067
0.192450 0.811644 0.177067
0.239601 0.811644 0.177067
0.306750 0.811644 0.177067
0.386348 0.811644 0.177067
0.475973 0.811644 0.177067
0.571417 0.811644 0.177067
0.654852 0.811644 0.177067
0.715951 0.811644 0.177067
0.760492 0.811644 0.177067
0.795207 0.811644 0.177067
0.823481 0.811644 0.177067
0.842193 0.811644 0.177067
0.853355 0.811644 0.177067
0.867869 0.811644 0.177067
0.887353 0.811644 0.177067
0.159882 0.828296 0.177067
0.192450 0.828296 0.177067
0.239601 0.828296 0.177067
0.306750 0.828296 0.177067
0.386348 0.828296 0.177067
0.475973 0.828296 0.177067
0.571417 0.828296 0.177067
0.654852 0.828296 0.177067
0.715951 0.828296 0.177067
0.760492 0.828296 0.177067
0.795207 0.828296 0.177067
0.823481 0.828296 0.177067
0.842193 0.828296 0.177067
0.853355 0.828296 0.177067
0.867869 0.828296 0.177067
0.887353 0.828296 0.177067
0.159882 0.839956 0.177067
0.192450 0.839956 0.177067
0.239601 0.839956 0.177067
0.306750 0.839956 0.177067
0.386348 0.839956 0.177067
0.475973 0.839956 0.177067
0.571417 0.839956 0.177067
0.654852 0.839956 0.177067
0.715951 0.839956 0.177067
0.760492 0.839956 0.177067
0.795207 0.839956 0.177067
0.823481 0.839956 0.177067
0.842193 0.839956 0.177067
0.853355 0.839956 0.177067
0.867869 0.839956 0.177067
0.887353 0.839956 0.177067
0.159882 0.852617 0.177067
0.192450 0.852617 0.177067
0.239601 0.852617 0.177067
0.306750 0.852617 0.177067
0.386348 0.852617 0.177067
0.475973 0.852617 0.177067
0.571417 0.852617 0.177067
0.654852 0.852617 0.177067
0.715951 0.852617 0.177067
0.760492 0.852617 0.177067
0.795207 0.852617 0.177067
0.823481 0.852617 0.177067
0.842193 0.852617 0.177067
0.853355 0.852617 0.177067
0.867869 0.852617 0.177067
0.887353 0.852617 0.177067
0.159882 0.867480 0.177067
0.192450 0.867480 0.177067
0.239601 0.867480 0.177067
0.306750 0.867480 0.177067
0.386348 0.867480 0.177067
0.475973 0.867480 0.177067
0.571417 0.867480 0.177067
0.654852 0.867480 0.177067
0.715951 0.867480 0.177067
0.760492 0.867480 0.177067
0.795207 0.867480 0.177067
0.823481 0.867480 0.177067
0.842193 0.867480 0.177067
0.853355 0.867480 0.177067
0.867869 0.867480 0.177067
0.887353 0.867480 0.177067
0.159882 0.163849 0.223076
0.192450 0.163849 0.223076
0.239601 0.163849 0.223076
0.306750 0.163849 0.223076
0.386348 0.163849 0.223076
0.475973 0.163849 0.223076
0.571417 0.163849 0.223076
0.654852 0.163849 0.223076
0.715951 0.163849 0.223076
0.760492 0.163849 0.223076
0.795207 0.163849 0.223076
0.823481 0.163849 0.223076
0.842193 0.163849 0.223076
0.853355 0.163849 0.223076
0.867869 0.163849 0.223076
0.887353 0.163849 0.223076
0.159882 0.168201 0.223076
0.192450 0.168201 0.223076
0.239601 0.168201 0.223076
0.306750 0.168201 0.223076
0.386348 0.168201 0.223076
0.475973 0.168201 0.223076
0.571417 0.168201 0.223076
0.654852 0.168201 0.223076
0.715951 0.168201 0.223076
0.760492 0.168201 0.223076
0.795207 0.168201 0.223076
0.823481 0.168201 0.223076
0.842193 0.168201 0.223076
0.853355 0.168201 0.223076
0.867869 0.168201 0.223076
0.887353 0.168201 0.223076
0.159882 0.200759 0.223076
0.192450 0.200759 0.223076
0.239601 0.200759 0.223076
0.306750 0.200759 0.223076
0.386348 0.200759 0.223076
0.475973 0.200759 0.223076
0.571417 0.200759 0.223076
0.654852 0.200759 0.223076
0.715951 0.200759 0.223076
0.760492 0.200759 0.223076
0.795207 0.200759 0.223076
0.823481 0.200759 0.223076
0.842193 0.200759 0.223076
0.853355 0.200759 0.223076
0.867869 0.200759 0.223076
0.887353 0.200759 0.223076
0.159882 0.275085 0.223076
0.192450 0.275085 0.223076
0.239601 0.275085 0.223076
0.306750 0.275085 0.223076
0.386348 0.275085 0.223076
0.475973 0.275085 0.223076
0.571417 0.275085 0.223076
0.654852 0.275085 0.223076
0.715951 0.275085 0.223076
0.760492 0.275085 0.223076
0.795207 0.275085 0.223076
0.823481 0.275085 0.223076
0.842193 0.275085 0.223076
0.853355 0.275085 0.223076
0.867869 0.275085 0.223076
0.887353 0.275085 0.223076
0.159882 0.383244 0.223076
0.192450 0.383244 0.223076
0.239601 0.383244 0.223076
0.306750 0.383244 0.223076
0.386348 0.383244 0.223076
0.475973 0.383244 0.223076
0.571417 0.383244 0.223076
0.654852 0.383244 0.223076
0.715951 0.383244 0.223076
0.760492 0.383244 0.223076
0.795207 0.383244 0.223076
0.823481 0.383244 0.223076
0.842193 0.383244 0.223076
0.853355 0.383244 0.223076
0.867869 0.383244 0.223076
0.887353 0.383244 0.223076
0.159882 0.501760 0.223076
0.192450 0.501760 0.223076
0.239601 0.501760 0.223076
0.306750 0.501760 0.223076
0.386348 0.501760 0.223076
0.475973 0.501760 0.223076
0.571417 0.501760 0.223076
0.654852 0.501760 0.223076
0.715951 0.501760 0.223076
0.760492 0.501760 0.223076
0.795207 0.501760 0.223076
0.823481 0.501760 0.223076
0.842193 0.501760 0.223076
0.853355 0.501760 0.223076
0.867869 0.501760 0.223076
0.887353 0.501760 0.223076
0.159882 0.600189 0.223076
0.192450 0.600189 0.223076
0.239601 0.600189 0.223076
0.306750 0.600189 0.223076
0.386348 0.600189 0.223076
0.475973 0.600189 0.223076
0.571417 0.600189 0.223076
0.654852 0.600189 0.223076
0.715951 0.600189 0.223076
0.760492 0.600189 0.223076
0.795207 0.600189 0.223076
0.823481 0.600189 0.223076
0.842193 0.600189 0.223076
0.853355 0.600189 0.223076
0.867869 0.600189 0.223076
0.887353 0.600189 0.223076
0.159882 0.671442 0.223076
0.192450 0.671442 0.223076
0.239601 0.671442 0.223076
0.306750 0.671442 0.223076
0.386348 0.671442 0.223076
0.475973 0.671442 0.223076
0.571417 0.671442 0.223076
0.654852 0.671442 0.223076
0.715951 0.671442 0.223076
0.760492 0.671442 0.223076
0.795207 0.671442 0.223076
0.823481 0.671442 0.223076
0.842193 0.671442 0.223076
0.853355 0.671442 0.223076
0.867869 0.671442 0.223076
0.887353 0.671442 0.223076
0.159882 0.720939 0.223076
0.192450 0.720939 0.223076
0.239601 0.720939 0.223076
0.306750 0.720939 0.223076
0.386348 0.720939 0.223076
0.475973 0.720939 0.223076
0.571417 0.720939 0.223076
0.654852 0.720939 0.223076
0.715951 0.720939 0.223076
0.760492 0.720939 0.223076
0.795207 0.720939 0.223076
0.823481 0.720939 0.223076
0.842193 0.720939 0.223076
0.853355 0.720939 0.223076
0.867869 0.720939 0.223076
0.887353 0.720939 0.223076
0.159882 0.758258 0.223076
0.192450 0.758258 0.223076
0.239601 0.758258 0.223076
0.306750 0.758258 0.223076
0.386348 0.758258 0.223076
0.475973 0.758258 0.223076
0.571417 0.758258 0.223076
0.654852 0.758258 0.223076
0.715951 0.758258 0.223076
0.760492 0.758258 0.223076
0.795207 0.758258 0.223076
0.823481 0.758258 0.223076
0.842193 0.758258 0.223076
0.853355 0.758258 0.223076
0.867869 0.758258 0.223076
0.887353 0.758258 0.223076
0.159882 0.788066 0.223076
0.192450 0.788066 0.223076
0.239601 0.788066 0.223076
0.306750 0.788066 0.223076
0.386348 0.788066 0.223076
0.475973 0.788066 0.223076
0.571417 0.788066 0.223076
0.654852 0.788066 0.223076
0.715951 0.788066 0.223076
0.760492 0.788066 0.223076
0.795207 0.788066 0.223076
0.823481 0.788066 0.223076
0.842193 0.788066 0.223076
0.853355 0.788066 0.223076
0.867869 0.788066 0.223076
0.887353 0.788066 0.223076
0.159882 0.811644 0.223076
0.192450 0.811644 0.223076
0.239601 0.811644 0.223076
0.306750 0.811644 0.223076
0.386348 0.811644 0.223076
0.475973 0.811644 0.223076
0.571417 0.811644 0.223076
0.654852 0.811644 0.223076
0.715951 0.811644 0.223076
0.760492 0.811644 0.223076
0.795207 0.811644 0.223076
0.823481 0.811644 0.223076
0.842193 0.811644 0.223076
0.853355 0.811644 0.223076
0.867869 0.811644 0.223076
0.887353 0.811644 0.223076
0.159882 0.828296 0.223076
0.192450 0.828296 0.223076
0.239601 0.828296 0.223076
0.306750 0.828296 0.223076
0.386348 0.828296 0.223076
0.475973 0.828296 0.223076
0.571417 0.828296 0.223076
0.654852 0.828296 0.223076
0.715951 0.828296 0.223076
0.760492 0.828296 0.223076
0.795207 0.828296 0.223076
0.823481 0.828296 0.223076
0.842193 0.828296 0.223076
0.853355 0.828296 0.223076
0.867869 0.828296 0.223076
0.887353 0.828296 0.223076
0.159882 0.839956 0.223076
0.192450 0.839956 0.223076
0.239601 0.839956 0.223076
0.306750 0.839956 0.223076
0.386348 0.839956 0.223076
0.475973 0.839956 0.223076
0.571417 0.839956 0.223076
0.654852 0.839956 0.223076
0.715951 0.839956 0.223076
0.760492 0.839956 0.223076
0.795207 0.839956 0.223076
0.823481 0.839956 0.223076
0.842193 0.839956 0.223076
0.853355 0.839956 0.223076
0.867869 0.839956 0.223076
0.887353 0.839956 0.223076
0.159882 0.852617 0.223076
0.192450 0.852617 0.223076
0.239601 0.852617 0.223076
0.306750 0.852617 0.223076
0.386348 0.852617 0.223076
0.475973 0.852617 0.223076
0.571417 0.852617 0.223076
0.654852 0.852617 0.223076
0.715951 0.852617 0.223076
0.760492 0.852617 0.223076
0.795207 0.852617 0.223076
0.823481 0.852617 0.223076
0.842193 0.852617 0.223076
0.853355 0.852617 0.223076
0.867869 0.852617 0.223076
0.887353 0.852617 0.223076
0.159882 0.867480 0.223076
0.192450 0.867480 0.223076
0.239601 0.867480 0.223076
0.306750 0.867480 0.223076
0.386348 0.867480 0.223076
0.475973 0.867480 0.223076
0.571417 0.867480 0.223076
0.654852 0.867480 0.223076
0.715951 0.867480 0.223076
0.760492 0.867480 0.223076
0.795207 0.867480 0.223076
0.823481 0.867480 0.223076
0.842193 0.867480 0.223076
0.853355 0.867480 0.223076
0.867869 0.867480 0.223076
0.887353 0.867480 0.223076
0.159882 0.163849 0.312482
0.192450 0.163849 0.312482
0.239601 0.163849 0.312482
0.306750 0.163849 0.312482
0.386348 0.163849 0.312482
0.475973 0.163849 0.312482
0.571417 0.163849 0.312482
0.654852 0.163849 0.312482
0.715951 0.163849 0.312482
0.760492 0.163849 0.312482
0.795207 0.163849 0.312482
0.823481 0.163849 0.312482
0.842193 0.163849 0.312482
0.853355 0.163849 0.312482
0.867869 0.163849 0.312482
0.887353 0.163849 0.312482
0.159882 0.168201 0.312482
0.192450 0.168201 0.312482
0.239601 0.168201 0.312482
0.306750 0.168201 0.312482
0.386348 0.168201 0.312482
0.475973 0.168201 0.312482
0.571417 0.168201 0.312482
0.654852 0.168201 0.312482
0.715951 0.168201 0.312482
0.760492 0.168201 0.312482
0.795207 0.168201 0.312482
0.823481 0.168201 0.312482
0.842193 0.168201 0.312482
0.853355 0.168201 0.312482
0.867869 0.168201 0.312482
0.887353 0.168201 0.312482
0.159882 0.200759 0.312482
0.192450 0.200759 0.312482
0.239601 0.200759 0.312482
0.306750 0.200759 0.312482
0.386348 0.200759 0.312482
0.475973 0.200759 0.312482
0.571417 0.200759 0.312482
0.654852 0.200759 0.312482
0.715951 0.200759 0.312482
0.760492 0.200759 0.312482
0.795207 0.200759 0.312482
0.823481 0.200759 0.312482
0.842193 0.200759 0.312482
0.853355 0.200759 0.312482
0.867869 0.200759 0.312482
0.887353 0.200759 0.312482
0.159882 0.275085 0.312482
0.192450 0.275085 0.312482
0.239601 0.275085 0.312482
0.306750 0.275085 0.312482
0.386348 0.275085 0.312482
0.475973 0.275085 0.312482
0.571417 0.275085 0.312482
0.654852 0.275085 0.312482
0.715951 0.275085 0.312482
0.760492 0.275085 0.312482
0.795207 0.275085 0.312482
0.823481 0.275085 0.312482
0.842193 0.275085 0.312482
0.853355 0.275085 0.312482
0.867869 0.275085 0.312482
0.887353 0.275085 0.312482
0.159882 0.383244 0.312482
0.192450 0.383244 0.312482
0.239601 0.383244 0.312482
0.306750 0.383244 0.312482
0.386348 0.383244 0.312482
0.475973 0.383244 0.312482
0.571417 0.383244 0.312482
0.654852 0.383244 0.312482
0.715951 0.383244 0.312482
0.760492 0.383244 0.312482
0.795207 0.383244 0.312482
0.823481 0.383244 0.312482
0.842193 0.383244 0.312482
0.853355 0.383244 0.312482
0.867869 0.383244 0.312482
0.887353 0.383244 0.312482
0.159882 0.501760 0.312482
0.192450 0.501760 0.312482
0.239601 0.501760 0.312482
0.306750 0.501760 0.312482
0.386348 0.501760 0.312482
0.475973 0.501760 0.312482
0.571417 0.501760 0.312482
0.654852 0.501760 0.312482
0.715951 0.501760 0.312482
0.760492 0.501760 0.312482
0.795207 0.501760 0.312482
0.823481 0.501760 0.312482
0.842193 0.501760 0.312482
0.853355 0.501760 0.312482
0.867869 0.501760 0.312482
0.887353 0.501760 0.312482
0.159882 0.600189 0.312482
0.192450 0.600189 0.312482
0.239601 0.600189 0.312482
0.306750 0.600189 0.312482
0.386348 0.600189 0.312482
0.475973 0.600189 0.312482
0.571417 0.600189 0.312482
0.654852 0.600189 0.312482
0.715951 0.600189 0.312482
0.760492 0.600189 0.312482
0.795207 0.600189 0.312482
0.823481 0.600189 0.312482
0.842193 0.600189 0.312482
0.853355 0.600189 0.312482
0.867869 0.600189 0.312482
0.887353 0.600189 0.312482
0.159882 0.671442 0.312482
0.192450 0.671442 0.312482
0.239601 0.671442 0.312482
0.306750 0.671442 0.312482
0.386348 0.671442 0.312482
0.475973 0.671442 0.312482
0.571417 0.671442 0.312482
0.654852 0.671442 0.312482
