12 Instagram Color Filters LUTS (Pack 2)/Gingham.cube
LUT_3D_SIZE 6
0.159882 0.163849 0.167847
0.306750 0.163849 0.167847
0.571417 0.163849 0.167847
0.760492 0.163849 0.167847
0.842193 0.163849 0.167847
0.887353 0.163849 0.167847
0.159882 0.275085 0.167847
0.306750 0.275085 0.167847
0.571417 0.275085 0.167847
0.760492 0.275085 0.167847
0.842193 0.275085 0.167847
0.887353 0.275085 0.167847
0.159882 0.600189 0.167847
0.306750 0.600189 0.167847
0.571417 0.600189 0.167847
0.760492 0.600189 0.167847
0.842193 0.600189 0.167847
0.887353 0.600189 0.167847
0.159882 0.758258 0.167847
0.306750 0.758258 0.167847
0.571417 0.758258 0.167847
0.760492 0.758258 0.167847
0.842193 0.758258 0.167847
0.887353 0.758258 0.167847
0.159882 0.828296 0.167847
0.306750 0.828296 0.167847
0.571417 0.828296 0.167847
0.760492 0.828296 0.167847
0.842193 0.828296 0.167847
0.887353 0.828296 0.167847
0.159882 0.867480 0.167847
0.306750 0.867480 0.167847
0.571417 0.867480 0.167847
0.760492 0.867480 0.167847
0.842193 0.867480 0.167847
0.887353 0.867480 0.167847
0.159882 0.163849 0.312482
0.306750 0.163849 0.312482
0.571417 0.163849 0.312482
0.760492 0.163849 0.312482
0.842193 0.163849 0.312482
0.887353 0.163849 0.312482
0.159882 0.275085 0.312482
0.306750 0.275085 0.312482
0.571417 0.275085 0.312482
0.760492 0.275085 0.312482
0.842193 0.275085 0.312482
0.887353 0.275085 0.312482
0.159882 0.600189 0.312482
0.306750 0.600189 0.312482
0.571417 0.600189 0.312482
0.760492 0.600189 0.312482
0.842193 0.600189 0.312482
0.887353 0.600189 0.312482
0.159882 0.758258 0.312482
0.306750 0.758258 0.312482
0.571417 0.758258 0.312482
0.760492 0.758258 0.312482
0.842193 0.758258 0.312482
0.887353 0.758258 0.312482
0.159882 0.828296 0.312482
0.306750 0.828296 0.312482
0.571417 0.828296 0.312482
0.760492 0.828296 0.312482
0.842193 0.828296 0.312482
0.887353 0.828296 0.312482
0.159882 0.867480 0.312482
0.306750 0.867480 0.312482
0.571417 0.867480 0.312482
0.760492 0.867480 0.312482
0.842193 0.867480 0.312482
0.887353 0.867480 0.312482
0.159882 0.163849 0.607794
0.306750 0.163849 0.607794
0.571417 0.163849 0.607794
0.760492 0.163849 0.607794
0.842193 0.163849 0.607794
0.887353 0.163849 0.607794
0.159882 0.275085 0.607794
0.306750 0.275085 0.607794
0.571417 0.275085 0.607794
0.760492 0.275085 0.607794
0.842193 0.275085 0.607794
0.887353 0.275085 0.607794
0.159882 0.600189 0.607794
0.306750 0.600189 0.607794
0.571417 0.600189 0.607794
0.760492 0.600189 0.607794
0.842193 0.600189 0.607794
0.887353 0.600189 0.607794
0.159882 0.758258 0.607794
0.306750 0.758258 0.607794
0.571417 0.758258 0.607794
0.760492 0.758258 0.607794
0.842193 0.758258 0.607794
0.887353 0.758258 0.607794
0.159882 0.828296 0.607794
0.306750 0.828296 0.607794
0.571417 0.828296 0.607794
0.760492 0.828296 0.607794
0.842193 0.828296 0.607794
0.887353 0.828296 0.607794
0.159882 0.867480 0.607794
0.306750 0.867480 0.607794
0.571417 0.867480 0.607794
0.760492 0.867480 0.607794
0.842193 0.867480 0.607794
0.887353 0.867480 0.607794
0.159882 0.163849 0.786487
0.306750 0.163849 0.786487
0.571417 0.163849 0.786487
0.760492 0.163849 0.786487
0.842193 0.163849 0.786487
0.887353 0.163849 0.786487
0.159882 0.275085 0.786487
0.306750 0.275085 0.786487
0.571417 0.275085 0.786487
0.760492 0.275085 0.786487
0.842193 0.275085 0.786487
0.887353 0.275085 0.786487
0.159882 0.600189 0.786487
0.306750 0.600189 0.786487
0.571417 0.600189 0.786487
0.760492 0.600189 0.786487
0.842193 0.600189 0.786487
0.887353 0.600189 0.786487
0.159882 0.758258 0.786487
0.306750 0.758258 0.786487
0.571417 0.758258 0.786487
0.760492 0.758258 0.786487
0.842193 0.758258 0.786487
0.887353 0.758258 0.786487
0.159882 0.828296 0.786487
0.306750 0.828296 0.786487
0.571417 0.828296 0.786487
0.760492 0.828296 0.786487
0.842193 0.828296 0.786487
0.887353 0.828296 0.786487
0.159882 0.867480 0.786487
0.306750 0.867480 0.786487
0.571417 0.867480 0.786487
0.760492 0.867480 0.786487
0.842193 0.867480 0.786487
0.887353 0.867480 0.786487
0.159882 0.163849 0.833923
0.306750 0.163849 0.833923
0.571417 0.163849 0.833923
0.760492 0.163849 0.833923
0.842193 0.163849 0.833923
0.887353 0.163849 0.833923
0.159882 0.275085 0.833923
0.306750 0.275085 0.833923
0.571417 0.275085 0.833923
0.760492 0.275085 0.833923
0.842193 0.275085 0.833923
0.887353 0.275085 0.833923
0.159882 0.600189 0.833923
0.306750 0.600189 0.833923
0.571417 0.600189 0.833923
0.760492 0.600189 0.833923
0.842193 0.600189 0.833923
0.887353 0.600189 0.833923
0.159882 0.758258 0.833923
0.306750 0.758258 0.833923
0.571417 0.758258 0.833923
0.760492 0.758258 0.833923
0.842193 0.758258 0.833923
0.887353 0.758258 0.833923
0.159882 0.828296 0.833923
0.306750 0.828296 0.833923
0.571417 0.828296 0.833923
0.760492 0.828296 0.833923
0.842193 0.828296 0.833923
0.887353 0.828296 0.833923
0.159882 0.867480 0.833923
0.306750 0.867480 0.833923
0.571417 0.867480 0.833923
0.760492 0.867480 0.833923
0.842193 0.867480 0.833923
0.887353 0.867480 0.833923
0.159882 0.163849 0.864177
0.306750 0.163849 0.864177
0.571417 0.163849 0.864177
0.760492 0.163849 0.864177
0.842193 0.163849 0.864177
0.887353 0.163849 0.864177
0.159882 0.275085 0.864177
0.306750 0.275085 0.864177
0.571417 0.275085 0.864177
0.760492 0.275085 0.864177
0.842193 0.275085 0.864177
0.887353 0.275085 0.864177
0.159882 0.600189 0.864177
0.306750 0.600189 0.864177
0.571417 0.600189 0.864177
0.760492 0.600189 0.864177
0.842193 0.600189 0.864177
0.887353 0.600189 0.864177
0.159882 0.758258 0.864177
0.306750 0.758258 0.864177
0.571417 0.758258 0.864177
0.760492 0.758258 0.864177
0.842193 0.758258 0.864177
0.887353 0.758258 0.864177
0.159882 0.828296 0.864177
0.306750 0.828296 0.864177
0.571417 0.828296 0.864177
0.760492 0.828296 0.864177
0.842193 0.828296 0.864177
0.887353 0.828296 0.864177
0.159882 0.867480 0.864177
0.306750 0.867480 0.864177
0.571417 0.867480 0.864177
0.760492 0.867480 0.864177
0.842193 0.867480 0.864177
0.887353 0.867480 0.864177
